(G-CODE GENERATED BY FLATCAM v8.991 - www.flatcam.org - Version Date: 2019/12/27)

(Name: Alignment Drills_3mm_drill)
(Type: G-code from Excellon)
(Units: MM)

(Created on Thursday, 16 April 2020 at 20:31)

(Feedrate: 100.0 mm/min)
(Feedrate rapids 1500.0 mm/min)

(Z_Cut: -7.0 mm)
(Z_Move: 2.0 mm)
(Z Toolchange: 15.0 mm)
(X,Y Toolchange: 0.0000, 0.0000 mm)
(Z Start: None mm)
(Z End: 5.0 mm)
(Steps per circle: 64)
(Preprocessor Excellon: grbl_11)
(X range:    2.5000 ...   51.5000  mm)
(Y range:    1.5000 ...   59.5000  mm)

(Spindle Speed: 12000.0 RPM)

G21
G90
G17
G94




G01 F100.00
G00 Z2.0000

M03 S12000.0
G4 P1.0
G00 X4.0000 Y58.0000
G01 Z-7.0000
G01 Z0
G00 Z2.0000
G00 X50.0000 Y58.0000
G01 Z-7.0000
G01 Z0
G00 Z2.0000
G00 X50.0000 Y3.0000
G01 Z-7.0000
G01 Z0
G00 Z2.0000
G00 X4.0000 Y3.0000
G01 Z-7.0000
G01 Z0
G00 Z2.0000
M05
G00 Z5.00
G00 X0.0 Y0.0

