(G-CODE GENERATED BY FLATCAM v8.991 - www.flatcam.org - Version Date: 2019/12/27)

(Name: DRV-Based Balun_1.1mm_drill)
(Type: G-code from Excellon)
(Units: MM)

(Created on Thursday, 16 April 2020 at 20:28)

(Feedrate: 75.0 mm/min)
(Feedrate rapids 1500.0 mm/min)

(Z_Cut: -2.0 mm)
(Z_Move: 0.2 mm)
(Z Toolchange: 15.0 mm)
(X,Y Toolchange: 0.0000, 0.0000 mm)
(Z Start: None mm)
(Z End: 5.0 mm)
(Steps per circle: 64)
(Preprocessor Excellon: grbl_11)
(X range:    3.4100 ...   52.1690  mm)
(Y range:    0.7330 ...   60.1700  mm)

(Spindle Speed: 15000.0 RPM)

G21
G90
G17
G94




G01 F75.00
G00 Z0.2000

M03 S15000.0
G4 P1.0
G00 X14.3510 Y12.3190
G01 Z-2.0000
G01 Z0
G00 Z0.2000
G00 X11.8110 Y12.3190
G01 Z-2.0000
G01 Z0
G00 Z0.2000
G00 X9.2710 Y12.3190
G01 Z-2.0000
G01 Z0
G00 Z0.2000
G00 X6.7310 Y12.3190
G01 Z-2.0000
G01 Z0
G00 Z0.2000
G00 X6.7310 Y19.9390
G01 Z-2.0000
G01 Z0
G00 Z0.2000
G00 X9.2710 Y19.9390
G01 Z-2.0000
G01 Z0
G00 Z0.2000
G00 X11.8110 Y19.9390
G01 Z-2.0000
G01 Z0
G00 Z0.2000
G00 X14.3510 Y19.9390
G01 Z-2.0000
G01 Z0
G00 Z0.2000
G00 X18.0340 Y17.1920
G01 Z-2.0000
G01 Z0
G00 Z0.2000
G00 X15.4940 Y23.8760
G01 Z-2.0000
G01 Z0
G00 Z0.2000
G00 X15.1130 Y29.9720
G01 Z-2.0000
G01 Z0
G00 Z0.2000
G00 X12.5730 Y29.9720
G01 Z-2.0000
G01 Z0
G00 Z0.2000
G00 X10.0330 Y29.9720
G01 Z-2.0000
G01 Z0
G00 Z0.2000
G00 X3.8100 Y35.5600
G01 Z-2.0000
G01 Z0
G00 Z0.2000
G00 X6.0960 Y40.1320
G01 Z-2.0000
G01 Z0
G00 Z0.2000
G00 X11.0490 Y48.2600
G01 Z-2.0000
G01 Z0
G00 Z0.2000
G00 X14.5490 Y48.2600
G01 Z-2.0000
G01 Z0
G00 Z0.2000
G00 X16.2560 Y40.1320
G01 Z-2.0000
G01 Z0
G00 Z0.2000
G00 X13.9700 Y35.5600
G01 Z-2.0000
G01 Z0
G00 Z0.2000
G00 X29.4640 Y38.9420
G01 Z-2.0000
G01 Z0
G00 Z0.2000
G00 X29.4640 Y43.9420
G01 Z-2.0000
G01 Z0
G00 Z0.2000
G00 X35.6870 Y37.8460
G01 Z-2.0000
G01 Z0
G00 Z0.2000
G00 X35.6870 Y32.8460
G01 Z-2.0000
G01 Z0
G00 Z0.2000
G00 X25.6540 Y23.8760
G01 Z-2.0000
G01 Z0
G00 Z0.2000
G00 X28.8290 Y18.7960
G01 Z-2.0000
G01 Z0
G00 Z0.2000
G00 X28.8290 Y13.7960
G01 Z-2.0000
G01 Z0
G00 Z0.2000
G00 X32.6390 Y11.6840
G01 Z-2.0000
G01 Z0
G00 Z0.2000
G00 X32.6390 Y6.6840
G01 Z-2.0000
G01 Z0
G00 Z0.2000
G00 X18.0340 Y12.1920
G01 Z-2.0000
G01 Z0
G00 Z0.2000
M03 S15000.0
G4 P1.0
G00 X47.4980 Y22.2250
G01 Z-2.0000
G01 Z0
G00 Z0.2000
G00 X47.4980 Y19.6850
G01 Z-2.0000
G01 Z0
G00 Z0.2000
G00 X47.4980 Y17.1450
G01 Z-2.0000
G01 Z0
G00 Z0.2000
G00 X35.0520 Y27.3050
G01 Z-2.0000
G01 Z0
G00 Z0.2000
G00 X32.5120 Y27.3050
G01 Z-2.0000
G01 Z0
G00 Z0.2000
G00 X6.0960 Y45.5930
G01 Z-2.0000
G01 Z0
G00 Z0.2000
G00 X6.0960 Y48.1330
G01 Z-2.0000
G01 Z0
G00 Z0.2000
G00 X33.1470 Y52.1970
G01 Z-2.0000
G01 Z0
G00 Z0.2000
G00 X35.6870 Y52.1970
G01 Z-2.0000
G01 Z0
G00 Z0.2000
G00 X47.7520 Y46.7360
G01 Z-2.0000
G01 Z0
G00 Z0.2000
G00 X47.7520 Y44.1960
G01 Z-2.0000
G01 Z0
G00 Z0.2000
G00 X47.7520 Y41.6560
G01 Z-2.0000
G01 Z0
G00 Z0.2000
M03 S15000.0
G4 P1.0
G00 X32.6390 Y23.1140
G01 Z-2.0000
G01 Z0
G00 Z0.2000
G00 X32.6390 Y15.4940
G01 Z-2.0000
G01 Z0
G00 Z0.2000
G00 X35.1790 Y15.4940
G01 Z-2.0000
G01 Z0
G00 Z0.2000
G00 X37.7190 Y15.4940
G01 Z-2.0000
G01 Z0
G00 Z0.2000
G00 X40.2590 Y15.4940
G01 Z-2.0000
G01 Z0
G00 Z0.2000
G00 X40.2590 Y23.1140
G01 Z-2.0000
G01 Z0
G00 Z0.2000
G00 X37.7190 Y23.1140
G01 Z-2.0000
G01 Z0
G00 Z0.2000
G00 X35.6870 Y40.5130
G01 Z-2.0000
G01 Z0
G00 Z0.2000
G00 X38.2270 Y40.5130
G01 Z-2.0000
G01 Z0
G00 Z0.2000
G00 X40.7670 Y40.5130
G01 Z-2.0000
G01 Z0
G00 Z0.2000
G00 X40.7670 Y48.1330
G01 Z-2.0000
G01 Z0
G00 Z0.2000
G00 X38.2270 Y48.1330
G01 Z-2.0000
G01 Z0
G00 Z0.2000
G00 X35.6870 Y48.1330
G01 Z-2.0000
G01 Z0
G00 Z0.2000
G00 X33.1470 Y48.1330
G01 Z-2.0000
G01 Z0
G00 Z0.2000
G00 X33.1470 Y40.5130
G01 Z-2.0000
G01 Z0
G00 Z0.2000
G00 X35.1790 Y23.1140
G01 Z-2.0000
G01 Z0
G00 Z0.2000
M05
G00 Z5.00
G00 X0.0 Y0.0

