(G-CODE GENERATED BY FLATCAM v8.991 - www.flatcam.org - Version Date: 2019/12/27)

(Name: DRV-Based Balun_3mm_drill)
(Type: G-code from Excellon)
(Units: MM)

(Created on Thursday, 16 April 2020 at 20:30)

(Feedrate: 75.0 mm/min)
(Feedrate rapids 1500.0 mm/min)

(Z_Cut: -2.0 mm)
(Z_Move: 0.2 mm)
(Z Toolchange: 15.0 mm)
(X,Y Toolchange: 0.0000, 0.0000 mm)
(Z Start: None mm)
(Z End: 5.0 mm)
(Steps per circle: 64)
(Preprocessor Excellon: grbl_11)
(X range:    3.4100 ...   52.1690  mm)
(Y range:    0.7330 ...   60.1700  mm)

(Spindle Speed: 15000.0 RPM)

G21
G90
G17
G94




G01 F75.00
G00 Z0.2000

M03 S15000.0
G4 P1.0
G00 X41.4530 Y2.4830
G01 Z-2.0000
G01 Z0
G00 Z0.2000
G00 X26.5030 Y2.4830
G01 Z-2.0000
G01 Z0
G00 Z0.2000
G00 X26.4160 Y58.4200
G01 Z-2.0000
G01 Z0
G00 Z0.2000
G00 X50.4190 Y58.4200
G01 Z-2.0000
G01 Z0
G00 Z0.2000
M05
G00 Z5.00
G00 X0.0 Y0.0

