(G-CODE GENERATED BY FLATCAM v8.991 - www.flatcam.org - Version Date: 2019/12/27)

(Name: [2] DRV-Based Balun-F_Cu_iso)
(Type: G-code from Geometry)
(Units: MM)

(Created on Sunday, 19 April 2020 at 21:28)

(TOOL DIAMETER: 0.1201 mm)

(Feedrate: 150.0 mm/min)
(Feedrate_Z: 60.0 mm/min)
(Feedrate rapids 1500.0 mm/min)

(Z_Cut: -0.1149 mm)
(Z_Move: 2.0 mm)
(Z Toolchange: 15.0 mm)
(X,Y Toolchange: 0.0000, 0.0000 mm)
(Z Start: None mm)
(Z End: 5.0 mm)
(Steps per circle: 64)
(Preprocessor Geometry: grbl_11)

(X range:    2.9500 ...   52.2290  mm)
(Y range:    0.6730 ...   60.2300  mm)

(Spindle Speed: 20000 RPM)

G21
G90
G17
G94




G01 F150.00
G00 Z2.0000

M03 S20000
G4 P1.0
G00 X5.7456 Y12.9296
G01 F60.00
G01 Z-0.1149
G01 F150.00
G01 X5.7456 Y14.6087 F150.00
G01 X5.7494 Y14.6913 F150.00
G01 X5.7515 Y14.7118 F150.00
G01 X5.7626 Y14.7871 F150.00
G01 X5.7667 Y14.8073 F150.00
G01 X5.7851 Y14.8811 F150.00
G01 X5.7911 Y14.9009 F150.00
G01 X5.8168 Y14.9725 F150.00
G01 X5.8247 Y14.9916 F150.00
G01 X5.8572 Y15.0604 F150.00
G01 X5.8669 Y15.0786 F150.00
G01 X5.9060 Y15.1438 F150.00
G01 X5.9175 Y15.1610 F150.00
G01 X5.9628 Y15.2221 F150.00
G01 X5.9759 Y15.2380 F150.00
G01 X6.0316 Y15.2992 F150.00
G01 X7.5608 Y16.8284 F150.00
G01 X7.6220 Y16.8841 F150.00
G01 X7.6379 Y16.8972 F150.00
G01 X7.6990 Y16.9425 F150.00
G01 X7.7162 Y16.9540 F150.00
G01 X7.7814 Y16.9931 F150.00
G01 X7.7996 Y17.0028 F150.00
G01 X7.8684 Y17.0353 F150.00
G01 X7.8875 Y17.0432 F150.00
G01 X7.9591 Y17.0689 F150.00
G01 X7.9789 Y17.0749 F150.00
G01 X8.0527 Y17.0933 F150.00
G01 X8.0729 Y17.0974 F150.00
G01 X8.1482 Y17.1085 F150.00
G01 X8.1687 Y17.1106 F150.00
G01 X8.2410 Y17.1141 F150.00
G01 X8.2513 Y17.1144 F150.00
G01 X12.1828 Y17.1144 F150.00
G01 X13.3656 Y18.2972 F150.00
G01 X13.3656 Y18.8304 F150.00
G01 X13.3508 Y18.8393 F150.00
G01 X13.3224 Y18.8604 F150.00
G01 X13.2962 Y18.8842 F150.00
G01 X13.2724 Y18.9104 F150.00
G01 X13.2513 Y18.9388 F150.00
G01 X13.2331 Y18.9691 F150.00
G01 X13.2180 Y19.0011 F150.00
G01 X13.2061 Y19.0344 F150.00
G01 X13.1975 Y19.0687 F150.00
G01 X13.1923 Y19.1037 F150.00
G01 X13.1910 Y19.1316 F150.00
G01 X13.1910 Y20.7464 F150.00
G01 X13.1923 Y20.7743 F150.00
G01 X13.1975 Y20.8093 F150.00
G01 X13.2061 Y20.8436 F150.00
G01 X13.2180 Y20.8769 F150.00
G01 X13.2331 Y20.9089 F150.00
G01 X13.2513 Y20.9392 F150.00
G01 X13.2724 Y20.9676 F150.00
G01 X13.2962 Y20.9938 F150.00
G01 X13.3224 Y21.0176 F150.00
G01 X13.3508 Y21.0387 F150.00
G01 X13.3811 Y21.0569 F150.00
G01 X13.4131 Y21.0720 F150.00
G01 X13.4464 Y21.0839 F150.00
G01 X13.4807 Y21.0925 F150.00
G01 X13.5157 Y21.0977 F150.00
G01 X13.5436 Y21.0990 F150.00
G01 X15.1584 Y21.0990 F150.00
G01 X15.1863 Y21.0977 F150.00
G01 X15.2213 Y21.0925 F150.00
G01 X15.2556 Y21.0839 F150.00
G01 X15.2889 Y21.0720 F150.00
G01 X15.3209 Y21.0569 F150.00
G01 X15.3512 Y21.0387 F150.00
G01 X15.3796 Y21.0176 F150.00
G01 X15.4058 Y20.9938 F150.00
G01 X15.4296 Y20.9676 F150.00
G01 X15.4507 Y20.9392 F150.00
G01 X15.4596 Y20.9244 F150.00
G01 X21.3088 Y20.9244 F150.00
G01 X24.5255 Y24.1410 F150.00
G01 X24.5410 Y24.2029 F150.00
G01 X24.5470 Y24.2226 F150.00
G01 X24.5784 Y24.3104 F150.00
G01 X24.5863 Y24.3294 F150.00
G01 X24.6261 Y24.4137 F150.00
G01 X24.6359 Y24.4319 F150.00
G01 X24.6838 Y24.5119 F150.00
G01 X24.6952 Y24.5290 F150.00
G01 X24.7508 Y24.6039 F150.00
G01 X24.7639 Y24.6199 F150.00
G01 X24.8265 Y24.6889 F150.00
G01 X24.8411 Y24.7035 F150.00
G01 X24.9101 Y24.7661 F150.00
G01 X24.9261 Y24.7792 F150.00
G01 X25.0010 Y24.8348 F150.00
G01 X25.0181 Y24.8462 F150.00
G01 X25.0981 Y24.8941 F150.00
G01 X25.1163 Y24.9039 F150.00
G01 X25.2006 Y24.9437 F150.00
G01 X25.2196 Y24.9516 F150.00
G01 X25.3074 Y24.9830 F150.00
G01 X25.3271 Y24.9890 F150.00
G01 X25.4176 Y25.0117 F150.00
G01 X25.4378 Y25.0157 F150.00
G01 X25.5300 Y25.0294 F150.00
G01 X25.5506 Y25.0314 F150.00
G01 X25.6437 Y25.0360 F150.00
G01 X25.6643 Y25.0360 F150.00
G01 X25.7574 Y25.0314 F150.00
G01 X25.7780 Y25.0294 F150.00
G01 X25.8702 Y25.0157 F150.00
G01 X25.8904 Y25.0117 F150.00
G01 X25.9809 Y24.9890 F150.00
G01 X26.0006 Y24.9830 F150.00
G01 X26.0884 Y24.9516 F150.00
G01 X26.1074 Y24.9437 F150.00
G01 X26.1917 Y24.9039 F150.00
G01 X26.2099 Y24.8941 F150.00
G01 X26.2899 Y24.8462 F150.00
G01 X26.3070 Y24.8348 F150.00
G01 X26.3819 Y24.7792 F150.00
G01 X26.3979 Y24.7661 F150.00
G01 X26.4669 Y24.7035 F150.00
G01 X26.4815 Y24.6889 F150.00
G01 X26.5441 Y24.6199 F150.00
G01 X26.5572 Y24.6039 F150.00
G01 X26.6128 Y24.5290 F150.00
G01 X26.6242 Y24.5119 F150.00
G01 X26.6721 Y24.4319 F150.00
G01 X26.6819 Y24.4137 F150.00
G01 X26.7217 Y24.3294 F150.00
G01 X26.7296 Y24.3104 F150.00
G01 X26.7610 Y24.2226 F150.00
G01 X26.7670 Y24.2029 F150.00
G01 X26.7897 Y24.1124 F150.00
G01 X26.7937 Y24.0922 F150.00
G01 X26.8074 Y24.0000 F150.00
G01 X26.8094 Y23.9794 F150.00
G01 X26.8140 Y23.8863 F150.00
G01 X26.8140 Y23.8657 F150.00
G01 X26.8094 Y23.7726 F150.00
G01 X26.8074 Y23.7520 F150.00
G01 X26.7937 Y23.6598 F150.00
G01 X26.7897 Y23.6396 F150.00
G01 X26.7670 Y23.5491 F150.00
G01 X26.7610 Y23.5294 F150.00
G01 X26.7296 Y23.4416 F150.00
G01 X26.7217 Y23.4226 F150.00
G01 X26.6819 Y23.3383 F150.00
G01 X26.6721 Y23.3201 F150.00
G01 X26.6242 Y23.2401 F150.00
G01 X26.6128 Y23.2230 F150.00
G01 X26.5572 Y23.1481 F150.00
G01 X26.5441 Y23.1321 F150.00
G01 X26.4815 Y23.0631 F150.00
G01 X26.4669 Y23.0485 F150.00
G01 X26.3979 Y22.9859 F150.00
G01 X26.3819 Y22.9728 F150.00
G01 X26.3070 Y22.9172 F150.00
G01 X26.2899 Y22.9058 F150.00
G01 X26.2099 Y22.8579 F150.00
G01 X26.1917 Y22.8481 F150.00
G01 X26.1074 Y22.8083 F150.00
G01 X26.0884 Y22.8004 F150.00
G01 X26.0006 Y22.7690 F150.00
G01 X25.9809 Y22.7630 F150.00
G01 X25.9190 Y22.7475 F150.00
G01 X22.4112 Y19.2396 F150.00
G01 X22.3500 Y19.1839 F150.00
G01 X22.3341 Y19.1708 F150.00
G01 X22.2730 Y19.1255 F150.00
G01 X22.2558 Y19.1140 F150.00
G01 X22.1906 Y19.0749 F150.00
G01 X22.1724 Y19.0652 F150.00
G01 X22.1036 Y19.0327 F150.00
G01 X22.0845 Y19.0248 F150.00
G01 X22.0129 Y18.9991 F150.00
G01 X21.9931 Y18.9931 F150.00
G01 X21.9193 Y18.9747 F150.00
G01 X21.8991 Y18.9706 F150.00
G01 X21.8238 Y18.9595 F150.00
G01 X21.8033 Y18.9574 F150.00
G01 X21.7207 Y18.9536 F150.00
G01 X15.4596 Y18.9536 F150.00
G01 X15.4507 Y18.9388 F150.00
G01 X15.4296 Y18.9104 F150.00
G01 X15.4058 Y18.8842 F150.00
G01 X15.3796 Y18.8604 F150.00
G01 X15.3512 Y18.8393 F150.00
G01 X15.3364 Y18.8304 F150.00
G01 X15.3364 Y17.8853 F150.00
G01 X15.3326 Y17.8027 F150.00
G01 X15.3305 Y17.7822 F150.00
G01 X15.3194 Y17.7069 F150.00
G01 X15.3153 Y17.6867 F150.00
G01 X15.2969 Y17.6129 F150.00
G01 X15.2909 Y17.5931 F150.00
G01 X15.2652 Y17.5215 F150.00
G01 X15.2573 Y17.5024 F150.00
G01 X15.2248 Y17.4336 F150.00
G01 X15.2151 Y17.4154 F150.00
G01 X15.1760 Y17.3502 F150.00
G01 X15.1645 Y17.3330 F150.00
G01 X15.1192 Y17.2719 F150.00
G01 X15.1061 Y17.2560 F150.00
G01 X15.0504 Y17.1948 F150.00
G01 X13.2852 Y15.4296 F150.00
G01 X13.2240 Y15.3739 F150.00
G01 X13.2081 Y15.3608 F150.00
G01 X13.1470 Y15.3155 F150.00
G01 X13.1298 Y15.3040 F150.00
G01 X13.0646 Y15.2649 F150.00
G01 X13.0464 Y15.2552 F150.00
G01 X12.9776 Y15.2227 F150.00
G01 X12.9585 Y15.2148 F150.00
G01 X12.8869 Y15.1891 F150.00
G01 X12.8671 Y15.1831 F150.00
G01 X12.7933 Y15.1647 F150.00
G01 X12.7731 Y15.1606 F150.00
G01 X12.6978 Y15.1495 F150.00
G01 X12.6773 Y15.1474 F150.00
G01 X12.6050 Y15.1439 F150.00
G01 X12.5947 Y15.1436 F150.00
G01 X8.6632 Y15.1436 F150.00
G01 X7.7164 Y14.1968 F150.00
G01 X7.7164 Y12.9296 F150.00
G01 X7.7491 Y12.8749 F150.00
G01 X7.7589 Y12.8567 F150.00
G01 X7.7987 Y12.7724 F150.00
G01 X7.8066 Y12.7534 F150.00
G01 X7.8380 Y12.6656 F150.00
G01 X7.8440 Y12.6459 F150.00
G01 X7.8667 Y12.5554 F150.00
G01 X7.8707 Y12.5352 F150.00
G01 X7.8844 Y12.4430 F150.00
G01 X7.8864 Y12.4224 F150.00
G01 X7.8910 Y12.3293 F150.00
G01 X7.8910 Y12.3087 F150.00
G01 X7.8864 Y12.2156 F150.00
G01 X7.8844 Y12.1950 F150.00
G01 X7.8707 Y12.1028 F150.00
G01 X7.8667 Y12.0826 F150.00
G01 X7.8440 Y11.9921 F150.00
G01 X7.8380 Y11.9724 F150.00
G01 X7.8066 Y11.8846 F150.00
G01 X7.7987 Y11.8656 F150.00
G01 X7.7589 Y11.7813 F150.00
G01 X7.7491 Y11.7631 F150.00
G01 X7.7012 Y11.6831 F150.00
G01 X7.6898 Y11.6660 F150.00
G01 X7.6342 Y11.5911 F150.00
G01 X7.6211 Y11.5751 F150.00
G01 X7.5585 Y11.5061 F150.00
G01 X7.5439 Y11.4915 F150.00
G01 X7.4749 Y11.4289 F150.00
G01 X7.4589 Y11.4158 F150.00
G01 X7.3840 Y11.3602 F150.00
G01 X7.3669 Y11.3488 F150.00
G01 X7.2869 Y11.3009 F150.00
G01 X7.2687 Y11.2911 F150.00
G01 X7.1844 Y11.2513 F150.00
G01 X7.1654 Y11.2434 F150.00
G01 X7.0776 Y11.2120 F150.00
G01 X7.0579 Y11.2060 F150.00
G01 X6.9674 Y11.1833 F150.00
G01 X6.9472 Y11.1793 F150.00
G01 X6.8550 Y11.1656 F150.00
G01 X6.8344 Y11.1636 F150.00
G01 X6.7413 Y11.1590 F150.00
G01 X6.7207 Y11.1590 F150.00
G01 X6.6276 Y11.1636 F150.00
G01 X6.6070 Y11.1656 F150.00
G01 X6.5148 Y11.1793 F150.00
G01 X6.4946 Y11.1833 F150.00
G01 X6.4041 Y11.2060 F150.00
G01 X6.3844 Y11.2120 F150.00
G01 X6.2966 Y11.2434 F150.00
G01 X6.2776 Y11.2513 F150.00
G01 X6.1933 Y11.2911 F150.00
G01 X6.1751 Y11.3009 F150.00
G01 X6.0951 Y11.3488 F150.00
G01 X6.0780 Y11.3602 F150.00
G01 X6.0031 Y11.4158 F150.00
G01 X5.9871 Y11.4289 F150.00
G01 X5.9181 Y11.4915 F150.00
G01 X5.9035 Y11.5061 F150.00
G01 X5.8409 Y11.5751 F150.00
G01 X5.8278 Y11.5911 F150.00
G01 X5.7722 Y11.6660 F150.00
G01 X5.7608 Y11.6831 F150.00
G01 X5.7129 Y11.7631 F150.00
G01 X5.7031 Y11.7813 F150.00
G01 X5.6633 Y11.8656 F150.00
G01 X5.6554 Y11.8846 F150.00
G01 X5.6240 Y11.9724 F150.00
G01 X5.6180 Y11.9921 F150.00
G01 X5.5953 Y12.0826 F150.00
G01 X5.5913 Y12.1028 F150.00
G01 X5.5776 Y12.1950 F150.00
G01 X5.5756 Y12.2156 F150.00
G01 X5.5710 Y12.3087 F150.00
G01 X5.5710 Y12.3293 F150.00
G01 X5.5756 Y12.4224 F150.00
G01 X5.5776 Y12.4430 F150.00
G01 X5.5913 Y12.5352 F150.00
G01 X5.5953 Y12.5554 F150.00
G01 X5.6180 Y12.6459 F150.00
G01 X5.6240 Y12.6656 F150.00
G01 X5.6554 Y12.7534 F150.00
G01 X5.6633 Y12.7724 F150.00
G01 X5.7031 Y12.8567 F150.00
G01 X5.7129 Y12.8749 F150.00
G01 X5.7456 Y12.9296 F150.00
G00 Z2.0000
G00 X9.2813 Y11.1590
G01 F60.00
G01 Z-0.1149
G01 F150.00
G01 X9.2607 Y11.1590 F150.00
G01 X9.1676 Y11.1636 F150.00
G01 X9.1470 Y11.1656 F150.00
G01 X9.0548 Y11.1793 F150.00
G01 X9.0346 Y11.1833 F150.00
G01 X8.9441 Y11.2060 F150.00
G01 X8.9244 Y11.2120 F150.00
G01 X8.8366 Y11.2434 F150.00
G01 X8.8176 Y11.2513 F150.00
G01 X8.7333 Y11.2911 F150.00
G01 X8.7151 Y11.3009 F150.00
G01 X8.6351 Y11.3488 F150.00
G01 X8.6180 Y11.3602 F150.00
G01 X8.5431 Y11.4158 F150.00
G01 X8.5271 Y11.4289 F150.00
G01 X8.4581 Y11.4915 F150.00
G01 X8.4435 Y11.5061 F150.00
G01 X8.3809 Y11.5751 F150.00
G01 X8.3678 Y11.5911 F150.00
G01 X8.3122 Y11.6660 F150.00
G01 X8.3008 Y11.6831 F150.00
G01 X8.2529 Y11.7631 F150.00
G01 X8.2431 Y11.7813 F150.00
G01 X8.2033 Y11.8656 F150.00
G01 X8.1954 Y11.8846 F150.00
G01 X8.1640 Y11.9724 F150.00
G01 X8.1580 Y11.9921 F150.00
G01 X8.1353 Y12.0826 F150.00
G01 X8.1313 Y12.1028 F150.00
G01 X8.1176 Y12.1950 F150.00
G01 X8.1156 Y12.2156 F150.00
G01 X8.1110 Y12.3087 F150.00
G01 X8.1110 Y12.3293 F150.00
G01 X8.1156 Y12.4224 F150.00
G01 X8.1176 Y12.4430 F150.00
G01 X8.1313 Y12.5352 F150.00
G01 X8.1353 Y12.5554 F150.00
G01 X8.1580 Y12.6459 F150.00
G01 X8.1640 Y12.6656 F150.00
G01 X8.1954 Y12.7534 F150.00
G01 X8.2033 Y12.7724 F150.00
G01 X8.2431 Y12.8567 F150.00
G01 X8.2529 Y12.8749 F150.00
G01 X8.3008 Y12.9549 F150.00
G01 X8.3122 Y12.9720 F150.00
G01 X8.3678 Y13.0469 F150.00
G01 X8.3809 Y13.0629 F150.00
G01 X8.4435 Y13.1319 F150.00
G01 X8.4581 Y13.1465 F150.00
G01 X8.5271 Y13.2091 F150.00
G01 X8.5431 Y13.2222 F150.00
G01 X8.6180 Y13.2778 F150.00
G01 X8.6351 Y13.2892 F150.00
G01 X8.7151 Y13.3371 F150.00
G01 X8.7333 Y13.3469 F150.00
G01 X8.8176 Y13.3867 F150.00
G01 X8.8366 Y13.3946 F150.00
G01 X8.9244 Y13.4260 F150.00
G01 X8.9441 Y13.4320 F150.00
G01 X9.0346 Y13.4547 F150.00
G01 X9.0548 Y13.4587 F150.00
G01 X9.1470 Y13.4724 F150.00
G01 X9.1676 Y13.4744 F150.00
G01 X9.2607 Y13.4790 F150.00
G01 X9.2813 Y13.4790 F150.00
G01 X9.3744 Y13.4744 F150.00
G01 X9.3950 Y13.4724 F150.00
G01 X9.4872 Y13.4587 F150.00
G01 X9.5074 Y13.4547 F150.00
G01 X9.5979 Y13.4320 F150.00
G01 X9.6176 Y13.4260 F150.00
G01 X9.7054 Y13.3946 F150.00
G01 X9.7244 Y13.3867 F150.00
G01 X9.8087 Y13.3469 F150.00
G01 X9.8269 Y13.3371 F150.00
G01 X9.8816 Y13.3044 F150.00
G01 X11.2004 Y13.3044 F150.00
G01 X11.2551 Y13.3371 F150.00
G01 X11.2733 Y13.3469 F150.00
G01 X11.3576 Y13.3867 F150.00
G01 X11.3766 Y13.3946 F150.00
G01 X11.4644 Y13.4260 F150.00
G01 X11.4841 Y13.4320 F150.00
G01 X11.5746 Y13.4547 F150.00
G01 X11.5948 Y13.4587 F150.00
G01 X11.6870 Y13.4724 F150.00
G01 X11.7076 Y13.4744 F150.00
G01 X11.8007 Y13.4790 F150.00
G01 X11.8213 Y13.4790 F150.00
G01 X11.9144 Y13.4744 F150.00
G01 X11.9350 Y13.4724 F150.00
G01 X12.0272 Y13.4587 F150.00
G01 X12.0474 Y13.4547 F150.00
G01 X12.1379 Y13.4320 F150.00
G01 X12.1576 Y13.4260 F150.00
G01 X12.2454 Y13.3946 F150.00
G01 X12.2644 Y13.3867 F150.00
G01 X12.3487 Y13.3469 F150.00
G01 X12.3669 Y13.3371 F150.00
G01 X12.4469 Y13.2892 F150.00
G01 X12.4640 Y13.2778 F150.00
G01 X12.5389 Y13.2222 F150.00
G01 X12.5549 Y13.2091 F150.00
G01 X12.6239 Y13.1465 F150.00
G01 X12.6385 Y13.1319 F150.00
G01 X12.7011 Y13.0629 F150.00
G01 X12.7142 Y13.0469 F150.00
G01 X12.7698 Y12.9720 F150.00
G01 X12.7812 Y12.9549 F150.00
G01 X12.8291 Y12.8749 F150.00
G01 X12.8389 Y12.8567 F150.00
G01 X12.8787 Y12.7724 F150.00
G01 X12.8866 Y12.7534 F150.00
G01 X12.9180 Y12.6656 F150.00
G01 X12.9240 Y12.6459 F150.00
G01 X12.9467 Y12.5554 F150.00
G01 X12.9507 Y12.5352 F150.00
G01 X12.9644 Y12.4430 F150.00
G01 X12.9664 Y12.4224 F150.00
G01 X12.9710 Y12.3293 F150.00
G01 X12.9710 Y12.3087 F150.00
G01 X12.9664 Y12.2156 F150.00
G01 X12.9644 Y12.1950 F150.00
G01 X12.9507 Y12.1028 F150.00
G01 X12.9467 Y12.0826 F150.00
G01 X12.9240 Y11.9921 F150.00
G01 X12.9180 Y11.9724 F150.00
G01 X12.8866 Y11.8846 F150.00
G01 X12.8787 Y11.8656 F150.00
G01 X12.8389 Y11.7813 F150.00
G01 X12.8291 Y11.7631 F150.00
G01 X12.7812 Y11.6831 F150.00
G01 X12.7698 Y11.6660 F150.00
G01 X12.7142 Y11.5911 F150.00
G01 X12.7011 Y11.5751 F150.00
G01 X12.6385 Y11.5061 F150.00
G01 X12.6239 Y11.4915 F150.00
G01 X12.5549 Y11.4289 F150.00
G01 X12.5389 Y11.4158 F150.00
G01 X12.4640 Y11.3602 F150.00
G01 X12.4469 Y11.3488 F150.00
G01 X12.3669 Y11.3009 F150.00
G01 X12.3487 Y11.2911 F150.00
G01 X12.2644 Y11.2513 F150.00
G01 X12.2454 Y11.2434 F150.00
G01 X12.1576 Y11.2120 F150.00
G01 X12.1379 Y11.2060 F150.00
G01 X12.0474 Y11.1833 F150.00
G01 X12.0272 Y11.1793 F150.00
G01 X11.9350 Y11.1656 F150.00
G01 X11.9144 Y11.1636 F150.00
G01 X11.8213 Y11.1590 F150.00
G01 X11.8007 Y11.1590 F150.00
G01 X11.7076 Y11.1636 F150.00
G01 X11.6870 Y11.1656 F150.00
G01 X11.5948 Y11.1793 F150.00
G01 X11.5746 Y11.1833 F150.00
G01 X11.4841 Y11.2060 F150.00
G01 X11.4644 Y11.2120 F150.00
G01 X11.3766 Y11.2434 F150.00
G01 X11.3576 Y11.2513 F150.00
G01 X11.2733 Y11.2911 F150.00
G01 X11.2551 Y11.3009 F150.00
G01 X11.2004 Y11.3336 F150.00
G01 X9.8816 Y11.3336 F150.00
G01 X9.8269 Y11.3009 F150.00
G01 X9.8087 Y11.2911 F150.00
G01 X9.7244 Y11.2513 F150.00
G01 X9.7054 Y11.2434 F150.00
G01 X9.6176 Y11.2120 F150.00
G01 X9.5979 Y11.2060 F150.00
G01 X9.5074 Y11.1833 F150.00
G01 X9.4872 Y11.1793 F150.00
G01 X9.3950 Y11.1656 F150.00
G01 X9.3744 Y11.1636 F150.00
G01 X9.2813 Y11.1590 F150.00
G00 Z2.0000
G00 X6.7413 Y18.7790
G01 F60.00
G01 Z-0.1149
G01 F150.00
G01 X6.7207 Y18.7790 F150.00
G01 X6.6276 Y18.7836 F150.00
G01 X6.6070 Y18.7856 F150.00
G01 X6.5148 Y18.7993 F150.00
G01 X6.4946 Y18.8033 F150.00
G01 X6.4041 Y18.8260 F150.00
G01 X6.3844 Y18.8320 F150.00
G01 X6.2966 Y18.8634 F150.00
G01 X6.2776 Y18.8713 F150.00
G01 X6.1933 Y18.9111 F150.00
G01 X6.1751 Y18.9209 F150.00
G01 X6.0951 Y18.9688 F150.00
G01 X6.0780 Y18.9802 F150.00
G01 X6.0031 Y19.0358 F150.00
G01 X5.9871 Y19.0489 F150.00
G01 X5.9181 Y19.1115 F150.00
G01 X5.9035 Y19.1261 F150.00
G01 X5.8409 Y19.1951 F150.00
G01 X5.8278 Y19.2111 F150.00
G01 X5.7722 Y19.2860 F150.00
G01 X5.7608 Y19.3031 F150.00
G01 X5.7129 Y19.3831 F150.00
G01 X5.7031 Y19.4013 F150.00
G01 X5.6633 Y19.4856 F150.00
G01 X5.6554 Y19.5046 F150.00
G01 X5.6240 Y19.5924 F150.00
G01 X5.6180 Y19.6121 F150.00
G01 X5.5953 Y19.7026 F150.00
G01 X5.5913 Y19.7228 F150.00
G01 X5.5776 Y19.8150 F150.00
G01 X5.5756 Y19.8356 F150.00
G01 X5.5710 Y19.9287 F150.00
G01 X5.5710 Y19.9493 F150.00
G01 X5.5756 Y20.0424 F150.00
G01 X5.5776 Y20.0630 F150.00
G01 X5.5913 Y20.1552 F150.00
G01 X5.5953 Y20.1754 F150.00
G01 X5.6180 Y20.2659 F150.00
G01 X5.6240 Y20.2856 F150.00
G01 X5.6554 Y20.3734 F150.00
G01 X5.6633 Y20.3924 F150.00
G01 X5.7031 Y20.4767 F150.00
G01 X5.7129 Y20.4949 F150.00
G01 X5.7608 Y20.5749 F150.00
G01 X5.7722 Y20.5920 F150.00
G01 X5.8278 Y20.6669 F150.00
G01 X5.8409 Y20.6829 F150.00
G01 X5.9035 Y20.7519 F150.00
G01 X5.9181 Y20.7665 F150.00
G01 X5.9871 Y20.8291 F150.00
G01 X6.0031 Y20.8422 F150.00
G01 X6.0780 Y20.8978 F150.00
G01 X6.0951 Y20.9092 F150.00
G01 X6.1751 Y20.9571 F150.00
G01 X6.1933 Y20.9669 F150.00
G01 X6.2776 Y21.0067 F150.00
G01 X6.2966 Y21.0146 F150.00
G01 X6.3844 Y21.0460 F150.00
G01 X6.4041 Y21.0520 F150.00
G01 X6.4946 Y21.0747 F150.00
G01 X6.5148 Y21.0787 F150.00
G01 X6.6070 Y21.0924 F150.00
G01 X6.6276 Y21.0944 F150.00
G01 X6.7207 Y21.0990 F150.00
G01 X6.7413 Y21.0990 F150.00
G01 X6.8344 Y21.0944 F150.00
G01 X6.8550 Y21.0924 F150.00
G01 X6.9472 Y21.0787 F150.00
G01 X6.9674 Y21.0747 F150.00
G01 X7.0579 Y21.0520 F150.00
G01 X7.0776 Y21.0460 F150.00
G01 X7.1654 Y21.0146 F150.00
G01 X7.1844 Y21.0067 F150.00
G01 X7.2687 Y20.9669 F150.00
G01 X7.2869 Y20.9571 F150.00
G01 X7.3669 Y20.9092 F150.00
G01 X7.3840 Y20.8978 F150.00
G01 X7.4589 Y20.8422 F150.00
G01 X7.4749 Y20.8291 F150.00
G01 X7.5439 Y20.7665 F150.00
G01 X7.5585 Y20.7519 F150.00
G01 X7.6211 Y20.6829 F150.00
G01 X7.6342 Y20.6669 F150.00
G01 X7.6898 Y20.5920 F150.00
G01 X7.7012 Y20.5749 F150.00
G01 X7.7491 Y20.4949 F150.00
G01 X7.7589 Y20.4767 F150.00
G01 X7.7987 Y20.3924 F150.00
G01 X7.8066 Y20.3734 F150.00
G01 X7.8380 Y20.2856 F150.00
G01 X7.8440 Y20.2659 F150.00
G01 X7.8667 Y20.1754 F150.00
G01 X7.8707 Y20.1552 F150.00
G01 X7.8844 Y20.0630 F150.00
G01 X7.8864 Y20.0424 F150.00
G01 X7.8910 Y19.9493 F150.00
G01 X7.8910 Y19.9287 F150.00
G01 X7.8864 Y19.8356 F150.00
G01 X7.8844 Y19.8150 F150.00
G01 X7.8707 Y19.7228 F150.00
G01 X7.8667 Y19.7026 F150.00
G01 X7.8440 Y19.6121 F150.00
G01 X7.8380 Y19.5924 F150.00
G01 X7.8066 Y19.5046 F150.00
G01 X7.7987 Y19.4856 F150.00
G01 X7.7589 Y19.4013 F150.00
G01 X7.7491 Y19.3831 F150.00
G01 X7.7012 Y19.3031 F150.00
G01 X7.6898 Y19.2860 F150.00
G01 X7.6342 Y19.2111 F150.00
G01 X7.6211 Y19.1951 F150.00
G01 X7.5585 Y19.1261 F150.00
G01 X7.5439 Y19.1115 F150.00
G01 X7.4749 Y19.0489 F150.00
G01 X7.4589 Y19.0358 F150.00
G01 X7.3840 Y18.9802 F150.00
G01 X7.3669 Y18.9688 F150.00
G01 X7.2869 Y18.9209 F150.00
G01 X7.2687 Y18.9111 F150.00
G01 X7.1844 Y18.8713 F150.00
G01 X7.1654 Y18.8634 F150.00
G01 X7.0776 Y18.8320 F150.00
G01 X7.0579 Y18.8260 F150.00
G01 X6.9674 Y18.8033 F150.00
G01 X6.9472 Y18.7993 F150.00
G01 X6.8550 Y18.7856 F150.00
G01 X6.8344 Y18.7836 F150.00
G01 X6.7413 Y18.7790 F150.00
G00 Z2.0000
G00 X8.1606 Y20.2744
G01 F60.00
G01 Z-0.1149
G01 F150.00
G01 X8.1606 Y24.7687 F150.00
G01 X8.1650 Y24.8636 F150.00
G01 X8.1670 Y24.8841 F150.00
G01 X8.1800 Y24.9715 F150.00
G01 X8.1840 Y24.9917 F150.00
G01 X8.2055 Y25.0775 F150.00
G01 X8.2115 Y25.0972 F150.00
G01 X8.2412 Y25.1804 F150.00
G01 X8.2491 Y25.1994 F150.00
G01 X8.2869 Y25.2793 F150.00
G01 X8.2966 Y25.2975 F150.00
G01 X8.3420 Y25.3733 F150.00
G01 X8.3535 Y25.3905 F150.00
G01 X8.4061 Y25.4614 F150.00
G01 X8.4192 Y25.4774 F150.00
G01 X8.4832 Y25.5476 F150.00
G01 X11.2824 Y28.3468 F150.00
G01 X11.3526 Y28.4108 F150.00
G01 X11.3686 Y28.4239 F150.00
G01 X11.4395 Y28.4765 F150.00
G01 X11.4567 Y28.4880 F150.00
G01 X11.4626 Y28.4915 F150.00
G01 X11.4626 Y34.1667 F150.00
G01 X11.4670 Y34.2616 F150.00
G01 X11.4690 Y34.2821 F150.00
G01 X11.4820 Y34.3695 F150.00
G01 X11.4860 Y34.3897 F150.00
G01 X11.5075 Y34.4755 F150.00
G01 X11.5135 Y34.4952 F150.00
G01 X11.5432 Y34.5784 F150.00
G01 X11.5511 Y34.5974 F150.00
G01 X11.5889 Y34.6773 F150.00
G01 X11.5986 Y34.6955 F150.00
G01 X11.6440 Y34.7713 F150.00
G01 X11.6555 Y34.7885 F150.00
G01 X11.7081 Y34.8594 F150.00
G01 X11.7212 Y34.8754 F150.00
G01 X11.7781 Y34.9381 F150.00
G01 X11.7852 Y34.9456 F150.00
G01 X12.9476 Y36.1080 F150.00
G01 X12.9519 Y36.1159 F150.00
G01 X12.9998 Y36.1959 F150.00
G01 X13.0112 Y36.2130 F150.00
G01 X13.0668 Y36.2879 F150.00
G01 X13.0799 Y36.3039 F150.00
G01 X13.1425 Y36.3729 F150.00
G01 X13.1571 Y36.3875 F150.00
G01 X13.2261 Y36.4501 F150.00
G01 X13.2421 Y36.4632 F150.00
G01 X13.3170 Y36.5188 F150.00
G01 X13.3341 Y36.5302 F150.00
G01 X13.4141 Y36.5781 F150.00
G01 X13.4323 Y36.5879 F150.00
G01 X13.5166 Y36.6277 F150.00
G01 X13.5356 Y36.6356 F150.00
G01 X13.6234 Y36.6670 F150.00
G01 X13.6431 Y36.6730 F150.00
G01 X13.7336 Y36.6957 F150.00
G01 X13.7538 Y36.6997 F150.00
G01 X13.8460 Y36.7134 F150.00
G01 X13.8666 Y36.7154 F150.00
G01 X13.9597 Y36.7200 F150.00
G01 X13.9803 Y36.7200 F150.00
G01 X14.0734 Y36.7154 F150.00
G01 X14.0940 Y36.7134 F150.00
G01 X14.1862 Y36.6997 F150.00
G01 X14.2064 Y36.6957 F150.00
G01 X14.2969 Y36.6730 F150.00
G01 X14.3166 Y36.6670 F150.00
G01 X14.4044 Y36.6356 F150.00
G01 X14.4234 Y36.6277 F150.00
G01 X14.5077 Y36.5879 F150.00
G01 X14.5259 Y36.5781 F150.00
G01 X14.6059 Y36.5302 F150.00
G01 X14.6230 Y36.5188 F150.00
G01 X14.6979 Y36.4632 F150.00
G01 X14.7139 Y36.4501 F150.00
G01 X14.7829 Y36.3875 F150.00
G01 X14.7975 Y36.3729 F150.00
G01 X14.8601 Y36.3039 F150.00
G01 X14.8732 Y36.2879 F150.00
G01 X14.9288 Y36.2130 F150.00
G01 X14.9402 Y36.1959 F150.00
G01 X14.9881 Y36.1159 F150.00
G01 X14.9979 Y36.0977 F150.00
G01 X15.0377 Y36.0134 F150.00
G01 X15.0456 Y35.9944 F150.00
G01 X15.0770 Y35.9066 F150.00
G01 X15.0830 Y35.8869 F150.00
G01 X15.1057 Y35.7964 F150.00
G01 X15.1097 Y35.7762 F150.00
G01 X15.1234 Y35.6840 F150.00
G01 X15.1254 Y35.6634 F150.00
G01 X15.1300 Y35.5703 F150.00
G01 X15.1300 Y35.5497 F150.00
G01 X15.1254 Y35.4566 F150.00
G01 X15.1234 Y35.4360 F150.00
G01 X15.1097 Y35.3438 F150.00
G01 X15.1057 Y35.3236 F150.00
G01 X15.0830 Y35.2331 F150.00
G01 X15.0770 Y35.2134 F150.00
G01 X15.0456 Y35.1256 F150.00
G01 X15.0377 Y35.1066 F150.00
G01 X14.9979 Y35.0223 F150.00
G01 X14.9881 Y35.0041 F150.00
G01 X14.9402 Y34.9241 F150.00
G01 X14.9288 Y34.9070 F150.00
G01 X14.8732 Y34.8321 F150.00
G01 X14.8601 Y34.8161 F150.00
G01 X14.7975 Y34.7471 F150.00
G01 X14.7829 Y34.7325 F150.00
G01 X14.7139 Y34.6699 F150.00
G01 X14.6979 Y34.6568 F150.00
G01 X14.6230 Y34.6012 F150.00
G01 X14.6059 Y34.5898 F150.00
G01 X14.5259 Y34.5419 F150.00
G01 X14.5180 Y34.5376 F150.00
G01 X13.6834 Y33.7030 F150.00
G01 X13.6834 Y27.5553 F150.00
G01 X13.6790 Y27.4604 F150.00
G01 X13.6770 Y27.4399 F150.00
G01 X13.6640 Y27.3525 F150.00
G01 X13.6600 Y27.3323 F150.00
G01 X13.6385 Y27.2465 F150.00
G01 X13.6325 Y27.2268 F150.00
G01 X13.6028 Y27.1436 F150.00
G01 X13.5949 Y27.1246 F150.00
G01 X13.5571 Y27.0447 F150.00
G01 X13.5474 Y27.0265 F150.00
G01 X13.5020 Y26.9507 F150.00
G01 X13.4905 Y26.9335 F150.00
G01 X13.4379 Y26.8626 F150.00
G01 X13.4248 Y26.8466 F150.00
G01 X13.3654 Y26.7812 F150.00
G01 X13.3508 Y26.7666 F150.00
G01 X13.2854 Y26.7072 F150.00
G01 X13.2694 Y26.6941 F150.00
G01 X13.1985 Y26.6415 F150.00
G01 X13.1813 Y26.6300 F150.00
G01 X13.1055 Y26.5846 F150.00
G01 X13.0873 Y26.5749 F150.00
G01 X13.0074 Y26.5371 F150.00
G01 X12.9884 Y26.5292 F150.00
G01 X12.9052 Y26.4995 F150.00
G01 X12.8855 Y26.4935 F150.00
G01 X12.7997 Y26.4720 F150.00
G01 X12.7795 Y26.4680 F150.00
G01 X12.6921 Y26.4550 F150.00
G01 X12.6716 Y26.4530 F150.00
G01 X12.5870 Y26.4488 F150.00
G01 X12.5250 Y26.4486 F150.00
G01 X10.3814 Y24.3050 F150.00
G01 X10.3814 Y20.2744 F150.00
G01 X10.3840 Y20.2659 F150.00
G01 X10.4067 Y20.1754 F150.00
G01 X10.4107 Y20.1552 F150.00
G01 X10.4244 Y20.0630 F150.00
G01 X10.4264 Y20.0424 F150.00
G01 X10.4310 Y19.9493 F150.00
G01 X10.4310 Y19.9287 F150.00
G01 X10.4264 Y19.8356 F150.00
G01 X10.4244 Y19.8150 F150.00
G01 X10.4107 Y19.7228 F150.00
G01 X10.4067 Y19.7026 F150.00
G01 X10.3840 Y19.6121 F150.00
G01 X10.3780 Y19.5924 F150.00
G01 X10.3466 Y19.5046 F150.00
G01 X10.3387 Y19.4856 F150.00
G01 X10.2989 Y19.4013 F150.00
G01 X10.2891 Y19.3831 F150.00
G01 X10.2412 Y19.3031 F150.00
G01 X10.2298 Y19.2860 F150.00
G01 X10.1742 Y19.2111 F150.00
G01 X10.1611 Y19.1951 F150.00
G01 X10.0985 Y19.1261 F150.00
G01 X10.0839 Y19.1115 F150.00
G01 X10.0149 Y19.0489 F150.00
G01 X9.9989 Y19.0358 F150.00
G01 X9.9240 Y18.9802 F150.00
G01 X9.9069 Y18.9688 F150.00
G01 X9.8269 Y18.9209 F150.00
G01 X9.8087 Y18.9111 F150.00
G01 X9.7244 Y18.8713 F150.00
G01 X9.7054 Y18.8634 F150.00
G01 X9.6176 Y18.8320 F150.00
G01 X9.5979 Y18.8260 F150.00
G01 X9.5074 Y18.8033 F150.00
G01 X9.4872 Y18.7993 F150.00
G01 X9.3950 Y18.7856 F150.00
G01 X9.3744 Y18.7836 F150.00
G01 X9.2813 Y18.7790 F150.00
G01 X9.2607 Y18.7790 F150.00
G01 X9.1676 Y18.7836 F150.00
G01 X9.1470 Y18.7856 F150.00
G01 X9.0548 Y18.7993 F150.00
G01 X9.0346 Y18.8033 F150.00
G01 X8.9441 Y18.8260 F150.00
G01 X8.9244 Y18.8320 F150.00
G01 X8.8366 Y18.8634 F150.00
G01 X8.8176 Y18.8713 F150.00
G01 X8.7333 Y18.9111 F150.00
G01 X8.7151 Y18.9209 F150.00
G01 X8.6351 Y18.9688 F150.00
G01 X8.6180 Y18.9802 F150.00
G01 X8.5431 Y19.0358 F150.00
G01 X8.5271 Y19.0489 F150.00
G01 X8.4581 Y19.1115 F150.00
G01 X8.4435 Y19.1261 F150.00
G01 X8.3809 Y19.1951 F150.00
G01 X8.3678 Y19.2111 F150.00
G01 X8.3122 Y19.2860 F150.00
G01 X8.3008 Y19.3031 F150.00
G01 X8.2529 Y19.3831 F150.00
G01 X8.2431 Y19.4013 F150.00
G01 X8.2033 Y19.4856 F150.00
G01 X8.1954 Y19.5046 F150.00
G01 X8.1640 Y19.5924 F150.00
G01 X8.1580 Y19.6121 F150.00
G01 X8.1353 Y19.7026 F150.00
G01 X8.1313 Y19.7228 F150.00
G01 X8.1176 Y19.8150 F150.00
G01 X8.1156 Y19.8356 F150.00
G01 X8.1110 Y19.9287 F150.00
G01 X8.1110 Y19.9493 F150.00
G01 X8.1156 Y20.0424 F150.00
G01 X8.1176 Y20.0630 F150.00
G01 X8.1313 Y20.1552 F150.00
G01 X8.1353 Y20.1754 F150.00
G01 X8.1580 Y20.2659 F150.00
G01 X8.1606 Y20.2744 F150.00
G00 Z2.0000
G00 X10.8256 Y20.5496
G01 F60.00
G01 Z-0.1149
G01 F150.00
G01 X10.8256 Y22.3557 F150.00
G01 X10.8259 Y22.3660 F150.00
G01 X10.8294 Y22.4383 F150.00
G01 X10.8315 Y22.4588 F150.00
G01 X10.8426 Y22.5341 F150.00
G01 X10.8467 Y22.5543 F150.00
G01 X10.8651 Y22.6281 F150.00
G01 X10.8711 Y22.6479 F150.00
G01 X10.8968 Y22.7195 F150.00
G01 X10.9047 Y22.7386 F150.00
G01 X10.9372 Y22.8074 F150.00
G01 X10.9469 Y22.8256 F150.00
G01 X10.9860 Y22.8908 F150.00
G01 X10.9975 Y22.9080 F150.00
G01 X11.0428 Y22.9691 F150.00
G01 X11.0559 Y22.9850 F150.00
G01 X11.1116 Y23.0462 F150.00
G01 X12.6408 Y24.5754 F150.00
G01 X12.7020 Y24.6311 F150.00
G01 X12.7179 Y24.6442 F150.00
G01 X12.7790 Y24.6895 F150.00
G01 X12.7962 Y24.7010 F150.00
G01 X12.8614 Y24.7401 F150.00
G01 X12.8796 Y24.7498 F150.00
G01 X12.9484 Y24.7823 F150.00
G01 X12.9675 Y24.7902 F150.00
G01 X13.0391 Y24.8159 F150.00
G01 X13.0589 Y24.8219 F150.00
G01 X13.1327 Y24.8403 F150.00
G01 X13.1529 Y24.8444 F150.00
G01 X13.2282 Y24.8555 F150.00
G01 X13.2487 Y24.8576 F150.00
G01 X13.3313 Y24.8614 F150.00
G01 X14.8834 Y24.8614 F150.00
G01 X14.9381 Y24.8941 F150.00
G01 X14.9563 Y24.9039 F150.00
G01 X15.0406 Y24.9437 F150.00
G01 X15.0596 Y24.9516 F150.00
G01 X15.1474 Y24.9830 F150.00
G01 X15.1671 Y24.9890 F150.00
G01 X15.2576 Y25.0117 F150.00
G01 X15.2778 Y25.0157 F150.00
G01 X15.3700 Y25.0294 F150.00
G01 X15.3906 Y25.0314 F150.00
G01 X15.4837 Y25.0360 F150.00
G01 X15.5043 Y25.0360 F150.00
G01 X15.5974 Y25.0314 F150.00
G01 X15.6180 Y25.0294 F150.00
G01 X15.7102 Y25.0157 F150.00
G01 X15.7304 Y25.0117 F150.00
G01 X15.8209 Y24.9890 F150.00
G01 X15.8406 Y24.9830 F150.00
G01 X15.9284 Y24.9516 F150.00
G01 X15.9474 Y24.9437 F150.00
G01 X16.0317 Y24.9039 F150.00
G01 X16.0499 Y24.8941 F150.00
G01 X16.1299 Y24.8462 F150.00
G01 X16.1470 Y24.8348 F150.00
G01 X16.2219 Y24.7792 F150.00
G01 X16.2379 Y24.7661 F150.00
G01 X16.3069 Y24.7035 F150.00
G01 X16.3215 Y24.6889 F150.00
G01 X16.3841 Y24.6199 F150.00
G01 X16.3972 Y24.6039 F150.00
G01 X16.4528 Y24.5290 F150.00
G01 X16.4642 Y24.5119 F150.00
G01 X16.5121 Y24.4319 F150.00
G01 X16.5219 Y24.4137 F150.00
G01 X16.5617 Y24.3294 F150.00
G01 X16.5696 Y24.3104 F150.00
G01 X16.6010 Y24.2226 F150.00
G01 X16.6070 Y24.2029 F150.00
G01 X16.6297 Y24.1124 F150.00
G01 X16.6337 Y24.0922 F150.00
G01 X16.6474 Y24.0000 F150.00
G01 X16.6494 Y23.9794 F150.00
G01 X16.6540 Y23.8863 F150.00
G01 X16.6540 Y23.8657 F150.00
G01 X16.6494 Y23.7726 F150.00
G01 X16.6474 Y23.7520 F150.00
G01 X16.6337 Y23.6598 F150.00
G01 X16.6297 Y23.6396 F150.00
G01 X16.6070 Y23.5491 F150.00
G01 X16.6010 Y23.5294 F150.00
G01 X16.5696 Y23.4416 F150.00
G01 X16.5617 Y23.4226 F150.00
G01 X16.5219 Y23.3383 F150.00
G01 X16.5121 Y23.3201 F150.00
G01 X16.4642 Y23.2401 F150.00
G01 X16.4528 Y23.2230 F150.00
G01 X16.3972 Y23.1481 F150.00
G01 X16.3841 Y23.1321 F150.00
G01 X16.3215 Y23.0631 F150.00
G01 X16.3069 Y23.0485 F150.00
G01 X16.2379 Y22.9859 F150.00
G01 X16.2219 Y22.9728 F150.00
G01 X16.1470 Y22.9172 F150.00
G01 X16.1299 Y22.9058 F150.00
G01 X16.0499 Y22.8579 F150.00
G01 X16.0317 Y22.8481 F150.00
G01 X15.9474 Y22.8083 F150.00
G01 X15.9284 Y22.8004 F150.00
G01 X15.8406 Y22.7690 F150.00
G01 X15.8209 Y22.7630 F150.00
G01 X15.7304 Y22.7403 F150.00
G01 X15.7102 Y22.7363 F150.00
G01 X15.6180 Y22.7226 F150.00
G01 X15.5974 Y22.7206 F150.00
G01 X15.5043 Y22.7160 F150.00
G01 X15.4837 Y22.7160 F150.00
G01 X15.3906 Y22.7206 F150.00
G01 X15.3700 Y22.7226 F150.00
G01 X15.2778 Y22.7363 F150.00
G01 X15.2576 Y22.7403 F150.00
G01 X15.1671 Y22.7630 F150.00
G01 X15.1474 Y22.7690 F150.00
G01 X15.0596 Y22.8004 F150.00
G01 X15.0406 Y22.8083 F150.00
G01 X14.9563 Y22.8481 F150.00
G01 X14.9381 Y22.8579 F150.00
G01 X14.8834 Y22.8906 F150.00
G01 X13.7432 Y22.8906 F150.00
G01 X12.7964 Y21.9438 F150.00
G01 X12.7964 Y20.5496 F150.00
G01 X12.8291 Y20.4949 F150.00
G01 X12.8389 Y20.4767 F150.00
G01 X12.8787 Y20.3924 F150.00
G01 X12.8866 Y20.3734 F150.00
G01 X12.9180 Y20.2856 F150.00
G01 X12.9240 Y20.2659 F150.00
G01 X12.9467 Y20.1754 F150.00
G01 X12.9507 Y20.1552 F150.00
G01 X12.9644 Y20.0630 F150.00
G01 X12.9664 Y20.0424 F150.00
G01 X12.9710 Y19.9493 F150.00
G01 X12.9710 Y19.9287 F150.00
G01 X12.9664 Y19.8356 F150.00
G01 X12.9644 Y19.8150 F150.00
G01 X12.9507 Y19.7228 F150.00
G01 X12.9467 Y19.7026 F150.00
G01 X12.9240 Y19.6121 F150.00
G01 X12.9180 Y19.5924 F150.00
G01 X12.8866 Y19.5046 F150.00
G01 X12.8787 Y19.4856 F150.00
G01 X12.8389 Y19.4013 F150.00
G01 X12.8291 Y19.3831 F150.00
G01 X12.7812 Y19.3031 F150.00
G01 X12.7698 Y19.2860 F150.00
G01 X12.7142 Y19.2111 F150.00
G01 X12.7011 Y19.1951 F150.00
G01 X12.6385 Y19.1261 F150.00
G01 X12.6239 Y19.1115 F150.00
G01 X12.5549 Y19.0489 F150.00
G01 X12.5389 Y19.0358 F150.00
G01 X12.4640 Y18.9802 F150.00
G01 X12.4469 Y18.9688 F150.00
G01 X12.3669 Y18.9209 F150.00
G01 X12.3487 Y18.9111 F150.00
G01 X12.2644 Y18.8713 F150.00
G01 X12.2454 Y18.8634 F150.00
G01 X12.1576 Y18.8320 F150.00
G01 X12.1379 Y18.8260 F150.00
G01 X12.0474 Y18.8033 F150.00
G01 X12.0272 Y18.7993 F150.00
G01 X11.9350 Y18.7856 F150.00
G01 X11.9144 Y18.7836 F150.00
G01 X11.8213 Y18.7790 F150.00
G01 X11.8007 Y18.7790 F150.00
G01 X11.7076 Y18.7836 F150.00
G01 X11.6870 Y18.7856 F150.00
G01 X11.5948 Y18.7993 F150.00
G01 X11.5746 Y18.8033 F150.00
G01 X11.4841 Y18.8260 F150.00
G01 X11.4644 Y18.8320 F150.00
G01 X11.3766 Y18.8634 F150.00
G01 X11.3576 Y18.8713 F150.00
G01 X11.2733 Y18.9111 F150.00
G01 X11.2551 Y18.9209 F150.00
G01 X11.1751 Y18.9688 F150.00
G01 X11.1580 Y18.9802 F150.00
G01 X11.0831 Y19.0358 F150.00
G01 X11.0671 Y19.0489 F150.00
G01 X10.9981 Y19.1115 F150.00
G01 X10.9835 Y19.1261 F150.00
G01 X10.9209 Y19.1951 F150.00
G01 X10.9078 Y19.2111 F150.00
G01 X10.8522 Y19.2860 F150.00
G01 X10.8408 Y19.3031 F150.00
G01 X10.7929 Y19.3831 F150.00
G01 X10.7831 Y19.4013 F150.00
G01 X10.7433 Y19.4856 F150.00
G01 X10.7354 Y19.5046 F150.00
G01 X10.7040 Y19.5924 F150.00
G01 X10.6980 Y19.6121 F150.00
G01 X10.6753 Y19.7026 F150.00
G01 X10.6713 Y19.7228 F150.00
G01 X10.6576 Y19.8150 F150.00
G01 X10.6556 Y19.8356 F150.00
G01 X10.6510 Y19.9287 F150.00
G01 X10.6510 Y19.9493 F150.00
G01 X10.6556 Y20.0424 F150.00
G01 X10.6576 Y20.0630 F150.00
G01 X10.6713 Y20.1552 F150.00
G01 X10.6753 Y20.1754 F150.00
G01 X10.6980 Y20.2659 F150.00
G01 X10.7040 Y20.2856 F150.00
G01 X10.7354 Y20.3734 F150.00
G01 X10.7433 Y20.3924 F150.00
G01 X10.7831 Y20.4767 F150.00
G01 X10.7929 Y20.4949 F150.00
G01 X10.8256 Y20.5496 F150.00
G00 Z2.0000
G00 X19.1940 Y17.2023
G01 F60.00
G01 Z-0.1149
G01 F150.00
G01 X19.1940 Y17.1817 F150.00
G01 X19.1894 Y17.0886 F150.00
G01 X19.1874 Y17.0680 F150.00
G01 X19.1737 Y16.9758 F150.00
G01 X19.1697 Y16.9556 F150.00
G01 X19.1470 Y16.8651 F150.00
G01 X19.1410 Y16.8454 F150.00
G01 X19.1096 Y16.7576 F150.00
G01 X19.1017 Y16.7386 F150.00
G01 X19.0619 Y16.6543 F150.00
G01 X19.0521 Y16.6361 F150.00
G01 X19.0042 Y16.5561 F150.00
G01 X18.9928 Y16.5390 F150.00
G01 X18.9372 Y16.4641 F150.00
G01 X18.9241 Y16.4481 F150.00
G01 X18.8615 Y16.3791 F150.00
G01 X18.8469 Y16.3645 F150.00
G01 X18.7779 Y16.3019 F150.00
G01 X18.7619 Y16.2888 F150.00
G01 X18.6870 Y16.2332 F150.00
G01 X18.6699 Y16.2218 F150.00
G01 X18.5899 Y16.1739 F150.00
G01 X18.5717 Y16.1641 F150.00
G01 X18.4874 Y16.1243 F150.00
G01 X18.4684 Y16.1164 F150.00
G01 X18.3806 Y16.0850 F150.00
G01 X18.3609 Y16.0790 F150.00
G01 X18.2704 Y16.0563 F150.00
G01 X18.2502 Y16.0523 F150.00
G01 X18.1580 Y16.0386 F150.00
G01 X18.1374 Y16.0366 F150.00
G01 X18.0443 Y16.0320 F150.00
G01 X18.0237 Y16.0320 F150.00
G01 X17.9306 Y16.0366 F150.00
G01 X17.9100 Y16.0386 F150.00
G01 X17.8178 Y16.0523 F150.00
G01 X17.7976 Y16.0563 F150.00
G01 X17.7071 Y16.0790 F150.00
G01 X17.6874 Y16.0850 F150.00
G01 X17.5996 Y16.1164 F150.00
G01 X17.5806 Y16.1243 F150.00
G01 X17.4963 Y16.1641 F150.00
G01 X17.4781 Y16.1739 F150.00
G01 X17.3981 Y16.2218 F150.00
G01 X17.3810 Y16.2332 F150.00
G01 X17.3061 Y16.2888 F150.00
G01 X17.2901 Y16.3019 F150.00
G01 X17.2211 Y16.3645 F150.00
G01 X17.2065 Y16.3791 F150.00
G01 X17.1439 Y16.4481 F150.00
G01 X17.1308 Y16.4641 F150.00
G01 X17.0752 Y16.5390 F150.00
G01 X17.0638 Y16.5561 F150.00
G01 X17.0159 Y16.6361 F150.00
G01 X17.0061 Y16.6543 F150.00
G01 X16.9663 Y16.7386 F150.00
G01 X16.9584 Y16.7576 F150.00
G01 X16.9270 Y16.8454 F150.00
G01 X16.9210 Y16.8651 F150.00
G01 X16.8983 Y16.9556 F150.00
G01 X16.8943 Y16.9758 F150.00
G01 X16.8806 Y17.0680 F150.00
G01 X16.8786 Y17.0886 F150.00
G01 X16.8740 Y17.1817 F150.00
G01 X16.8740 Y17.2023 F150.00
G01 X16.8786 Y17.2954 F150.00
G01 X16.8806 Y17.3160 F150.00
G01 X16.8943 Y17.4082 F150.00
G01 X16.8983 Y17.4284 F150.00
G01 X16.9210 Y17.5189 F150.00
G01 X16.9270 Y17.5386 F150.00
G01 X16.9584 Y17.6264 F150.00
G01 X16.9663 Y17.6454 F150.00
G01 X17.0061 Y17.7297 F150.00
G01 X17.0159 Y17.7479 F150.00
G01 X17.0638 Y17.8279 F150.00
G01 X17.0752 Y17.8450 F150.00
G01 X17.1308 Y17.9199 F150.00
G01 X17.1439 Y17.9359 F150.00
G01 X17.2065 Y18.0049 F150.00
G01 X17.2211 Y18.0195 F150.00
G01 X17.2901 Y18.0821 F150.00
G01 X17.3061 Y18.0952 F150.00
G01 X17.3810 Y18.1508 F150.00
G01 X17.3981 Y18.1622 F150.00
G01 X17.4781 Y18.2101 F150.00
G01 X17.4963 Y18.2199 F150.00
G01 X17.5806 Y18.2597 F150.00
G01 X17.5996 Y18.2676 F150.00
G01 X17.6874 Y18.2990 F150.00
G01 X17.7071 Y18.3050 F150.00
G01 X17.7976 Y18.3277 F150.00
G01 X17.8178 Y18.3317 F150.00
G01 X17.9100 Y18.3454 F150.00
G01 X17.9306 Y18.3474 F150.00
G01 X18.0237 Y18.3520 F150.00
G01 X18.0443 Y18.3520 F150.00
G01 X18.1374 Y18.3474 F150.00
G01 X18.1580 Y18.3454 F150.00
G01 X18.2502 Y18.3317 F150.00
G01 X18.2704 Y18.3277 F150.00
G01 X18.3609 Y18.3050 F150.00
G01 X18.3806 Y18.2990 F150.00
G01 X18.4684 Y18.2676 F150.00
G01 X18.4874 Y18.2597 F150.00
G01 X18.5717 Y18.2199 F150.00
G01 X18.5899 Y18.2101 F150.00
G01 X18.6699 Y18.1622 F150.00
G01 X18.6870 Y18.1508 F150.00
G01 X18.7619 Y18.0952 F150.00
G01 X18.7779 Y18.0821 F150.00
G01 X18.8469 Y18.0195 F150.00
G01 X18.8615 Y18.0049 F150.00
G01 X18.9241 Y17.9359 F150.00
G01 X18.9372 Y17.9199 F150.00
G01 X18.9928 Y17.8450 F150.00
G01 X19.0042 Y17.8279 F150.00
G01 X19.0521 Y17.7479 F150.00
G01 X19.0619 Y17.7297 F150.00
G01 X19.1017 Y17.6454 F150.00
G01 X19.1096 Y17.6264 F150.00
G01 X19.1410 Y17.5386 F150.00
G01 X19.1470 Y17.5189 F150.00
G01 X19.1697 Y17.4284 F150.00
G01 X19.1737 Y17.4082 F150.00
G01 X19.1874 Y17.3160 F150.00
G01 X19.1894 Y17.2954 F150.00
G01 X19.1940 Y17.2023 F150.00
G00 Z2.0000
G00 X18.9445 Y8.9844
G01 F60.00
G01 Z-0.1149
G01 F150.00
G01 X27.9410 Y8.9844 F150.00
G01 X31.5286 Y12.5720 F150.00
G01 X31.5286 Y15.0438 F150.00
G01 X31.4954 Y15.1363 F150.00
G01 X31.4894 Y15.1561 F150.00
G01 X31.4659 Y15.2501 F150.00
G01 X31.4618 Y15.2704 F150.00
G01 X31.4476 Y15.3663 F150.00
G01 X31.4456 Y15.3868 F150.00
G01 X31.4408 Y15.4837 F150.00
G01 X31.4408 Y15.5043 F150.00
G01 X31.4456 Y15.6012 F150.00
G01 X31.4476 Y15.6217 F150.00
G01 X31.4618 Y15.7176 F150.00
G01 X31.4659 Y15.7379 F150.00
G01 X31.4894 Y15.8319 F150.00
G01 X31.4954 Y15.8517 F150.00
G01 X31.5281 Y15.9430 F150.00
G01 X31.5360 Y15.9620 F150.00
G01 X31.5774 Y16.0497 F150.00
G01 X31.5872 Y16.0679 F150.00
G01 X31.6370 Y16.1511 F150.00
G01 X31.6485 Y16.1682 F150.00
G01 X31.7063 Y16.2461 F150.00
G01 X31.7193 Y16.2621 F150.00
G01 X31.7845 Y16.3339 F150.00
G01 X31.7991 Y16.3485 F150.00
G01 X31.8709 Y16.4137 F150.00
G01 X31.8869 Y16.4267 F150.00
G01 X31.9648 Y16.4845 F150.00
G01 X31.9819 Y16.4960 F150.00
G01 X32.0651 Y16.5458 F150.00
G01 X32.0833 Y16.5556 F150.00
G01 X32.1710 Y16.5970 F150.00
G01 X32.1900 Y16.6049 F150.00
G01 X32.2813 Y16.6376 F150.00
G01 X32.3011 Y16.6436 F150.00
G01 X32.3951 Y16.6671 F150.00
G01 X32.4154 Y16.6712 F150.00
G01 X32.5113 Y16.6854 F150.00
G01 X32.5318 Y16.6874 F150.00
G01 X32.6287 Y16.6922 F150.00
G01 X32.6493 Y16.6922 F150.00
G01 X32.7462 Y16.6874 F150.00
G01 X32.7667 Y16.6854 F150.00
G01 X32.8626 Y16.6712 F150.00
G01 X32.8829 Y16.6671 F150.00
G01 X32.9769 Y16.6436 F150.00
G01 X32.9967 Y16.6376 F150.00
G01 X33.0880 Y16.6049 F150.00
G01 X33.1070 Y16.5970 F150.00
G01 X33.1947 Y16.5556 F150.00
G01 X33.2129 Y16.5458 F150.00
G01 X33.2961 Y16.4960 F150.00
G01 X33.3132 Y16.4845 F150.00
G01 X33.3911 Y16.4267 F150.00
G01 X33.4071 Y16.4137 F150.00
G01 X33.4789 Y16.3485 F150.00
G01 X33.4935 Y16.3339 F150.00
G01 X33.5587 Y16.2621 F150.00
G01 X33.5717 Y16.2461 F150.00
G01 X33.6295 Y16.1682 F150.00
G01 X33.6410 Y16.1511 F150.00
G01 X33.6908 Y16.0679 F150.00
G01 X33.7006 Y16.0497 F150.00
G01 X33.7420 Y15.9620 F150.00
G01 X33.7499 Y15.9430 F150.00
G01 X33.7826 Y15.8517 F150.00
G01 X33.7886 Y15.8319 F150.00
G01 X33.8121 Y15.7379 F150.00
G01 X33.8162 Y15.7176 F150.00
G01 X33.8304 Y15.6217 F150.00
G01 X33.8324 Y15.6012 F150.00
G01 X33.8372 Y15.5043 F150.00
G01 X33.8372 Y15.4837 F150.00
G01 X33.8324 Y15.3868 F150.00
G01 X33.8304 Y15.3663 F150.00
G01 X33.8162 Y15.2704 F150.00
G01 X33.8121 Y15.2501 F150.00
G01 X33.7886 Y15.1561 F150.00
G01 X33.7826 Y15.1363 F150.00
G01 X33.7494 Y15.0438 F150.00
G01 X33.7494 Y12.1083 F150.00
G01 X33.7459 Y12.0310 F150.00
G01 X33.7520 Y12.0109 F150.00
G01 X33.7747 Y11.9204 F150.00
G01 X33.7787 Y11.9002 F150.00
G01 X33.7924 Y11.8080 F150.00
G01 X33.7944 Y11.7874 F150.00
G01 X33.7990 Y11.6943 F150.00
G01 X33.7990 Y11.6737 F150.00
G01 X33.7944 Y11.5806 F150.00
G01 X33.7924 Y11.5600 F150.00
G01 X33.7787 Y11.4678 F150.00
G01 X33.7747 Y11.4476 F150.00
G01 X33.7520 Y11.3571 F150.00
G01 X33.7460 Y11.3374 F150.00
G01 X33.7146 Y11.2496 F150.00
G01 X33.7067 Y11.2306 F150.00
G01 X33.6669 Y11.1463 F150.00
G01 X33.6571 Y11.1281 F150.00
G01 X33.6092 Y11.0481 F150.00
G01 X33.5978 Y11.0310 F150.00
G01 X33.5422 Y10.9561 F150.00
G01 X33.5291 Y10.9401 F150.00
G01 X33.4665 Y10.8711 F150.00
G01 X33.4519 Y10.8565 F150.00
G01 X33.3829 Y10.7939 F150.00
G01 X33.3669 Y10.7808 F150.00
G01 X33.2920 Y10.7252 F150.00
G01 X33.2749 Y10.7138 F150.00
G01 X33.1949 Y10.6659 F150.00
G01 X33.1767 Y10.6561 F150.00
G01 X33.0924 Y10.6163 F150.00
G01 X33.0734 Y10.6084 F150.00
G01 X32.9856 Y10.5770 F150.00
G01 X32.9659 Y10.5710 F150.00
G01 X32.8754 Y10.5483 F150.00
G01 X32.8552 Y10.5443 F150.00
G01 X32.7630 Y10.5306 F150.00
G01 X32.7424 Y10.5286 F150.00
G01 X32.6493 Y10.5240 F150.00
G01 X32.6287 Y10.5240 F150.00
G01 X32.6217 Y10.5244 F150.00
G01 X29.1836 Y7.0862 F150.00
G01 X29.1134 Y7.0222 F150.00
G01 X29.0974 Y7.0091 F150.00
G01 X29.0265 Y6.9565 F150.00
G01 X29.0093 Y6.9450 F150.00
G01 X28.9335 Y6.8996 F150.00
G01 X28.9153 Y6.8899 F150.00
G01 X28.8354 Y6.8521 F150.00
G01 X28.8164 Y6.8442 F150.00
G01 X28.7332 Y6.8145 F150.00
G01 X28.7135 Y6.8085 F150.00
G01 X28.6277 Y6.7870 F150.00
G01 X28.6075 Y6.7830 F150.00
G01 X28.5201 Y6.7700 F150.00
G01 X28.4996 Y6.7680 F150.00
G01 X28.4047 Y6.7636 F150.00
G01 X18.9445 Y6.7636 F150.00
G01 X18.9257 Y6.7429 F150.00
G01 X18.9111 Y6.7283 F150.00
G01 X18.8093 Y6.6360 F150.00
G01 X18.7934 Y6.6229 F150.00
G01 X18.6830 Y6.5411 F150.00
G01 X18.6659 Y6.5296 F150.00
G01 X18.5480 Y6.4590 F150.00
G01 X18.5298 Y6.4493 F150.00
G01 X18.4056 Y6.3905 F150.00
G01 X18.3866 Y6.3826 F150.00
G01 X18.2572 Y6.3363 F150.00
G01 X18.2375 Y6.3304 F150.00
G01 X18.1042 Y6.2970 F150.00
G01 X18.0840 Y6.2929 F150.00
G01 X17.9481 Y6.2728 F150.00
G01 X17.9275 Y6.2708 F150.00
G01 X17.7903 Y6.2640 F150.00
G01 X17.7697 Y6.2640 F150.00
G01 X17.6325 Y6.2708 F150.00
G01 X17.6119 Y6.2728 F150.00
G01 X17.4760 Y6.2929 F150.00
G01 X17.4558 Y6.2970 F150.00
G01 X17.3225 Y6.3304 F150.00
G01 X17.3028 Y6.3363 F150.00
G01 X17.1734 Y6.3826 F150.00
G01 X17.1544 Y6.3905 F150.00
G01 X17.0302 Y6.4493 F150.00
G01 X17.0120 Y6.4590 F150.00
G01 X16.8941 Y6.5296 F150.00
G01 X16.8770 Y6.5411 F150.00
G01 X16.7666 Y6.6229 F150.00
G01 X16.7507 Y6.6360 F150.00
G01 X16.6489 Y6.7283 F150.00
G01 X16.6343 Y6.7429 F150.00
G01 X16.5420 Y6.8447 F150.00
G01 X16.5289 Y6.8606 F150.00
G01 X16.4471 Y6.9710 F150.00
G01 X16.4356 Y6.9881 F150.00
G01 X16.3650 Y7.1060 F150.00
G01 X16.3553 Y7.1242 F150.00
G01 X16.2965 Y7.2484 F150.00
G01 X16.2886 Y7.2674 F150.00
G01 X16.2423 Y7.3968 F150.00
G01 X16.2364 Y7.4165 F150.00
G01 X16.2030 Y7.5498 F150.00
G01 X16.1989 Y7.5700 F150.00
G01 X16.1788 Y7.7059 F150.00
G01 X16.1768 Y7.7265 F150.00
G01 X16.1700 Y7.8637 F150.00
G01 X16.1700 Y7.8843 F150.00
G01 X16.1768 Y8.0215 F150.00
G01 X16.1788 Y8.0421 F150.00
G01 X16.1989 Y8.1780 F150.00
G01 X16.2030 Y8.1982 F150.00
G01 X16.2364 Y8.3315 F150.00
G01 X16.2423 Y8.3512 F150.00
G01 X16.2886 Y8.4806 F150.00
G01 X16.2965 Y8.4996 F150.00
G01 X16.3553 Y8.6238 F150.00
G01 X16.3650 Y8.6420 F150.00
G01 X16.4356 Y8.7599 F150.00
G01 X16.4471 Y8.7770 F150.00
G01 X16.5289 Y8.8874 F150.00
G01 X16.5420 Y8.9033 F150.00
G01 X16.6343 Y9.0051 F150.00
G01 X16.6489 Y9.0197 F150.00
G01 X16.7507 Y9.1120 F150.00
G01 X16.7666 Y9.1251 F150.00
G01 X16.8770 Y9.2069 F150.00
G01 X16.8941 Y9.2184 F150.00
G01 X17.0120 Y9.2890 F150.00
G01 X17.0302 Y9.2987 F150.00
G01 X17.1544 Y9.3575 F150.00
G01 X17.1734 Y9.3654 F150.00
G01 X17.3028 Y9.4117 F150.00
G01 X17.3225 Y9.4176 F150.00
G01 X17.4558 Y9.4510 F150.00
G01 X17.4760 Y9.4551 F150.00
G01 X17.6119 Y9.4752 F150.00
G01 X17.6325 Y9.4772 F150.00
G01 X17.7697 Y9.4840 F150.00
G01 X17.7903 Y9.4840 F150.00
G01 X17.9275 Y9.4772 F150.00
G01 X17.9481 Y9.4752 F150.00
G01 X18.0840 Y9.4551 F150.00
G01 X18.1042 Y9.4510 F150.00
G01 X18.2375 Y9.4176 F150.00
G01 X18.2572 Y9.4117 F150.00
G01 X18.3866 Y9.3654 F150.00
G01 X18.4056 Y9.3575 F150.00
G01 X18.5298 Y9.2987 F150.00
G01 X18.5480 Y9.2890 F150.00
G01 X18.6659 Y9.2184 F150.00
G01 X18.6830 Y9.2069 F150.00
G01 X18.7934 Y9.1251 F150.00
G01 X18.8093 Y9.1120 F150.00
G01 X18.9111 Y9.0197 F150.00
G01 X18.9257 Y9.0051 F150.00
G01 X18.9445 Y8.9844 F150.00
G00 Z2.0000
G00 X28.6130 Y2.4933
G01 F60.00
G01 Z-0.1149
G01 F150.00
G01 X28.6130 Y2.4727 F150.00
G01 X28.6038 Y2.2864 F150.00
G01 X28.6018 Y2.2659 F150.00
G01 X28.5744 Y2.0815 F150.00
G01 X28.5704 Y2.0613 F150.00
G01 X28.5251 Y1.8804 F150.00
G01 X28.5191 Y1.8606 F150.00
G01 X28.4563 Y1.6851 F150.00
G01 X28.4484 Y1.6660 F150.00
G01 X28.3687 Y1.4975 F150.00
G01 X28.3590 Y1.4793 F150.00
G01 X28.2631 Y1.3193 F150.00
G01 X28.2517 Y1.3022 F150.00
G01 X28.1406 Y1.1524 F150.00
G01 X28.1275 Y1.1365 F150.00
G01 X28.0023 Y0.9983 F150.00
G01 X27.9877 Y0.9837 F150.00
G01 X27.8495 Y0.8585 F150.00
G01 X27.8336 Y0.8454 F150.00
G01 X27.6838 Y0.7343 F150.00
G01 X27.6667 Y0.7229 F150.00
G01 X27.5067 Y0.6270 F150.00
G01 X27.4885 Y0.6173 F150.00
G01 X27.3200 Y0.5376 F150.00
G01 X27.3009 Y0.5297 F150.00
G01 X27.1254 Y0.4669 F150.00
G01 X27.1056 Y0.4609 F150.00
G01 X26.9247 Y0.4156 F150.00
G01 X26.9045 Y0.4116 F150.00
G01 X26.7201 Y0.3842 F150.00
G01 X26.6996 Y0.3822 F150.00
G01 X26.5133 Y0.3730 F150.00
G01 X26.4927 Y0.3730 F150.00
G01 X26.3064 Y0.3822 F150.00
G01 X26.2859 Y0.3842 F150.00
G01 X26.1015 Y0.4116 F150.00
G01 X26.0813 Y0.4156 F150.00
G01 X25.9004 Y0.4609 F150.00
G01 X25.8806 Y0.4669 F150.00
G01 X25.7051 Y0.5297 F150.00
G01 X25.6860 Y0.5376 F150.00
G01 X25.5175 Y0.6173 F150.00
G01 X25.4993 Y0.6270 F150.00
G01 X25.3393 Y0.7229 F150.00
G01 X25.3222 Y0.7343 F150.00
G01 X25.1724 Y0.8454 F150.00
G01 X25.1565 Y0.8585 F150.00
G01 X25.0183 Y0.9837 F150.00
G01 X25.0037 Y0.9983 F150.00
G01 X24.8785 Y1.1365 F150.00
G01 X24.8654 Y1.1524 F150.00
G01 X24.7543 Y1.3022 F150.00
G01 X24.7429 Y1.3193 F150.00
G01 X24.6470 Y1.4793 F150.00
G01 X24.6373 Y1.4975 F150.00
G01 X24.5576 Y1.6660 F150.00
G01 X24.5497 Y1.6851 F150.00
G01 X24.4869 Y1.8606 F150.00
G01 X24.4809 Y1.8804 F150.00
G01 X24.4356 Y2.0613 F150.00
G01 X24.4316 Y2.0815 F150.00
G01 X24.4042 Y2.2659 F150.00
G01 X24.4022 Y2.2864 F150.00
G01 X24.3930 Y2.4727 F150.00
G01 X24.3930 Y2.4933 F150.00
G01 X24.4022 Y2.6796 F150.00
G01 X24.4042 Y2.7001 F150.00
G01 X24.4316 Y2.8845 F150.00
G01 X24.4356 Y2.9047 F150.00
G01 X24.4809 Y3.0856 F150.00
G01 X24.4869 Y3.1054 F150.00
G01 X24.5497 Y3.2809 F150.00
G01 X24.5576 Y3.3000 F150.00
G01 X24.6373 Y3.4685 F150.00
G01 X24.6470 Y3.4867 F150.00
G01 X24.7429 Y3.6467 F150.00
G01 X24.7543 Y3.6638 F150.00
G01 X24.8654 Y3.8136 F150.00
G01 X24.8785 Y3.8295 F150.00
G01 X25.0037 Y3.9677 F150.00
G01 X25.0183 Y3.9823 F150.00
G01 X25.1565 Y4.1075 F150.00
G01 X25.1724 Y4.1206 F150.00
G01 X25.3222 Y4.2317 F150.00
G01 X25.3393 Y4.2431 F150.00
G01 X25.4993 Y4.3390 F150.00
G01 X25.5175 Y4.3487 F150.00
G01 X25.6860 Y4.4284 F150.00
G01 X25.7051 Y4.4363 F150.00
G01 X25.8806 Y4.4991 F150.00
G01 X25.9004 Y4.5051 F150.00
G01 X26.0813 Y4.5504 F150.00
G01 X26.1015 Y4.5544 F150.00
G01 X26.2859 Y4.5818 F150.00
G01 X26.3064 Y4.5838 F150.00
G01 X26.4927 Y4.5930 F150.00
G01 X26.5133 Y4.5930 F150.00
G01 X26.6996 Y4.5838 F150.00
G01 X26.7201 Y4.5818 F150.00
G01 X26.9045 Y4.5544 F150.00
G01 X26.9247 Y4.5504 F150.00
G01 X27.1056 Y4.5051 F150.00
G01 X27.1254 Y4.4991 F150.00
G01 X27.3009 Y4.4363 F150.00
G01 X27.3200 Y4.4284 F150.00
G01 X27.4885 Y4.3487 F150.00
G01 X27.5067 Y4.3390 F150.00
G01 X27.6667 Y4.2431 F150.00
G01 X27.6838 Y4.2317 F150.00
G01 X27.8336 Y4.1206 F150.00
G01 X27.8495 Y4.1075 F150.00
G01 X27.9877 Y3.9823 F150.00
G01 X28.0023 Y3.9677 F150.00
G01 X28.1275 Y3.8295 F150.00
G01 X28.1406 Y3.8136 F150.00
G01 X28.2517 Y3.6638 F150.00
G01 X28.2631 Y3.6467 F150.00
G01 X28.3590 Y3.4867 F150.00
G01 X28.3687 Y3.4685 F150.00
G01 X28.4484 Y3.3000 F150.00
G01 X28.4563 Y3.2809 F150.00
G01 X28.5191 Y3.1054 F150.00
G01 X28.5251 Y3.0856 F150.00
G01 X28.5704 Y2.9047 F150.00
G01 X28.5744 Y2.8845 F150.00
G01 X28.6018 Y2.7001 F150.00
G01 X28.6038 Y2.6796 F150.00
G01 X28.6130 Y2.4933 F150.00
G00 Z2.0000
G00 X33.7990 Y6.6943
G01 F60.00
G01 Z-0.1149
G01 F150.00
G01 X33.7990 Y6.6737 F150.00
G01 X33.7944 Y6.5806 F150.00
G01 X33.7924 Y6.5600 F150.00
G01 X33.7787 Y6.4678 F150.00
G01 X33.7747 Y6.4476 F150.00
G01 X33.7520 Y6.3571 F150.00
G01 X33.7460 Y6.3374 F150.00
G01 X33.7146 Y6.2496 F150.00
G01 X33.7067 Y6.2306 F150.00
G01 X33.6669 Y6.1463 F150.00
G01 X33.6571 Y6.1281 F150.00
G01 X33.6092 Y6.0481 F150.00
G01 X33.5978 Y6.0310 F150.00
G01 X33.5422 Y5.9561 F150.00
G01 X33.5291 Y5.9401 F150.00
G01 X33.4665 Y5.8711 F150.00
G01 X33.4519 Y5.8565 F150.00
G01 X33.3829 Y5.7939 F150.00
G01 X33.3669 Y5.7808 F150.00
G01 X33.2920 Y5.7252 F150.00
G01 X33.2749 Y5.7138 F150.00
G01 X33.1949 Y5.6659 F150.00
G01 X33.1767 Y5.6561 F150.00
G01 X33.0924 Y5.6163 F150.00
G01 X33.0734 Y5.6084 F150.00
G01 X32.9856 Y5.5770 F150.00
G01 X32.9659 Y5.5710 F150.00
G01 X32.8754 Y5.5483 F150.00
G01 X32.8552 Y5.5443 F150.00
G01 X32.7630 Y5.5306 F150.00
G01 X32.7424 Y5.5286 F150.00
G01 X32.6493 Y5.5240 F150.00
G01 X32.6287 Y5.5240 F150.00
G01 X32.5356 Y5.5286 F150.00
G01 X32.5150 Y5.5306 F150.00
G01 X32.4228 Y5.5443 F150.00
G01 X32.4026 Y5.5483 F150.00
G01 X32.3121 Y5.5710 F150.00
G01 X32.2924 Y5.5770 F150.00
G01 X32.2046 Y5.6084 F150.00
G01 X32.1856 Y5.6163 F150.00
G01 X32.1013 Y5.6561 F150.00
G01 X32.0831 Y5.6659 F150.00
G01 X32.0031 Y5.7138 F150.00
G01 X31.9860 Y5.7252 F150.00
G01 X31.9111 Y5.7808 F150.00
G01 X31.8951 Y5.7939 F150.00
G01 X31.8261 Y5.8565 F150.00
G01 X31.8115 Y5.8711 F150.00
G01 X31.7489 Y5.9401 F150.00
G01 X31.7358 Y5.9561 F150.00
G01 X31.6802 Y6.0310 F150.00
G01 X31.6688 Y6.0481 F150.00
G01 X31.6209 Y6.1281 F150.00
G01 X31.6111 Y6.1463 F150.00
G01 X31.5713 Y6.2306 F150.00
G01 X31.5634 Y6.2496 F150.00
G01 X31.5320 Y6.3374 F150.00
G01 X31.5260 Y6.3571 F150.00
G01 X31.5033 Y6.4476 F150.00
G01 X31.4993 Y6.4678 F150.00
G01 X31.4856 Y6.5600 F150.00
G01 X31.4836 Y6.5806 F150.00
G01 X31.4790 Y6.6737 F150.00
G01 X31.4790 Y6.6943 F150.00
G01 X31.4836 Y6.7874 F150.00
G01 X31.4856 Y6.8080 F150.00
G01 X31.4993 Y6.9002 F150.00
G01 X31.5033 Y6.9204 F150.00
G01 X31.5260 Y7.0109 F150.00
G01 X31.5320 Y7.0306 F150.00
G01 X31.5634 Y7.1184 F150.00
G01 X31.5713 Y7.1374 F150.00
G01 X31.6111 Y7.2217 F150.00
G01 X31.6209 Y7.2399 F150.00
G01 X31.6688 Y7.3199 F150.00
G01 X31.6802 Y7.3370 F150.00
G01 X31.7358 Y7.4119 F150.00
G01 X31.7489 Y7.4279 F150.00
G01 X31.8115 Y7.4969 F150.00
G01 X31.8261 Y7.5115 F150.00
G01 X31.8951 Y7.5741 F150.00
G01 X31.9111 Y7.5872 F150.00
G01 X31.9860 Y7.6428 F150.00
G01 X32.0031 Y7.6542 F150.00
G01 X32.0831 Y7.7021 F150.00
G01 X32.1013 Y7.7119 F150.00
G01 X32.1856 Y7.7517 F150.00
G01 X32.2046 Y7.7596 F150.00
G01 X32.2924 Y7.7910 F150.00
G01 X32.3121 Y7.7970 F150.00
G01 X32.4026 Y7.8197 F150.00
G01 X32.4228 Y7.8237 F150.00
G01 X32.5150 Y7.8374 F150.00
G01 X32.5356 Y7.8394 F150.00
G01 X32.6287 Y7.8440 F150.00
G01 X32.6493 Y7.8440 F150.00
G01 X32.7424 Y7.8394 F150.00
G01 X32.7630 Y7.8374 F150.00
G01 X32.8552 Y7.8237 F150.00
G01 X32.8754 Y7.8197 F150.00
G01 X32.9659 Y7.7970 F150.00
G01 X32.9856 Y7.7910 F150.00
G01 X33.0734 Y7.7596 F150.00
G01 X33.0924 Y7.7517 F150.00
G01 X33.1767 Y7.7119 F150.00
G01 X33.1949 Y7.7021 F150.00
G01 X33.2749 Y7.6542 F150.00
G01 X33.2920 Y7.6428 F150.00
G01 X33.3669 Y7.5872 F150.00
G01 X33.3829 Y7.5741 F150.00
G01 X33.4519 Y7.5115 F150.00
G01 X33.4665 Y7.4969 F150.00
G01 X33.5291 Y7.4279 F150.00
G01 X33.5422 Y7.4119 F150.00
G01 X33.5978 Y7.3370 F150.00
G01 X33.6092 Y7.3199 F150.00
G01 X33.6571 Y7.2399 F150.00
G01 X33.6669 Y7.2217 F150.00
G01 X33.7067 Y7.1374 F150.00
G01 X33.7146 Y7.1184 F150.00
G01 X33.7460 Y7.0306 F150.00
G01 X33.7520 Y7.0109 F150.00
G01 X33.7747 Y6.9204 F150.00
G01 X33.7787 Y6.9002 F150.00
G01 X33.7924 Y6.8080 F150.00
G01 X33.7944 Y6.7874 F150.00
G01 X33.7990 Y6.6943 F150.00
G00 Z2.0000
G00 X29.9890 Y13.8063
G01 F60.00
G01 Z-0.1149
G01 F150.00
G01 X29.9890 Y13.7857 F150.00
G01 X29.9844 Y13.6926 F150.00
G01 X29.9824 Y13.6720 F150.00
G01 X29.9687 Y13.5798 F150.00
G01 X29.9647 Y13.5596 F150.00
G01 X29.9420 Y13.4691 F150.00
G01 X29.9360 Y13.4494 F150.00
G01 X29.9046 Y13.3616 F150.00
G01 X29.8967 Y13.3426 F150.00
G01 X29.8569 Y13.2583 F150.00
G01 X29.8471 Y13.2401 F150.00
G01 X29.7992 Y13.1601 F150.00
G01 X29.7878 Y13.1430 F150.00
G01 X29.7322 Y13.0681 F150.00
G01 X29.7191 Y13.0521 F150.00
G01 X29.6565 Y12.9831 F150.00
G01 X29.6419 Y12.9685 F150.00
G01 X29.5729 Y12.9059 F150.00
G01 X29.5569 Y12.8928 F150.00
G01 X29.4820 Y12.8372 F150.00
G01 X29.4649 Y12.8258 F150.00
G01 X29.3849 Y12.7779 F150.00
G01 X29.3667 Y12.7681 F150.00
G01 X29.2824 Y12.7283 F150.00
G01 X29.2634 Y12.7204 F150.00
G01 X29.1756 Y12.6890 F150.00
G01 X29.1559 Y12.6830 F150.00
G01 X29.0654 Y12.6603 F150.00
G01 X29.0452 Y12.6563 F150.00
G01 X28.9530 Y12.6426 F150.00
G01 X28.9324 Y12.6406 F150.00
G01 X28.8393 Y12.6360 F150.00
G01 X28.8187 Y12.6360 F150.00
G01 X28.7256 Y12.6406 F150.00
G01 X28.7050 Y12.6426 F150.00
G01 X28.6128 Y12.6563 F150.00
G01 X28.5926 Y12.6603 F150.00
G01 X28.5021 Y12.6830 F150.00
G01 X28.4824 Y12.6890 F150.00
G01 X28.3946 Y12.7204 F150.00
G01 X28.3756 Y12.7283 F150.00
G01 X28.2913 Y12.7681 F150.00
G01 X28.2731 Y12.7779 F150.00
G01 X28.1931 Y12.8258 F150.00
G01 X28.1760 Y12.8372 F150.00
G01 X28.1011 Y12.8928 F150.00
G01 X28.0851 Y12.9059 F150.00
G01 X28.0161 Y12.9685 F150.00
G01 X28.0015 Y12.9831 F150.00
G01 X27.9389 Y13.0521 F150.00
G01 X27.9258 Y13.0681 F150.00
G01 X27.8702 Y13.1430 F150.00
G01 X27.8588 Y13.1601 F150.00
G01 X27.8109 Y13.2401 F150.00
G01 X27.8011 Y13.2583 F150.00
G01 X27.7613 Y13.3426 F150.00
G01 X27.7534 Y13.3616 F150.00
G01 X27.7220 Y13.4494 F150.00
G01 X27.7160 Y13.4691 F150.00
G01 X27.6933 Y13.5596 F150.00
G01 X27.6893 Y13.5798 F150.00
G01 X27.6756 Y13.6720 F150.00
G01 X27.6736 Y13.6926 F150.00
G01 X27.6690 Y13.7857 F150.00
G01 X27.6690 Y13.8063 F150.00
G01 X27.6736 Y13.8994 F150.00
G01 X27.6756 Y13.9200 F150.00
G01 X27.6893 Y14.0122 F150.00
G01 X27.6933 Y14.0324 F150.00
G01 X27.7160 Y14.1229 F150.00
G01 X27.7220 Y14.1426 F150.00
G01 X27.7534 Y14.2304 F150.00
G01 X27.7613 Y14.2494 F150.00
G01 X27.8011 Y14.3337 F150.00
G01 X27.8109 Y14.3519 F150.00
G01 X27.8588 Y14.4319 F150.00
G01 X27.8702 Y14.4490 F150.00
G01 X27.9258 Y14.5239 F150.00
G01 X27.9389 Y14.5399 F150.00
G01 X28.0015 Y14.6089 F150.00
G01 X28.0161 Y14.6235 F150.00
G01 X28.0851 Y14.6861 F150.00
G01 X28.1011 Y14.6992 F150.00
G01 X28.1760 Y14.7548 F150.00
G01 X28.1931 Y14.7662 F150.00
G01 X28.2731 Y14.8141 F150.00
G01 X28.2913 Y14.8239 F150.00
G01 X28.3756 Y14.8637 F150.00
G01 X28.3946 Y14.8716 F150.00
G01 X28.4824 Y14.9030 F150.00
G01 X28.5021 Y14.9090 F150.00
G01 X28.5926 Y14.9317 F150.00
G01 X28.6128 Y14.9357 F150.00
G01 X28.7050 Y14.9494 F150.00
G01 X28.7256 Y14.9514 F150.00
G01 X28.8187 Y14.9560 F150.00
G01 X28.8393 Y14.9560 F150.00
G01 X28.9324 Y14.9514 F150.00
G01 X28.9530 Y14.9494 F150.00
G01 X29.0452 Y14.9357 F150.00
G01 X29.0654 Y14.9317 F150.00
G01 X29.1559 Y14.9090 F150.00
G01 X29.1756 Y14.9030 F150.00
G01 X29.2634 Y14.8716 F150.00
G01 X29.2824 Y14.8637 F150.00
G01 X29.3667 Y14.8239 F150.00
G01 X29.3849 Y14.8141 F150.00
G01 X29.4649 Y14.7662 F150.00
G01 X29.4820 Y14.7548 F150.00
G01 X29.5569 Y14.6992 F150.00
G01 X29.5729 Y14.6861 F150.00
G01 X29.6419 Y14.6235 F150.00
G01 X29.6565 Y14.6089 F150.00
G01 X29.7191 Y14.5399 F150.00
G01 X29.7322 Y14.5239 F150.00
G01 X29.7878 Y14.4490 F150.00
G01 X29.7992 Y14.4319 F150.00
G01 X29.8471 Y14.3519 F150.00
G01 X29.8569 Y14.3337 F150.00
G01 X29.8967 Y14.2494 F150.00
G01 X29.9046 Y14.2304 F150.00
G01 X29.9360 Y14.1426 F150.00
G01 X29.9420 Y14.1229 F150.00
G01 X29.9647 Y14.0324 F150.00
G01 X29.9687 Y14.0122 F150.00
G01 X29.9824 Y13.9200 F150.00
G01 X29.9844 Y13.8994 F150.00
G01 X29.9890 Y13.8063 F150.00
G00 Z2.0000
G00 X38.4002 Y16.4794
G01 F60.00
G01 Z-0.1149
G01 F150.00
G01 X39.5778 Y16.4794 F150.00
G01 X39.5848 Y16.4845 F150.00
G01 X39.6019 Y16.4960 F150.00
G01 X39.6851 Y16.5458 F150.00
G01 X39.7033 Y16.5556 F150.00
G01 X39.7910 Y16.5970 F150.00
G01 X39.8100 Y16.6049 F150.00
G01 X39.9013 Y16.6376 F150.00
G01 X39.9211 Y16.6436 F150.00
G01 X40.0151 Y16.6671 F150.00
G01 X40.0354 Y16.6712 F150.00
G01 X40.1313 Y16.6854 F150.00
G01 X40.1518 Y16.6874 F150.00
G01 X40.2487 Y16.6922 F150.00
G01 X40.2693 Y16.6922 F150.00
G01 X40.3662 Y16.6874 F150.00
G01 X40.3867 Y16.6854 F150.00
G01 X40.4826 Y16.6712 F150.00
G01 X40.5029 Y16.6671 F150.00
G01 X40.5969 Y16.6436 F150.00
G01 X40.6167 Y16.6376 F150.00
G01 X40.7080 Y16.6049 F150.00
G01 X40.7270 Y16.5970 F150.00
G01 X40.8147 Y16.5556 F150.00
G01 X40.8329 Y16.5458 F150.00
G01 X40.9161 Y16.4960 F150.00
G01 X40.9332 Y16.4845 F150.00
G01 X40.9402 Y16.4794 F150.00
G01 X41.3748 Y16.4794 F150.00
G01 X42.7398 Y17.8444 F150.00
G01 X42.8010 Y17.9001 F150.00
G01 X42.8169 Y17.9132 F150.00
G01 X42.8780 Y17.9585 F150.00
G01 X42.8952 Y17.9700 F150.00
G01 X42.9604 Y18.0091 F150.00
G01 X42.9786 Y18.0188 F150.00
G01 X43.0474 Y18.0513 F150.00
G01 X43.0665 Y18.0592 F150.00
G01 X43.1381 Y18.0849 F150.00
G01 X43.1579 Y18.0909 F150.00
G01 X43.2317 Y18.1093 F150.00
G01 X43.2519 Y18.1134 F150.00
G01 X43.3272 Y18.1245 F150.00
G01 X43.3477 Y18.1266 F150.00
G01 X43.4303 Y18.1304 F150.00
G01 X46.3141 Y18.1304 F150.00
G01 X46.3301 Y18.1649 F150.00
G01 X46.3483 Y18.1952 F150.00
G01 X46.3694 Y18.2236 F150.00
G01 X46.3932 Y18.2498 F150.00
G01 X46.4194 Y18.2736 F150.00
G01 X46.4478 Y18.2947 F150.00
G01 X46.4781 Y18.3129 F150.00
G01 X46.5101 Y18.3280 F150.00
G01 X46.5434 Y18.3399 F150.00
G01 X46.5777 Y18.3485 F150.00
G01 X46.6127 Y18.3537 F150.00
G01 X46.6406 Y18.3550 F150.00
G01 X48.3554 Y18.3550 F150.00
G01 X48.3833 Y18.3537 F150.00
G01 X48.4183 Y18.3485 F150.00
G01 X48.4526 Y18.3399 F150.00
G01 X48.4859 Y18.3280 F150.00
G01 X48.5179 Y18.3129 F150.00
G01 X48.5482 Y18.2947 F150.00
G01 X48.5766 Y18.2736 F150.00
G01 X48.6028 Y18.2498 F150.00
G01 X48.6266 Y18.2236 F150.00
G01 X48.6477 Y18.1952 F150.00
G01 X48.6659 Y18.1649 F150.00
G01 X48.6810 Y18.1329 F150.00
G01 X48.6929 Y18.0996 F150.00
G01 X48.7015 Y18.0653 F150.00
G01 X48.7067 Y18.0303 F150.00
G01 X48.7080 Y18.0024 F150.00
G01 X48.7080 Y16.2876 F150.00
G01 X48.7067 Y16.2597 F150.00
G01 X48.7015 Y16.2247 F150.00
G01 X48.6929 Y16.1904 F150.00
G01 X48.6810 Y16.1571 F150.00
G01 X48.6659 Y16.1251 F150.00
G01 X48.6477 Y16.0948 F150.00
G01 X48.6266 Y16.0664 F150.00
G01 X48.6028 Y16.0402 F150.00
G01 X48.5766 Y16.0164 F150.00
G01 X48.5482 Y15.9953 F150.00
G01 X48.5179 Y15.9771 F150.00
G01 X48.4859 Y15.9620 F150.00
G01 X48.4526 Y15.9501 F150.00
G01 X48.4183 Y15.9415 F150.00
G01 X48.3833 Y15.9363 F150.00
G01 X48.3554 Y15.9350 F150.00
G01 X46.6406 Y15.9350 F150.00
G01 X46.6127 Y15.9363 F150.00
G01 X46.5777 Y15.9415 F150.00
G01 X46.5434 Y15.9501 F150.00
G01 X46.5101 Y15.9620 F150.00
G01 X46.4781 Y15.9771 F150.00
G01 X46.4478 Y15.9953 F150.00
G01 X46.4194 Y16.0164 F150.00
G01 X46.3932 Y16.0402 F150.00
G01 X46.3694 Y16.0664 F150.00
G01 X46.3483 Y16.0948 F150.00
G01 X46.3301 Y16.1251 F150.00
G01 X46.3141 Y16.1596 F150.00
G01 X43.8422 Y16.1596 F150.00
G01 X42.4772 Y14.7946 F150.00
G01 X42.4160 Y14.7389 F150.00
G01 X42.4001 Y14.7258 F150.00
G01 X42.3390 Y14.6805 F150.00
G01 X42.3218 Y14.6690 F150.00
G01 X42.2566 Y14.6299 F150.00
G01 X42.2384 Y14.6202 F150.00
G01 X42.1696 Y14.5877 F150.00
G01 X42.1505 Y14.5798 F150.00
G01 X42.0789 Y14.5541 F150.00
G01 X42.0591 Y14.5481 F150.00
G01 X41.9853 Y14.5297 F150.00
G01 X41.9651 Y14.5256 F150.00
G01 X41.8898 Y14.5145 F150.00
G01 X41.8693 Y14.5124 F150.00
G01 X41.7867 Y14.5086 F150.00
G01 X40.9402 Y14.5086 F150.00
G01 X40.9332 Y14.5035 F150.00
G01 X40.9161 Y14.4920 F150.00
G01 X40.8329 Y14.4422 F150.00
G01 X40.8147 Y14.4324 F150.00
G01 X40.7270 Y14.3910 F150.00
G01 X40.7080 Y14.3831 F150.00
G01 X40.6167 Y14.3504 F150.00
G01 X40.5969 Y14.3444 F150.00
G01 X40.5029 Y14.3209 F150.00
G01 X40.4826 Y14.3168 F150.00
G01 X40.3867 Y14.3026 F150.00
G01 X40.3662 Y14.3006 F150.00
G01 X40.2693 Y14.2958 F150.00
G01 X40.2487 Y14.2958 F150.00
G01 X40.1518 Y14.3006 F150.00
G01 X40.1313 Y14.3026 F150.00
G01 X40.0354 Y14.3168 F150.00
G01 X40.0151 Y14.3209 F150.00
G01 X39.9211 Y14.3444 F150.00
G01 X39.9013 Y14.3504 F150.00
G01 X39.8100 Y14.3831 F150.00
G01 X39.7910 Y14.3910 F150.00
G01 X39.7033 Y14.4324 F150.00
G01 X39.6851 Y14.4422 F150.00
G01 X39.6019 Y14.4920 F150.00
G01 X39.5848 Y14.5035 F150.00
G01 X39.5778 Y14.5086 F150.00
G01 X38.4002 Y14.5086 F150.00
G01 X38.3932 Y14.5035 F150.00
G01 X38.3761 Y14.4920 F150.00
G01 X38.2929 Y14.4422 F150.00
G01 X38.2747 Y14.4324 F150.00
G01 X38.1870 Y14.3910 F150.00
G01 X38.1680 Y14.3831 F150.00
G01 X38.0767 Y14.3504 F150.00
G01 X38.0569 Y14.3444 F150.00
G01 X37.9629 Y14.3209 F150.00
G01 X37.9426 Y14.3168 F150.00
G01 X37.8467 Y14.3026 F150.00
G01 X37.8262 Y14.3006 F150.00
G01 X37.7293 Y14.2958 F150.00
G01 X37.7087 Y14.2958 F150.00
G01 X37.6118 Y14.3006 F150.00
G01 X37.5913 Y14.3026 F150.00
G01 X37.4954 Y14.3168 F150.00
G01 X37.4751 Y14.3209 F150.00
G01 X37.3811 Y14.3444 F150.00
G01 X37.3613 Y14.3504 F150.00
G01 X37.2700 Y14.3831 F150.00
G01 X37.2510 Y14.3910 F150.00
G01 X37.1633 Y14.4324 F150.00
G01 X37.1451 Y14.4422 F150.00
G01 X37.0619 Y14.4920 F150.00
G01 X37.0448 Y14.5035 F150.00
G01 X36.9669 Y14.5613 F150.00
G01 X36.9509 Y14.5743 F150.00
G01 X36.8791 Y14.6395 F150.00
G01 X36.8645 Y14.6541 F150.00
G01 X36.7993 Y14.7259 F150.00
G01 X36.7863 Y14.7419 F150.00
G01 X36.7285 Y14.8198 F150.00
G01 X36.7170 Y14.8369 F150.00
G01 X36.6672 Y14.9201 F150.00
G01 X36.6574 Y14.9383 F150.00
G01 X36.6160 Y15.0260 F150.00
G01 X36.6081 Y15.0450 F150.00
G01 X36.5754 Y15.1363 F150.00
G01 X36.5694 Y15.1561 F150.00
G01 X36.5459 Y15.2501 F150.00
G01 X36.5418 Y15.2704 F150.00
G01 X36.5276 Y15.3663 F150.00
G01 X36.5256 Y15.3868 F150.00
G01 X36.5208 Y15.4837 F150.00
G01 X36.5208 Y15.5043 F150.00
G01 X36.5256 Y15.6012 F150.00
G01 X36.5276 Y15.6217 F150.00
G01 X36.5418 Y15.7176 F150.00
G01 X36.5459 Y15.7379 F150.00
G01 X36.5694 Y15.8319 F150.00
G01 X36.5754 Y15.8517 F150.00
G01 X36.6081 Y15.9430 F150.00
G01 X36.6160 Y15.9620 F150.00
G01 X36.6574 Y16.0497 F150.00
G01 X36.6672 Y16.0679 F150.00
G01 X36.7170 Y16.1511 F150.00
G01 X36.7285 Y16.1682 F150.00
G01 X36.7863 Y16.2461 F150.00
G01 X36.7993 Y16.2621 F150.00
G01 X36.8645 Y16.3339 F150.00
G01 X36.8791 Y16.3485 F150.00
G01 X36.9509 Y16.4137 F150.00
G01 X36.9669 Y16.4267 F150.00
G01 X37.0448 Y16.4845 F150.00
G01 X37.0619 Y16.4960 F150.00
G01 X37.1451 Y16.5458 F150.00
G01 X37.1633 Y16.5556 F150.00
G01 X37.2510 Y16.5970 F150.00
G01 X37.2700 Y16.6049 F150.00
G01 X37.3613 Y16.6376 F150.00
G01 X37.3811 Y16.6436 F150.00
G01 X37.4751 Y16.6671 F150.00
G01 X37.4954 Y16.6712 F150.00
G01 X37.5913 Y16.6854 F150.00
G01 X37.6118 Y16.6874 F150.00
G01 X37.7087 Y16.6922 F150.00
G01 X37.7293 Y16.6922 F150.00
G01 X37.8262 Y16.6874 F150.00
G01 X37.8467 Y16.6854 F150.00
G01 X37.9426 Y16.6712 F150.00
G01 X37.9629 Y16.6671 F150.00
G01 X38.0569 Y16.6436 F150.00
G01 X38.0767 Y16.6376 F150.00
G01 X38.1680 Y16.6049 F150.00
G01 X38.1870 Y16.5970 F150.00
G01 X38.2747 Y16.5556 F150.00
G01 X38.2929 Y16.5458 F150.00
G01 X38.3761 Y16.4960 F150.00
G01 X38.3932 Y16.4845 F150.00
G01 X38.4002 Y16.4794 F150.00
G00 Z2.0000
G00 X38.4002 Y24.0994
G01 F60.00
G01 Z-0.1149
G01 F150.00
G01 X39.0922 Y24.0994 F150.00
G01 X39.1029 Y24.1221 F150.00
G01 X39.1211 Y24.1524 F150.00
G01 X39.1422 Y24.1808 F150.00
G01 X39.1660 Y24.2070 F150.00
G01 X39.1922 Y24.2308 F150.00
G01 X39.2206 Y24.2519 F150.00
G01 X39.2509 Y24.2701 F150.00
G01 X39.2829 Y24.2852 F150.00
G01 X39.3162 Y24.2971 F150.00
G01 X39.3505 Y24.3057 F150.00
G01 X39.3855 Y24.3109 F150.00
G01 X39.4134 Y24.3122 F150.00
G01 X41.1046 Y24.3122 F150.00
G01 X41.1325 Y24.3109 F150.00
G01 X41.1675 Y24.3057 F150.00
G01 X41.2018 Y24.2971 F150.00
G01 X41.2351 Y24.2852 F150.00
G01 X41.2671 Y24.2701 F150.00
G01 X41.2974 Y24.2519 F150.00
G01 X41.3258 Y24.2308 F150.00
G01 X41.3520 Y24.2070 F150.00
G01 X41.3758 Y24.1808 F150.00
G01 X41.3969 Y24.1524 F150.00
G01 X41.4151 Y24.1221 F150.00
G01 X41.4302 Y24.0901 F150.00
G01 X41.4421 Y24.0568 F150.00
G01 X41.4507 Y24.0225 F150.00
G01 X41.4559 Y23.9875 F150.00
G01 X41.4572 Y23.9596 F150.00
G01 X41.4572 Y22.2684 F150.00
G01 X41.4559 Y22.2405 F150.00
G01 X41.4507 Y22.2055 F150.00
G01 X41.4421 Y22.1712 F150.00
G01 X41.4302 Y22.1379 F150.00
G01 X41.4151 Y22.1059 F150.00
G01 X41.3969 Y22.0756 F150.00
G01 X41.3758 Y22.0472 F150.00
G01 X41.3520 Y22.0210 F150.00
G01 X41.3258 Y21.9972 F150.00
G01 X41.2974 Y21.9761 F150.00
G01 X41.2671 Y21.9579 F150.00
G01 X41.2444 Y21.9472 F150.00
G01 X41.2444 Y21.4340 F150.00
G01 X42.0080 Y20.6704 F150.00
G01 X46.7970 Y20.6704 F150.00
G01 X46.8172 Y20.6853 F150.00
G01 X46.8343 Y20.6968 F150.00
G01 X46.9185 Y20.7472 F150.00
G01 X46.9367 Y20.7570 F150.00
G01 X47.0254 Y20.7989 F150.00
G01 X47.0445 Y20.8068 F150.00
G01 X47.1369 Y20.8399 F150.00
G01 X47.1566 Y20.8459 F150.00
G01 X47.2518 Y20.8697 F150.00
G01 X47.2721 Y20.8737 F150.00
G01 X47.3691 Y20.8881 F150.00
G01 X47.3897 Y20.8902 F150.00
G01 X47.4877 Y20.8950 F150.00
G01 X47.5083 Y20.8950 F150.00
G01 X47.6063 Y20.8902 F150.00
G01 X47.6269 Y20.8881 F150.00
G01 X47.7239 Y20.8737 F150.00
G01 X47.7442 Y20.8697 F150.00
G01 X47.8394 Y20.8459 F150.00
G01 X47.8591 Y20.8399 F150.00
G01 X47.9515 Y20.8068 F150.00
G01 X47.9706 Y20.7989 F150.00
G01 X48.0593 Y20.7570 F150.00
G01 X48.0775 Y20.7472 F150.00
G01 X48.1617 Y20.6968 F150.00
G01 X48.1788 Y20.6853 F150.00
G01 X48.2576 Y20.6269 F150.00
G01 X48.2736 Y20.6138 F150.00
G01 X48.3463 Y20.5479 F150.00
G01 X48.3609 Y20.5333 F150.00
G01 X48.4268 Y20.4606 F150.00
G01 X48.4399 Y20.4446 F150.00
G01 X48.4983 Y20.3658 F150.00
G01 X48.5098 Y20.3487 F150.00
G01 X48.5602 Y20.2645 F150.00
G01 X48.5700 Y20.2463 F150.00
G01 X48.6119 Y20.1576 F150.00
G01 X48.6198 Y20.1385 F150.00
G01 X48.6529 Y20.0461 F150.00
G01 X48.6589 Y20.0264 F150.00
G01 X48.6827 Y19.9312 F150.00
G01 X48.6867 Y19.9109 F150.00
G01 X48.7011 Y19.8139 F150.00
G01 X48.7032 Y19.7933 F150.00
G01 X48.7080 Y19.6953 F150.00
G01 X48.7080 Y19.6747 F150.00
G01 X48.7032 Y19.5767 F150.00
G01 X48.7011 Y19.5561 F150.00
G01 X48.6867 Y19.4591 F150.00
G01 X48.6827 Y19.4388 F150.00
G01 X48.6589 Y19.3436 F150.00
G01 X48.6529 Y19.3239 F150.00
G01 X48.6198 Y19.2315 F150.00
G01 X48.6119 Y19.2124 F150.00
G01 X48.5700 Y19.1237 F150.00
G01 X48.5602 Y19.1055 F150.00
G01 X48.5098 Y19.0213 F150.00
G01 X48.4983 Y19.0042 F150.00
G01 X48.4399 Y18.9254 F150.00
G01 X48.4268 Y18.9094 F150.00
G01 X48.3609 Y18.8367 F150.00
G01 X48.3463 Y18.8221 F150.00
G01 X48.2736 Y18.7562 F150.00
G01 X48.2576 Y18.7431 F150.00
G01 X48.1788 Y18.6847 F150.00
G01 X48.1617 Y18.6732 F150.00
G01 X48.0775 Y18.6228 F150.00
G01 X48.0593 Y18.6130 F150.00
G01 X47.9706 Y18.5711 F150.00
G01 X47.9515 Y18.5632 F150.00
G01 X47.8591 Y18.5301 F150.00
G01 X47.8394 Y18.5241 F150.00
G01 X47.7442 Y18.5003 F150.00
G01 X47.7239 Y18.4963 F150.00
G01 X47.6269 Y18.4819 F150.00
G01 X47.6063 Y18.4798 F150.00
G01 X47.5083 Y18.4750 F150.00
G01 X47.4877 Y18.4750 F150.00
G01 X47.3897 Y18.4798 F150.00
G01 X47.3691 Y18.4819 F150.00
G01 X47.2721 Y18.4963 F150.00
G01 X47.2518 Y18.5003 F150.00
G01 X47.1566 Y18.5241 F150.00
G01 X47.1369 Y18.5301 F150.00
G01 X47.0445 Y18.5632 F150.00
G01 X47.0254 Y18.5711 F150.00
G01 X46.9367 Y18.6130 F150.00
G01 X46.9185 Y18.6228 F150.00
G01 X46.8343 Y18.6732 F150.00
G01 X46.8172 Y18.6847 F150.00
G01 X46.7970 Y18.6996 F150.00
G01 X41.5961 Y18.6996 F150.00
G01 X41.5135 Y18.7034 F150.00
G01 X41.4930 Y18.7055 F150.00
G01 X41.4177 Y18.7166 F150.00
G01 X41.3975 Y18.7207 F150.00
G01 X41.3237 Y18.7391 F150.00
G01 X41.3039 Y18.7451 F150.00
G01 X41.2323 Y18.7708 F150.00
G01 X41.2132 Y18.7787 F150.00
G01 X41.1444 Y18.8112 F150.00
G01 X41.1262 Y18.8209 F150.00
G01 X41.0610 Y18.8600 F150.00
G01 X41.0438 Y18.8715 F150.00
G01 X40.9827 Y18.9168 F150.00
G01 X40.9668 Y18.9299 F150.00
G01 X40.9056 Y18.9856 F150.00
G01 X39.5596 Y20.3316 F150.00
G01 X39.5039 Y20.3928 F150.00
G01 X39.4908 Y20.4087 F150.00
G01 X39.4455 Y20.4698 F150.00
G01 X39.4340 Y20.4870 F150.00
G01 X39.3949 Y20.5522 F150.00
G01 X39.3852 Y20.5704 F150.00
G01 X39.3527 Y20.6392 F150.00
G01 X39.3448 Y20.6583 F150.00
G01 X39.3191 Y20.7299 F150.00
G01 X39.3131 Y20.7497 F150.00
G01 X39.2947 Y20.8235 F150.00
G01 X39.2906 Y20.8437 F150.00
G01 X39.2795 Y20.9190 F150.00
G01 X39.2774 Y20.9395 F150.00
G01 X39.2736 Y21.0221 F150.00
G01 X39.2736 Y21.9472 F150.00
G01 X39.2509 Y21.9579 F150.00
G01 X39.2206 Y21.9761 F150.00
G01 X39.1922 Y21.9972 F150.00
G01 X39.1660 Y22.0210 F150.00
G01 X39.1422 Y22.0472 F150.00
G01 X39.1211 Y22.0756 F150.00
G01 X39.1029 Y22.1059 F150.00
G01 X39.0922 Y22.1286 F150.00
G01 X38.4002 Y22.1286 F150.00
G01 X38.3932 Y22.1235 F150.00
G01 X38.3761 Y22.1120 F150.00
G01 X38.2929 Y22.0622 F150.00
G01 X38.2747 Y22.0524 F150.00
G01 X38.1870 Y22.0110 F150.00
G01 X38.1680 Y22.0031 F150.00
G01 X38.0767 Y21.9704 F150.00
G01 X38.0569 Y21.9644 F150.00
G01 X37.9629 Y21.9409 F150.00
G01 X37.9426 Y21.9368 F150.00
G01 X37.8467 Y21.9226 F150.00
G01 X37.8262 Y21.9206 F150.00
G01 X37.7293 Y21.9158 F150.00
G01 X37.7087 Y21.9158 F150.00
G01 X37.6118 Y21.9206 F150.00
G01 X37.5913 Y21.9226 F150.00
G01 X37.4954 Y21.9368 F150.00
G01 X37.4751 Y21.9409 F150.00
G01 X37.3811 Y21.9644 F150.00
G01 X37.3613 Y21.9704 F150.00
G01 X37.2700 Y22.0031 F150.00
G01 X37.2510 Y22.0110 F150.00
G01 X37.1633 Y22.0524 F150.00
G01 X37.1451 Y22.0622 F150.00
G01 X37.0619 Y22.1120 F150.00
G01 X37.0448 Y22.1235 F150.00
G01 X36.9669 Y22.1813 F150.00
G01 X36.9509 Y22.1943 F150.00
G01 X36.8791 Y22.2595 F150.00
G01 X36.8645 Y22.2741 F150.00
G01 X36.7993 Y22.3459 F150.00
G01 X36.7863 Y22.3619 F150.00
G01 X36.7285 Y22.4398 F150.00
G01 X36.7170 Y22.4569 F150.00
G01 X36.6672 Y22.5401 F150.00
G01 X36.6574 Y22.5583 F150.00
G01 X36.6160 Y22.6460 F150.00
G01 X36.6081 Y22.6650 F150.00
G01 X36.5754 Y22.7563 F150.00
G01 X36.5694 Y22.7761 F150.00
G01 X36.5459 Y22.8701 F150.00
G01 X36.5418 Y22.8904 F150.00
G01 X36.5276 Y22.9863 F150.00
G01 X36.5256 Y23.0068 F150.00
G01 X36.5208 Y23.1037 F150.00
G01 X36.5208 Y23.1243 F150.00
G01 X36.5256 Y23.2212 F150.00
G01 X36.5276 Y23.2417 F150.00
G01 X36.5418 Y23.3376 F150.00
G01 X36.5459 Y23.3579 F150.00
G01 X36.5694 Y23.4519 F150.00
G01 X36.5754 Y23.4717 F150.00
G01 X36.6081 Y23.5630 F150.00
G01 X36.6160 Y23.5820 F150.00
G01 X36.6574 Y23.6697 F150.00
G01 X36.6672 Y23.6879 F150.00
G01 X36.7170 Y23.7711 F150.00
G01 X36.7285 Y23.7882 F150.00
G01 X36.7863 Y23.8661 F150.00
G01 X36.7993 Y23.8821 F150.00
G01 X36.8645 Y23.9539 F150.00
G01 X36.8791 Y23.9685 F150.00
G01 X36.9509 Y24.0337 F150.00
G01 X36.9669 Y24.0467 F150.00
G01 X37.0448 Y24.1045 F150.00
G01 X37.0619 Y24.1160 F150.00
G01 X37.1451 Y24.1658 F150.00
G01 X37.1633 Y24.1756 F150.00
G01 X37.2510 Y24.2170 F150.00
G01 X37.2700 Y24.2249 F150.00
G01 X37.3613 Y24.2576 F150.00
G01 X37.3811 Y24.2636 F150.00
G01 X37.4751 Y24.2871 F150.00
G01 X37.4954 Y24.2912 F150.00
G01 X37.5913 Y24.3054 F150.00
G01 X37.6118 Y24.3074 F150.00
G01 X37.7087 Y24.3122 F150.00
G01 X37.7293 Y24.3122 F150.00
G01 X37.8262 Y24.3074 F150.00
G01 X37.8467 Y24.3054 F150.00
G01 X37.9426 Y24.2912 F150.00
G01 X37.9629 Y24.2871 F150.00
G01 X38.0569 Y24.2636 F150.00
G01 X38.0767 Y24.2576 F150.00
G01 X38.1680 Y24.2249 F150.00
G01 X38.1870 Y24.2170 F150.00
G01 X38.2747 Y24.1756 F150.00
G01 X38.2929 Y24.1658 F150.00
G01 X38.3761 Y24.1160 F150.00
G01 X38.3932 Y24.1045 F150.00
G01 X38.4002 Y24.0994 F150.00
G00 Z2.0000
G00 X34.0666 Y23.5590
G01 F60.00
G01 Z-0.1149
G01 F150.00
G01 X34.0666 Y26.6040 F150.00
G01 X34.0517 Y26.6242 F150.00
G01 X34.0402 Y26.6413 F150.00
G01 X33.9898 Y26.7255 F150.00
G01 X33.9800 Y26.7437 F150.00
G01 X33.9381 Y26.8324 F150.00
G01 X33.9302 Y26.8515 F150.00
G01 X33.8971 Y26.9439 F150.00
G01 X33.8911 Y26.9636 F150.00
G01 X33.8673 Y27.0588 F150.00
G01 X33.8633 Y27.0791 F150.00
G01 X33.8489 Y27.1761 F150.00
G01 X33.8468 Y27.1967 F150.00
G01 X33.8420 Y27.2947 F150.00
G01 X33.8420 Y27.3153 F150.00
G01 X33.8468 Y27.4133 F150.00
G01 X33.8489 Y27.4339 F150.00
G01 X33.8633 Y27.5309 F150.00
G01 X33.8673 Y27.5512 F150.00
G01 X33.8911 Y27.6464 F150.00
G01 X33.8971 Y27.6661 F150.00
G01 X33.9302 Y27.7585 F150.00
G01 X33.9381 Y27.7776 F150.00
G01 X33.9800 Y27.8663 F150.00
G01 X33.9898 Y27.8845 F150.00
G01 X34.0402 Y27.9687 F150.00
G01 X34.0517 Y27.9858 F150.00
G01 X34.1101 Y28.0646 F150.00
G01 X34.1232 Y28.0806 F150.00
G01 X34.1891 Y28.1533 F150.00
G01 X34.2037 Y28.1679 F150.00
G01 X34.2764 Y28.2338 F150.00
G01 X34.2924 Y28.2469 F150.00
G01 X34.3712 Y28.3053 F150.00
G01 X34.3883 Y28.3168 F150.00
G01 X34.4725 Y28.3672 F150.00
G01 X34.4907 Y28.3770 F150.00
G01 X34.5794 Y28.4189 F150.00
G01 X34.5985 Y28.4268 F150.00
G01 X34.6909 Y28.4599 F150.00
G01 X34.7106 Y28.4659 F150.00
G01 X34.8058 Y28.4897 F150.00
G01 X34.8261 Y28.4937 F150.00
G01 X34.9231 Y28.5081 F150.00
G01 X34.9437 Y28.5102 F150.00
G01 X35.0417 Y28.5150 F150.00
G01 X35.0623 Y28.5150 F150.00
G01 X35.1603 Y28.5102 F150.00
G01 X35.1809 Y28.5081 F150.00
G01 X35.2779 Y28.4937 F150.00
G01 X35.2982 Y28.4897 F150.00
G01 X35.3934 Y28.4659 F150.00
G01 X35.4131 Y28.4599 F150.00
G01 X35.5055 Y28.4268 F150.00
G01 X35.5246 Y28.4189 F150.00
G01 X35.6133 Y28.3770 F150.00
G01 X35.6315 Y28.3672 F150.00
G01 X35.7157 Y28.3168 F150.00
G01 X35.7328 Y28.3053 F150.00
G01 X35.8116 Y28.2469 F150.00
G01 X35.8276 Y28.2338 F150.00
G01 X35.9003 Y28.1679 F150.00
G01 X35.9149 Y28.1533 F150.00
G01 X35.9808 Y28.0806 F150.00
G01 X35.9939 Y28.0646 F150.00
G01 X36.0523 Y27.9858 F150.00
G01 X36.0638 Y27.9687 F150.00
G01 X36.1142 Y27.8845 F150.00
G01 X36.1240 Y27.8663 F150.00
G01 X36.1659 Y27.7776 F150.00
G01 X36.1738 Y27.7585 F150.00
G01 X36.2069 Y27.6661 F150.00
G01 X36.2129 Y27.6464 F150.00
G01 X36.2367 Y27.5512 F150.00
G01 X36.2407 Y27.5309 F150.00
G01 X36.2551 Y27.4339 F150.00
G01 X36.2572 Y27.4133 F150.00
G01 X36.2620 Y27.3153 F150.00
G01 X36.2620 Y27.2947 F150.00
G01 X36.2572 Y27.1967 F150.00
G01 X36.2551 Y27.1761 F150.00
G01 X36.2407 Y27.0791 F150.00
G01 X36.2367 Y27.0588 F150.00
G01 X36.2129 Y26.9636 F150.00
G01 X36.2069 Y26.9439 F150.00
G01 X36.1738 Y26.8515 F150.00
G01 X36.1659 Y26.8324 F150.00
G01 X36.1240 Y26.7437 F150.00
G01 X36.1142 Y26.7255 F150.00
G01 X36.0638 Y26.6413 F150.00
G01 X36.0523 Y26.6242 F150.00
G01 X36.0374 Y26.6040 F150.00
G01 X36.0374 Y23.9497 F150.00
G01 X36.0987 Y23.8821 F150.00
G01 X36.1117 Y23.8661 F150.00
G01 X36.1695 Y23.7882 F150.00
G01 X36.1810 Y23.7711 F150.00
G01 X36.2308 Y23.6879 F150.00
G01 X36.2406 Y23.6697 F150.00
G01 X36.2820 Y23.5820 F150.00
G01 X36.2899 Y23.5630 F150.00
G01 X36.3226 Y23.4717 F150.00
G01 X36.3286 Y23.4519 F150.00
G01 X36.3521 Y23.3579 F150.00
G01 X36.3562 Y23.3376 F150.00
G01 X36.3704 Y23.2417 F150.00
G01 X36.3724 Y23.2212 F150.00
G01 X36.3772 Y23.1243 F150.00
G01 X36.3772 Y23.1037 F150.00
G01 X36.3724 Y23.0068 F150.00
G01 X36.3704 Y22.9863 F150.00
G01 X36.3562 Y22.8904 F150.00
G01 X36.3521 Y22.8701 F150.00
G01 X36.3286 Y22.7761 F150.00
G01 X36.3226 Y22.7563 F150.00
G01 X36.2899 Y22.6650 F150.00
G01 X36.2820 Y22.6460 F150.00
G01 X36.2406 Y22.5583 F150.00
G01 X36.2308 Y22.5401 F150.00
G01 X36.1810 Y22.4569 F150.00
G01 X36.1695 Y22.4398 F150.00
G01 X36.1117 Y22.3619 F150.00
G01 X36.0987 Y22.3459 F150.00
G01 X36.0335 Y22.2741 F150.00
G01 X36.0189 Y22.2595 F150.00
G01 X35.9471 Y22.1943 F150.00
G01 X35.9311 Y22.1813 F150.00
G01 X35.8532 Y22.1235 F150.00
G01 X35.8361 Y22.1120 F150.00
G01 X35.7529 Y22.0622 F150.00
G01 X35.7347 Y22.0524 F150.00
G01 X35.6470 Y22.0110 F150.00
G01 X35.6280 Y22.0031 F150.00
G01 X35.5367 Y21.9704 F150.00
G01 X35.5169 Y21.9644 F150.00
G01 X35.4229 Y21.9409 F150.00
G01 X35.4026 Y21.9368 F150.00
G01 X35.3067 Y21.9226 F150.00
G01 X35.2862 Y21.9206 F150.00
G01 X35.1893 Y21.9158 F150.00
G01 X35.1687 Y21.9158 F150.00
G01 X35.0718 Y21.9206 F150.00
G01 X35.0513 Y21.9226 F150.00
G01 X34.9554 Y21.9368 F150.00
G01 X34.9351 Y21.9409 F150.00
G01 X34.8411 Y21.9644 F150.00
G01 X34.8213 Y21.9704 F150.00
G01 X34.7300 Y22.0031 F150.00
G01 X34.7110 Y22.0110 F150.00
G01 X34.6233 Y22.0524 F150.00
G01 X34.6051 Y22.0622 F150.00
G01 X34.5219 Y22.1120 F150.00
G01 X34.5048 Y22.1235 F150.00
G01 X34.4269 Y22.1813 F150.00
G01 X34.4109 Y22.1943 F150.00
G01 X34.3391 Y22.2595 F150.00
G01 X34.3245 Y22.2741 F150.00
G01 X34.2593 Y22.3459 F150.00
G01 X34.2463 Y22.3619 F150.00
G01 X34.1885 Y22.4398 F150.00
G01 X34.1770 Y22.4569 F150.00
G01 X34.1272 Y22.5401 F150.00
G01 X34.1174 Y22.5583 F150.00
G01 X34.0760 Y22.6460 F150.00
G01 X34.0681 Y22.6650 F150.00
G01 X34.0354 Y22.7563 F150.00
G01 X34.0294 Y22.7761 F150.00
G01 X34.0059 Y22.8701 F150.00
G01 X34.0018 Y22.8904 F150.00
G01 X33.9876 Y22.9863 F150.00
G01 X33.9856 Y23.0068 F150.00
G01 X33.9808 Y23.1037 F150.00
G01 X33.9808 Y23.1243 F150.00
G01 X33.9856 Y23.2212 F150.00
G01 X33.9876 Y23.2417 F150.00
G01 X34.0018 Y23.3376 F150.00
G01 X34.0059 Y23.3579 F150.00
G01 X34.0294 Y23.4519 F150.00
G01 X34.0354 Y23.4717 F150.00
G01 X34.0666 Y23.5590 F150.00
G00 Z2.0000
G00 X31.5266 Y23.5590
G01 F60.00
G01 Z-0.1149
G01 F150.00
G01 X31.5266 Y26.1211 F150.00
G01 X31.4921 Y26.1371 F150.00
G01 X31.4618 Y26.1553 F150.00
G01 X31.4334 Y26.1764 F150.00
G01 X31.4072 Y26.2002 F150.00
G01 X31.3834 Y26.2264 F150.00
G01 X31.3623 Y26.2548 F150.00
G01 X31.3441 Y26.2851 F150.00
G01 X31.3290 Y26.3171 F150.00
G01 X31.3171 Y26.3504 F150.00
G01 X31.3085 Y26.3847 F150.00
G01 X31.3033 Y26.4197 F150.00
G01 X31.3020 Y26.4476 F150.00
G01 X31.3020 Y28.1624 F150.00
G01 X31.3033 Y28.1903 F150.00
G01 X31.3085 Y28.2253 F150.00
G01 X31.3171 Y28.2596 F150.00
G01 X31.3290 Y28.2929 F150.00
G01 X31.3441 Y28.3249 F150.00
G01 X31.3623 Y28.3552 F150.00
G01 X31.3834 Y28.3836 F150.00
G01 X31.4072 Y28.4098 F150.00
G01 X31.4334 Y28.4336 F150.00
G01 X31.4618 Y28.4547 F150.00
G01 X31.4921 Y28.4729 F150.00
G01 X31.5241 Y28.4880 F150.00
G01 X31.5574 Y28.4999 F150.00
G01 X31.5917 Y28.5085 F150.00
G01 X31.6267 Y28.5137 F150.00
G01 X31.6546 Y28.5150 F150.00
G01 X33.3694 Y28.5150 F150.00
G01 X33.3973 Y28.5137 F150.00
G01 X33.4323 Y28.5085 F150.00
G01 X33.4666 Y28.4999 F150.00
G01 X33.4999 Y28.4880 F150.00
G01 X33.5319 Y28.4729 F150.00
G01 X33.5622 Y28.4547 F150.00
G01 X33.5906 Y28.4336 F150.00
G01 X33.6168 Y28.4098 F150.00
G01 X33.6406 Y28.3836 F150.00
G01 X33.6617 Y28.3552 F150.00
G01 X33.6799 Y28.3249 F150.00
G01 X33.6950 Y28.2929 F150.00
G01 X33.7069 Y28.2596 F150.00
G01 X33.7155 Y28.2253 F150.00
G01 X33.7207 Y28.1903 F150.00
G01 X33.7220 Y28.1624 F150.00
G01 X33.7220 Y26.4476 F150.00
G01 X33.7207 Y26.4197 F150.00
G01 X33.7155 Y26.3847 F150.00
G01 X33.7069 Y26.3504 F150.00
G01 X33.6950 Y26.3171 F150.00
G01 X33.6799 Y26.2851 F150.00
G01 X33.6617 Y26.2548 F150.00
G01 X33.6406 Y26.2264 F150.00
G01 X33.6168 Y26.2002 F150.00
G01 X33.5906 Y26.1764 F150.00
G01 X33.5622 Y26.1553 F150.00
G01 X33.5319 Y26.1371 F150.00
G01 X33.4974 Y26.1211 F150.00
G01 X33.4974 Y23.9497 F150.00
G01 X33.5587 Y23.8821 F150.00
G01 X33.5717 Y23.8661 F150.00
G01 X33.6295 Y23.7882 F150.00
G01 X33.6410 Y23.7711 F150.00
G01 X33.6908 Y23.6879 F150.00
G01 X33.7006 Y23.6697 F150.00
G01 X33.7420 Y23.5820 F150.00
G01 X33.7499 Y23.5630 F150.00
G01 X33.7826 Y23.4717 F150.00
G01 X33.7886 Y23.4519 F150.00
G01 X33.8121 Y23.3579 F150.00
G01 X33.8162 Y23.3376 F150.00
G01 X33.8304 Y23.2417 F150.00
G01 X33.8324 Y23.2212 F150.00
G01 X33.8372 Y23.1243 F150.00
G01 X33.8372 Y23.1037 F150.00
G01 X33.8324 Y23.0068 F150.00
G01 X33.8304 Y22.9863 F150.00
G01 X33.8162 Y22.8904 F150.00
G01 X33.8121 Y22.8701 F150.00
G01 X33.7886 Y22.7761 F150.00
G01 X33.7826 Y22.7563 F150.00
G01 X33.7499 Y22.6650 F150.00
G01 X33.7420 Y22.6460 F150.00
G01 X33.7006 Y22.5583 F150.00
G01 X33.6908 Y22.5401 F150.00
G01 X33.6410 Y22.4569 F150.00
G01 X33.6295 Y22.4398 F150.00
G01 X33.5717 Y22.3619 F150.00
G01 X33.5587 Y22.3459 F150.00
G01 X33.4935 Y22.2741 F150.00
G01 X33.4789 Y22.2595 F150.00
G01 X33.4071 Y22.1943 F150.00
G01 X33.3911 Y22.1813 F150.00
G01 X33.3132 Y22.1235 F150.00
G01 X33.2961 Y22.1120 F150.00
G01 X33.2129 Y22.0622 F150.00
G01 X33.1947 Y22.0524 F150.00
G01 X33.1070 Y22.0110 F150.00
G01 X33.0880 Y22.0031 F150.00
G01 X32.9967 Y21.9704 F150.00
G01 X32.9769 Y21.9644 F150.00
G01 X32.8829 Y21.9409 F150.00
G01 X32.8626 Y21.9368 F150.00
G01 X32.7667 Y21.9226 F150.00
G01 X32.7462 Y21.9206 F150.00
G01 X32.6493 Y21.9158 F150.00
G01 X32.6287 Y21.9158 F150.00
G01 X32.5318 Y21.9206 F150.00
G01 X32.5113 Y21.9226 F150.00
G01 X32.4154 Y21.9368 F150.00
G01 X32.3951 Y21.9409 F150.00
G01 X32.3011 Y21.9644 F150.00
G01 X32.2813 Y21.9704 F150.00
G01 X32.1900 Y22.0031 F150.00
G01 X32.1710 Y22.0110 F150.00
G01 X32.0833 Y22.0524 F150.00
G01 X32.0651 Y22.0622 F150.00
G01 X31.9819 Y22.1120 F150.00
G01 X31.9648 Y22.1235 F150.00
G01 X31.8869 Y22.1813 F150.00
G01 X31.8709 Y22.1943 F150.00
G01 X31.7991 Y22.2595 F150.00
G01 X31.7845 Y22.2741 F150.00
G01 X31.7193 Y22.3459 F150.00
G01 X31.7063 Y22.3619 F150.00
G01 X31.6485 Y22.4398 F150.00
G01 X31.6370 Y22.4569 F150.00
G01 X31.5872 Y22.5401 F150.00
G01 X31.5774 Y22.5583 F150.00
G01 X31.5360 Y22.6460 F150.00
G01 X31.5281 Y22.6650 F150.00
G01 X31.4954 Y22.7563 F150.00
G01 X31.4894 Y22.7761 F150.00
G01 X31.4659 Y22.8701 F150.00
G01 X31.4618 Y22.8904 F150.00
G01 X31.4476 Y22.9863 F150.00
G01 X31.4456 Y23.0068 F150.00
G01 X31.4408 Y23.1037 F150.00
G01 X31.4408 Y23.1243 F150.00
G01 X31.4456 Y23.2212 F150.00
G01 X31.4476 Y23.2417 F150.00
G01 X31.4618 Y23.3376 F150.00
G01 X31.4659 Y23.3579 F150.00
G01 X31.4894 Y23.4519 F150.00
G01 X31.4954 Y23.4717 F150.00
G01 X31.5266 Y23.5590 F150.00
G00 Z2.0000
G00 X36.8470 Y32.8563
G01 F60.00
G01 Z-0.1149
G01 F150.00
G01 X36.8470 Y32.8357 F150.00
G01 X36.8424 Y32.7426 F150.00
G01 X36.8404 Y32.7220 F150.00
G01 X36.8267 Y32.6298 F150.00
G01 X36.8227 Y32.6096 F150.00
G01 X36.8000 Y32.5191 F150.00
G01 X36.7940 Y32.4994 F150.00
G01 X36.7626 Y32.4116 F150.00
G01 X36.7547 Y32.3926 F150.00
G01 X36.7149 Y32.3083 F150.00
G01 X36.7051 Y32.2901 F150.00
G01 X36.6572 Y32.2101 F150.00
G01 X36.6458 Y32.1930 F150.00
G01 X36.5902 Y32.1181 F150.00
G01 X36.5771 Y32.1021 F150.00
G01 X36.5145 Y32.0331 F150.00
G01 X36.4999 Y32.0185 F150.00
G01 X36.4309 Y31.9559 F150.00
G01 X36.4149 Y31.9428 F150.00
G01 X36.3400 Y31.8872 F150.00
G01 X36.3229 Y31.8758 F150.00
G01 X36.2429 Y31.8279 F150.00
G01 X36.2247 Y31.8181 F150.00
G01 X36.1404 Y31.7783 F150.00
G01 X36.1214 Y31.7704 F150.00
G01 X36.0336 Y31.7390 F150.00
G01 X36.0139 Y31.7330 F150.00
G01 X35.9234 Y31.7103 F150.00
G01 X35.9032 Y31.7063 F150.00
G01 X35.8110 Y31.6926 F150.00
G01 X35.7904 Y31.6906 F150.00
G01 X35.6973 Y31.6860 F150.00
G01 X35.6767 Y31.6860 F150.00
G01 X35.5836 Y31.6906 F150.00
G01 X35.5630 Y31.6926 F150.00
G01 X35.4708 Y31.7063 F150.00
G01 X35.4506 Y31.7103 F150.00
G01 X35.3601 Y31.7330 F150.00
G01 X35.3404 Y31.7390 F150.00
G01 X35.2526 Y31.7704 F150.00
G01 X35.2336 Y31.7783 F150.00
G01 X35.1493 Y31.8181 F150.00
G01 X35.1311 Y31.8279 F150.00
G01 X35.0511 Y31.8758 F150.00
G01 X35.0340 Y31.8872 F150.00
G01 X34.9591 Y31.9428 F150.00
G01 X34.9431 Y31.9559 F150.00
G01 X34.8741 Y32.0185 F150.00
G01 X34.8595 Y32.0331 F150.00
G01 X34.7969 Y32.1021 F150.00
G01 X34.7838 Y32.1181 F150.00
G01 X34.7282 Y32.1930 F150.00
G01 X34.7168 Y32.2101 F150.00
G01 X34.6689 Y32.2901 F150.00
G01 X34.6591 Y32.3083 F150.00
G01 X34.6193 Y32.3926 F150.00
G01 X34.6114 Y32.4116 F150.00
G01 X34.5800 Y32.4994 F150.00
G01 X34.5740 Y32.5191 F150.00
G01 X34.5513 Y32.6096 F150.00
G01 X34.5473 Y32.6298 F150.00
G01 X34.5336 Y32.7220 F150.00
G01 X34.5316 Y32.7426 F150.00
G01 X34.5270 Y32.8357 F150.00
G01 X34.5270 Y32.8563 F150.00
G01 X34.5316 Y32.9494 F150.00
G01 X34.5336 Y32.9700 F150.00
G01 X34.5473 Y33.0622 F150.00
G01 X34.5513 Y33.0824 F150.00
G01 X34.5740 Y33.1729 F150.00
G01 X34.5800 Y33.1926 F150.00
G01 X34.6114 Y33.2804 F150.00
G01 X34.6193 Y33.2994 F150.00
G01 X34.6591 Y33.3837 F150.00
G01 X34.6689 Y33.4019 F150.00
G01 X34.7168 Y33.4819 F150.00
G01 X34.7282 Y33.4990 F150.00
G01 X34.7838 Y33.5739 F150.00
G01 X34.7969 Y33.5899 F150.00
G01 X34.8595 Y33.6589 F150.00
G01 X34.8741 Y33.6735 F150.00
G01 X34.9431 Y33.7361 F150.00
G01 X34.9591 Y33.7492 F150.00
G01 X35.0340 Y33.8048 F150.00
G01 X35.0511 Y33.8162 F150.00
G01 X35.1311 Y33.8641 F150.00
G01 X35.1493 Y33.8739 F150.00
G01 X35.2336 Y33.9137 F150.00
G01 X35.2526 Y33.9216 F150.00
G01 X35.3404 Y33.9530 F150.00
G01 X35.3601 Y33.9590 F150.00
G01 X35.4506 Y33.9817 F150.00
G01 X35.4708 Y33.9857 F150.00
G01 X35.5630 Y33.9994 F150.00
G01 X35.5836 Y34.0014 F150.00
G01 X35.6767 Y34.0060 F150.00
G01 X35.6973 Y34.0060 F150.00
G01 X35.7904 Y34.0014 F150.00
G01 X35.8110 Y33.9994 F150.00
G01 X35.9032 Y33.9857 F150.00
G01 X35.9234 Y33.9817 F150.00
G01 X36.0139 Y33.9590 F150.00
G01 X36.0336 Y33.9530 F150.00
G01 X36.1214 Y33.9216 F150.00
G01 X36.1404 Y33.9137 F150.00
G01 X36.2247 Y33.8739 F150.00
G01 X36.2429 Y33.8641 F150.00
G01 X36.3229 Y33.8162 F150.00
G01 X36.3400 Y33.8048 F150.00
G01 X36.4149 Y33.7492 F150.00
G01 X36.4309 Y33.7361 F150.00
G01 X36.4999 Y33.6735 F150.00
G01 X36.5145 Y33.6589 F150.00
G01 X36.5771 Y33.5899 F150.00
G01 X36.5902 Y33.5739 F150.00
G01 X36.6458 Y33.4990 F150.00
G01 X36.6572 Y33.4819 F150.00
G01 X36.7051 Y33.4019 F150.00
G01 X36.7149 Y33.3837 F150.00
G01 X36.7547 Y33.2994 F150.00
G01 X36.7626 Y33.2804 F150.00
G01 X36.7940 Y33.1926 F150.00
G01 X36.8000 Y33.1729 F150.00
G01 X36.8227 Y33.0824 F150.00
G01 X36.8267 Y33.0622 F150.00
G01 X36.8404 Y32.9700 F150.00
G01 X36.8424 Y32.9494 F150.00
G01 X36.8470 Y32.8563 F150.00
G00 Z2.0000
G00 X30.6240 Y38.9523
G01 F60.00
G01 Z-0.1149
G01 F150.00
G01 X30.6240 Y38.9317 F150.00
G01 X30.6194 Y38.8386 F150.00
G01 X30.6174 Y38.8180 F150.00
G01 X30.6037 Y38.7258 F150.00
G01 X30.5997 Y38.7056 F150.00
G01 X30.5770 Y38.6151 F150.00
G01 X30.5710 Y38.5954 F150.00
G01 X30.5396 Y38.5076 F150.00
G01 X30.5317 Y38.4886 F150.00
G01 X30.4919 Y38.4043 F150.00
G01 X30.4821 Y38.3861 F150.00
G01 X30.4342 Y38.3061 F150.00
G01 X30.4228 Y38.2890 F150.00
G01 X30.3672 Y38.2141 F150.00
G01 X30.3541 Y38.1981 F150.00
G01 X30.2915 Y38.1291 F150.00
G01 X30.2769 Y38.1145 F150.00
G01 X30.2079 Y38.0519 F150.00
G01 X30.1919 Y38.0388 F150.00
G01 X30.1170 Y37.9832 F150.00
G01 X30.0999 Y37.9718 F150.00
G01 X30.0199 Y37.9239 F150.00
G01 X30.0017 Y37.9141 F150.00
G01 X29.9174 Y37.8743 F150.00
G01 X29.8984 Y37.8664 F150.00
G01 X29.8106 Y37.8350 F150.00
G01 X29.7909 Y37.8290 F150.00
G01 X29.7004 Y37.8063 F150.00
G01 X29.6802 Y37.8023 F150.00
G01 X29.5880 Y37.7886 F150.00
G01 X29.5674 Y37.7866 F150.00
G01 X29.4743 Y37.7820 F150.00
G01 X29.4537 Y37.7820 F150.00
G01 X29.3606 Y37.7866 F150.00
G01 X29.3400 Y37.7886 F150.00
G01 X29.2478 Y37.8023 F150.00
G01 X29.2276 Y37.8063 F150.00
G01 X29.1371 Y37.8290 F150.00
G01 X29.1174 Y37.8350 F150.00
G01 X29.0296 Y37.8664 F150.00
G01 X29.0106 Y37.8743 F150.00
G01 X28.9263 Y37.9141 F150.00
G01 X28.9081 Y37.9239 F150.00
G01 X28.8281 Y37.9718 F150.00
G01 X28.8110 Y37.9832 F150.00
G01 X28.7361 Y38.0388 F150.00
G01 X28.7201 Y38.0519 F150.00
G01 X28.6511 Y38.1145 F150.00
G01 X28.6365 Y38.1291 F150.00
G01 X28.5739 Y38.1981 F150.00
G01 X28.5608 Y38.2141 F150.00
G01 X28.5052 Y38.2890 F150.00
G01 X28.4938 Y38.3061 F150.00
G01 X28.4459 Y38.3861 F150.00
G01 X28.4361 Y38.4043 F150.00
G01 X28.3963 Y38.4886 F150.00
G01 X28.3884 Y38.5076 F150.00
G01 X28.3570 Y38.5954 F150.00
G01 X28.3510 Y38.6151 F150.00
G01 X28.3283 Y38.7056 F150.00
G01 X28.3243 Y38.7258 F150.00
G01 X28.3106 Y38.8180 F150.00
G01 X28.3086 Y38.8386 F150.00
G01 X28.3040 Y38.9317 F150.00
G01 X28.3040 Y38.9523 F150.00
G01 X28.3086 Y39.0454 F150.00
G01 X28.3106 Y39.0660 F150.00
G01 X28.3243 Y39.1582 F150.00
G01 X28.3283 Y39.1784 F150.00
G01 X28.3510 Y39.2689 F150.00
G01 X28.3570 Y39.2886 F150.00
G01 X28.3884 Y39.3764 F150.00
G01 X28.3963 Y39.3954 F150.00
G01 X28.4361 Y39.4797 F150.00
G01 X28.4459 Y39.4979 F150.00
G01 X28.4938 Y39.5779 F150.00
G01 X28.5052 Y39.5950 F150.00
G01 X28.5608 Y39.6699 F150.00
G01 X28.5739 Y39.6859 F150.00
G01 X28.6365 Y39.7549 F150.00
G01 X28.6511 Y39.7695 F150.00
G01 X28.7201 Y39.8321 F150.00
G01 X28.7361 Y39.8452 F150.00
G01 X28.8110 Y39.9008 F150.00
G01 X28.8281 Y39.9122 F150.00
G01 X28.9081 Y39.9601 F150.00
G01 X28.9263 Y39.9699 F150.00
G01 X29.0106 Y40.0097 F150.00
G01 X29.0296 Y40.0176 F150.00
G01 X29.1174 Y40.0490 F150.00
G01 X29.1371 Y40.0550 F150.00
G01 X29.2276 Y40.0777 F150.00
G01 X29.2478 Y40.0817 F150.00
G01 X29.3400 Y40.0954 F150.00
G01 X29.3606 Y40.0974 F150.00
G01 X29.4537 Y40.1020 F150.00
G01 X29.4743 Y40.1020 F150.00
G01 X29.5674 Y40.0974 F150.00
G01 X29.5880 Y40.0954 F150.00
G01 X29.6802 Y40.0817 F150.00
G01 X29.7004 Y40.0777 F150.00
G01 X29.7909 Y40.0550 F150.00
G01 X29.8106 Y40.0490 F150.00
G01 X29.8984 Y40.0176 F150.00
G01 X29.9174 Y40.0097 F150.00
G01 X30.0017 Y39.9699 F150.00
G01 X30.0199 Y39.9601 F150.00
G01 X30.0999 Y39.9122 F150.00
G01 X30.1170 Y39.9008 F150.00
G01 X30.1919 Y39.8452 F150.00
G01 X30.2079 Y39.8321 F150.00
G01 X30.2769 Y39.7695 F150.00
G01 X30.2915 Y39.7549 F150.00
G01 X30.3541 Y39.6859 F150.00
G01 X30.3672 Y39.6699 F150.00
G01 X30.4228 Y39.5950 F150.00
G01 X30.4342 Y39.5779 F150.00
G01 X30.4821 Y39.4979 F150.00
G01 X30.4919 Y39.4797 F150.00
G01 X30.5317 Y39.3954 F150.00
G01 X30.5396 Y39.3764 F150.00
G01 X30.5710 Y39.2886 F150.00
G01 X30.5770 Y39.2689 F150.00
G01 X30.5997 Y39.1784 F150.00
G01 X30.6037 Y39.1582 F150.00
G01 X30.6174 Y39.0660 F150.00
G01 X30.6194 Y39.0454 F150.00
G01 X30.6240 Y38.9523 F150.00
G00 Z2.0000
G00 X38.9082 Y41.4984
G01 F60.00
G01 Z-0.1149
G01 F150.00
G01 X40.0858 Y41.4984 F150.00
G01 X40.0928 Y41.5035 F150.00
G01 X40.1099 Y41.5150 F150.00
G01 X40.1931 Y41.5648 F150.00
G01 X40.2113 Y41.5746 F150.00
G01 X40.2990 Y41.6160 F150.00
G01 X40.3180 Y41.6239 F150.00
G01 X40.4093 Y41.6566 F150.00
G01 X40.4291 Y41.6626 F150.00
G01 X40.5231 Y41.6861 F150.00
G01 X40.5434 Y41.6902 F150.00
G01 X40.6393 Y41.7044 F150.00
G01 X40.6598 Y41.7064 F150.00
G01 X40.7567 Y41.7112 F150.00
G01 X40.7773 Y41.7112 F150.00
G01 X40.8742 Y41.7064 F150.00
G01 X40.8947 Y41.7044 F150.00
G01 X40.9906 Y41.6902 F150.00
G01 X41.0109 Y41.6861 F150.00
G01 X41.1049 Y41.6626 F150.00
G01 X41.1247 Y41.6566 F150.00
G01 X41.2160 Y41.6239 F150.00
G01 X41.2350 Y41.6160 F150.00
G01 X41.3227 Y41.5746 F150.00
G01 X41.3409 Y41.5648 F150.00
G01 X41.4241 Y41.5150 F150.00
G01 X41.4412 Y41.5035 F150.00
G01 X41.4482 Y41.4984 F150.00
G01 X41.5442 Y41.4984 F150.00
G01 X42.4012 Y42.3554 F150.00
G01 X42.4624 Y42.4111 F150.00
G01 X42.4783 Y42.4242 F150.00
G01 X42.5394 Y42.4695 F150.00
G01 X42.5566 Y42.4810 F150.00
G01 X42.6218 Y42.5201 F150.00
G01 X42.6400 Y42.5298 F150.00
G01 X42.7088 Y42.5623 F150.00
G01 X42.7279 Y42.5702 F150.00
G01 X42.7995 Y42.5959 F150.00
G01 X42.8192 Y42.6019 F150.00
G01 X42.8931 Y42.6203 F150.00
G01 X42.9133 Y42.6244 F150.00
G01 X42.9886 Y42.6355 F150.00
G01 X43.0091 Y42.6376 F150.00
G01 X43.0917 Y42.6414 F150.00
G01 X46.5681 Y42.6414 F150.00
G01 X46.5841 Y42.6759 F150.00
G01 X46.6023 Y42.7062 F150.00
G01 X46.6234 Y42.7346 F150.00
G01 X46.6472 Y42.7608 F150.00
G01 X46.6734 Y42.7846 F150.00
G01 X46.7018 Y42.8057 F150.00
G01 X46.7321 Y42.8239 F150.00
G01 X46.7641 Y42.8390 F150.00
G01 X46.7974 Y42.8509 F150.00
G01 X46.8317 Y42.8595 F150.00
G01 X46.8667 Y42.8647 F150.00
G01 X46.8946 Y42.8660 F150.00
G01 X48.6094 Y42.8660 F150.00
G01 X48.6373 Y42.8647 F150.00
G01 X48.6723 Y42.8595 F150.00
G01 X48.7066 Y42.8509 F150.00
G01 X48.7399 Y42.8390 F150.00
G01 X48.7719 Y42.8239 F150.00
G01 X48.8022 Y42.8057 F150.00
G01 X48.8306 Y42.7846 F150.00
G01 X48.8568 Y42.7608 F150.00
G01 X48.8806 Y42.7346 F150.00
G01 X48.9017 Y42.7062 F150.00
G01 X48.9199 Y42.6759 F150.00
G01 X48.9350 Y42.6439 F150.00
G01 X48.9469 Y42.6106 F150.00
G01 X48.9555 Y42.5763 F150.00
G01 X48.9607 Y42.5413 F150.00
G01 X48.9620 Y42.5134 F150.00
G01 X48.9620 Y40.7986 F150.00
G01 X48.9607 Y40.7707 F150.00
G01 X48.9555 Y40.7357 F150.00
G01 X48.9469 Y40.7014 F150.00
G01 X48.9350 Y40.6681 F150.00
G01 X48.9199 Y40.6361 F150.00
G01 X48.9017 Y40.6058 F150.00
G01 X48.8806 Y40.5774 F150.00
G01 X48.8568 Y40.5512 F150.00
G01 X48.8306 Y40.5274 F150.00
G01 X48.8022 Y40.5063 F150.00
G01 X48.7719 Y40.4881 F150.00
G01 X48.7399 Y40.4730 F150.00
G01 X48.7066 Y40.4611 F150.00
G01 X48.6723 Y40.4525 F150.00
G01 X48.6373 Y40.4473 F150.00
G01 X48.6094 Y40.4460 F150.00
G01 X46.8946 Y40.4460 F150.00
G01 X46.8667 Y40.4473 F150.00
G01 X46.8317 Y40.4525 F150.00
G01 X46.7974 Y40.4611 F150.00
G01 X46.7641 Y40.4730 F150.00
G01 X46.7321 Y40.4881 F150.00
G01 X46.7018 Y40.5063 F150.00
G01 X46.6734 Y40.5274 F150.00
G01 X46.6472 Y40.5512 F150.00
G01 X46.6234 Y40.5774 F150.00
G01 X46.6023 Y40.6058 F150.00
G01 X46.5841 Y40.6361 F150.00
G01 X46.5681 Y40.6706 F150.00
G01 X43.5035 Y40.6706 F150.00
G01 X42.6465 Y39.8136 F150.00
G01 X42.5854 Y39.7579 F150.00
G01 X42.5695 Y39.7448 F150.00
G01 X42.5084 Y39.6995 F150.00
G01 X42.4912 Y39.6880 F150.00
G01 X42.4259 Y39.6489 F150.00
G01 X42.4078 Y39.6392 F150.00
G01 X42.3390 Y39.6067 F150.00
G01 X42.3199 Y39.5988 F150.00
G01 X42.2483 Y39.5731 F150.00
G01 X42.2285 Y39.5671 F150.00
G01 X42.1547 Y39.5487 F150.00
G01 X42.1345 Y39.5446 F150.00
G01 X42.0592 Y39.5335 F150.00
G01 X42.0387 Y39.5314 F150.00
G01 X41.9664 Y39.5279 F150.00
G01 X41.4482 Y39.5276 F150.00
G01 X41.4412 Y39.5225 F150.00
G01 X41.4241 Y39.5110 F150.00
G01 X41.3409 Y39.4612 F150.00
G01 X41.3227 Y39.4514 F150.00
G01 X41.2350 Y39.4100 F150.00
G01 X41.2160 Y39.4021 F150.00
G01 X41.1247 Y39.3694 F150.00
G01 X41.1049 Y39.3634 F150.00
G01 X41.0109 Y39.3399 F150.00
G01 X40.9906 Y39.3358 F150.00
G01 X40.8947 Y39.3216 F150.00
G01 X40.8742 Y39.3196 F150.00
G01 X40.7773 Y39.3148 F150.00
G01 X40.7567 Y39.3148 F150.00
G01 X40.6598 Y39.3196 F150.00
G01 X40.6393 Y39.3216 F150.00
G01 X40.5434 Y39.3358 F150.00
G01 X40.5231 Y39.3399 F150.00
G01 X40.4291 Y39.3634 F150.00
G01 X40.4093 Y39.3694 F150.00
G01 X40.3180 Y39.4021 F150.00
G01 X40.2990 Y39.4100 F150.00
G01 X40.2113 Y39.4514 F150.00
G01 X40.1931 Y39.4612 F150.00
G01 X40.1099 Y39.5110 F150.00
G01 X40.0928 Y39.5225 F150.00
G01 X40.0858 Y39.5276 F150.00
G01 X38.9082 Y39.5276 F150.00
G01 X38.9012 Y39.5225 F150.00
G01 X38.8841 Y39.5110 F150.00
G01 X38.8009 Y39.4612 F150.00
G01 X38.7827 Y39.4514 F150.00
G01 X38.6950 Y39.4100 F150.00
G01 X38.6760 Y39.4021 F150.00
G01 X38.5847 Y39.3694 F150.00
G01 X38.5649 Y39.3634 F150.00
G01 X38.4709 Y39.3399 F150.00
G01 X38.4506 Y39.3358 F150.00
G01 X38.3547 Y39.3216 F150.00
G01 X38.3342 Y39.3196 F150.00
G01 X38.2373 Y39.3148 F150.00
G01 X38.2167 Y39.3148 F150.00
G01 X38.1198 Y39.3196 F150.00
G01 X38.0993 Y39.3216 F150.00
G01 X38.0034 Y39.3358 F150.00
G01 X37.9831 Y39.3399 F150.00
G01 X37.8891 Y39.3634 F150.00
G01 X37.8693 Y39.3694 F150.00
G01 X37.7780 Y39.4021 F150.00
G01 X37.7590 Y39.4100 F150.00
G01 X37.6713 Y39.4514 F150.00
G01 X37.6531 Y39.4612 F150.00
G01 X37.5699 Y39.5110 F150.00
G01 X37.5528 Y39.5225 F150.00
G01 X37.4749 Y39.5803 F150.00
G01 X37.4589 Y39.5933 F150.00
G01 X37.3871 Y39.6585 F150.00
G01 X37.3725 Y39.6731 F150.00
G01 X37.3073 Y39.7449 F150.00
G01 X37.2943 Y39.7609 F150.00
G01 X37.2365 Y39.8388 F150.00
G01 X37.2250 Y39.8559 F150.00
G01 X37.1752 Y39.9391 F150.00
G01 X37.1654 Y39.9573 F150.00
G01 X37.1240 Y40.0450 F150.00
G01 X37.1161 Y40.0640 F150.00
G01 X37.0834 Y40.1553 F150.00
G01 X37.0774 Y40.1751 F150.00
G01 X37.0539 Y40.2691 F150.00
G01 X37.0498 Y40.2894 F150.00
G01 X37.0356 Y40.3853 F150.00
G01 X37.0336 Y40.4058 F150.00
G01 X37.0288 Y40.5027 F150.00
G01 X37.0288 Y40.5233 F150.00
G01 X37.0336 Y40.6202 F150.00
G01 X37.0356 Y40.6407 F150.00
G01 X37.0498 Y40.7366 F150.00
G01 X37.0539 Y40.7569 F150.00
G01 X37.0774 Y40.8509 F150.00
G01 X37.0834 Y40.8707 F150.00
G01 X37.1161 Y40.9620 F150.00
G01 X37.1240 Y40.9810 F150.00
G01 X37.1654 Y41.0687 F150.00
G01 X37.1752 Y41.0869 F150.00
G01 X37.2250 Y41.1701 F150.00
G01 X37.2365 Y41.1872 F150.00
G01 X37.2943 Y41.2651 F150.00
G01 X37.3073 Y41.2811 F150.00
G01 X37.3725 Y41.3529 F150.00
G01 X37.3871 Y41.3675 F150.00
G01 X37.4589 Y41.4327 F150.00
G01 X37.4749 Y41.4457 F150.00
G01 X37.5528 Y41.5035 F150.00
G01 X37.5699 Y41.5150 F150.00
G01 X37.6531 Y41.5648 F150.00
G01 X37.6713 Y41.5746 F150.00
G01 X37.7590 Y41.6160 F150.00
G01 X37.7780 Y41.6239 F150.00
G01 X37.8693 Y41.6566 F150.00
G01 X37.8891 Y41.6626 F150.00
G01 X37.9831 Y41.6861 F150.00
G01 X38.0034 Y41.6902 F150.00
G01 X38.0993 Y41.7044 F150.00
G01 X38.1198 Y41.7064 F150.00
G01 X38.2167 Y41.7112 F150.00
G01 X38.2373 Y41.7112 F150.00
G01 X38.3342 Y41.7064 F150.00
G01 X38.3547 Y41.7044 F150.00
G01 X38.4506 Y41.6902 F150.00
G01 X38.4709 Y41.6861 F150.00
G01 X38.5649 Y41.6626 F150.00
G01 X38.5847 Y41.6566 F150.00
G01 X38.6760 Y41.6239 F150.00
G01 X38.6950 Y41.6160 F150.00
G01 X38.7827 Y41.5746 F150.00
G01 X38.8009 Y41.5648 F150.00
G01 X38.8841 Y41.5150 F150.00
G01 X38.9012 Y41.5035 F150.00
G01 X38.9082 Y41.4984 F150.00
G00 Z2.0000
G00 X38.9082 Y49.1184
G01 F60.00
G01 Z-0.1149
G01 F150.00
G01 X39.6002 Y49.1184 F150.00
G01 X39.6109 Y49.1411 F150.00
G01 X39.6291 Y49.1714 F150.00
G01 X39.6502 Y49.1998 F150.00
G01 X39.6740 Y49.2260 F150.00
G01 X39.7002 Y49.2498 F150.00
G01 X39.7286 Y49.2709 F150.00
G01 X39.7589 Y49.2891 F150.00
G01 X39.7909 Y49.3042 F150.00
G01 X39.8242 Y49.3161 F150.00
G01 X39.8585 Y49.3247 F150.00
G01 X39.8935 Y49.3299 F150.00
G01 X39.9214 Y49.3312 F150.00
G01 X41.6126 Y49.3312 F150.00
G01 X41.6405 Y49.3299 F150.00
G01 X41.6755 Y49.3247 F150.00
G01 X41.7098 Y49.3161 F150.00
G01 X41.7431 Y49.3042 F150.00
G01 X41.7751 Y49.2891 F150.00
G01 X41.8054 Y49.2709 F150.00
G01 X41.8338 Y49.2498 F150.00
G01 X41.8600 Y49.2260 F150.00
G01 X41.8838 Y49.1998 F150.00
G01 X41.9049 Y49.1714 F150.00
G01 X41.9231 Y49.1411 F150.00
G01 X41.9382 Y49.1091 F150.00
G01 X41.9501 Y49.0758 F150.00
G01 X41.9587 Y49.0415 F150.00
G01 X41.9639 Y49.0065 F150.00
G01 X41.9652 Y48.9786 F150.00
G01 X41.9652 Y47.2874 F150.00
G01 X41.9639 Y47.2595 F150.00
G01 X41.9587 Y47.2245 F150.00
G01 X41.9501 Y47.1902 F150.00
G01 X41.9382 Y47.1569 F150.00
G01 X41.9231 Y47.1249 F150.00
G01 X41.9049 Y47.0946 F150.00
G01 X41.8838 Y47.0662 F150.00
G01 X41.8600 Y47.0400 F150.00
G01 X41.8338 Y47.0162 F150.00
G01 X41.8054 Y46.9951 F150.00
G01 X41.7751 Y46.9769 F150.00
G01 X41.7524 Y46.9662 F150.00
G01 X41.7524 Y46.4530 F150.00
G01 X43.0240 Y45.1814 F150.00
G01 X47.0510 Y45.1814 F150.00
G01 X47.0712 Y45.1963 F150.00
G01 X47.0883 Y45.2078 F150.00
G01 X47.1725 Y45.2582 F150.00
G01 X47.1907 Y45.2680 F150.00
G01 X47.2794 Y45.3099 F150.00
G01 X47.2985 Y45.3178 F150.00
G01 X47.3909 Y45.3509 F150.00
G01 X47.4106 Y45.3569 F150.00
G01 X47.5058 Y45.3807 F150.00
G01 X47.5261 Y45.3847 F150.00
G01 X47.6231 Y45.3991 F150.00
G01 X47.6437 Y45.4012 F150.00
G01 X47.7417 Y45.4060 F150.00
G01 X47.7623 Y45.4060 F150.00
G01 X47.8603 Y45.4012 F150.00
G01 X47.8809 Y45.3991 F150.00
G01 X47.9779 Y45.3847 F150.00
G01 X47.9982 Y45.3807 F150.00
G01 X48.0934 Y45.3569 F150.00
G01 X48.1131 Y45.3509 F150.00
G01 X48.2055 Y45.3178 F150.00
G01 X48.2246 Y45.3099 F150.00
G01 X48.3133 Y45.2680 F150.00
G01 X48.3315 Y45.2582 F150.00
G01 X48.4157 Y45.2078 F150.00
G01 X48.4328 Y45.1963 F150.00
G01 X48.5116 Y45.1379 F150.00
G01 X48.5276 Y45.1248 F150.00
G01 X48.6003 Y45.0589 F150.00
G01 X48.6149 Y45.0443 F150.00
G01 X48.6808 Y44.9716 F150.00
G01 X48.6939 Y44.9556 F150.00
G01 X48.7523 Y44.8768 F150.00
G01 X48.7638 Y44.8597 F150.00
G01 X48.8142 Y44.7755 F150.00
G01 X48.8240 Y44.7573 F150.00
G01 X48.8659 Y44.6686 F150.00
G01 X48.8738 Y44.6495 F150.00
G01 X48.9069 Y44.5571 F150.00
G01 X48.9129 Y44.5374 F150.00
G01 X48.9367 Y44.4422 F150.00
G01 X48.9407 Y44.4219 F150.00
G01 X48.9551 Y44.3249 F150.00
G01 X48.9572 Y44.3043 F150.00
G01 X48.9620 Y44.2063 F150.00
G01 X48.9620 Y44.1857 F150.00
G01 X48.9572 Y44.0877 F150.00
G01 X48.9551 Y44.0671 F150.00
G01 X48.9407 Y43.9701 F150.00
G01 X48.9367 Y43.9498 F150.00
G01 X48.9129 Y43.8546 F150.00
G01 X48.9069 Y43.8349 F150.00
G01 X48.8738 Y43.7425 F150.00
G01 X48.8659 Y43.7234 F150.00
G01 X48.8240 Y43.6347 F150.00
G01 X48.8142 Y43.6165 F150.00
G01 X48.7638 Y43.5323 F150.00
G01 X48.7523 Y43.5152 F150.00
G01 X48.6939 Y43.4364 F150.00
G01 X48.6808 Y43.4204 F150.00
G01 X48.6149 Y43.3477 F150.00
G01 X48.6003 Y43.3331 F150.00
G01 X48.5276 Y43.2672 F150.00
G01 X48.5116 Y43.2541 F150.00
G01 X48.4328 Y43.1957 F150.00
G01 X48.4157 Y43.1842 F150.00
G01 X48.3315 Y43.1338 F150.00
G01 X48.3133 Y43.1240 F150.00
G01 X48.2246 Y43.0821 F150.00
G01 X48.2055 Y43.0742 F150.00
G01 X48.1131 Y43.0411 F150.00
G01 X48.0934 Y43.0351 F150.00
G01 X47.9982 Y43.0113 F150.00
G01 X47.9779 Y43.0073 F150.00
G01 X47.8809 Y42.9929 F150.00
G01 X47.8603 Y42.9908 F150.00
G01 X47.7623 Y42.9860 F150.00
G01 X47.7417 Y42.9860 F150.00
G01 X47.6437 Y42.9908 F150.00
G01 X47.6231 Y42.9929 F150.00
G01 X47.5261 Y43.0073 F150.00
G01 X47.5058 Y43.0113 F150.00
G01 X47.4106 Y43.0351 F150.00
G01 X47.3909 Y43.0411 F150.00
G01 X47.2985 Y43.0742 F150.00
G01 X47.2794 Y43.0821 F150.00
G01 X47.1907 Y43.1240 F150.00
G01 X47.1725 Y43.1338 F150.00
G01 X47.0883 Y43.1842 F150.00
G01 X47.0712 Y43.1957 F150.00
G01 X47.0510 Y43.2106 F150.00
G01 X42.6121 Y43.2106 F150.00
G01 X42.6018 Y43.2109 F150.00
G01 X42.5295 Y43.2144 F150.00
G01 X42.5090 Y43.2165 F150.00
G01 X42.4337 Y43.2276 F150.00
G01 X42.4135 Y43.2317 F150.00
G01 X42.3397 Y43.2501 F150.00
G01 X42.3199 Y43.2561 F150.00
G01 X42.2483 Y43.2818 F150.00
G01 X42.2292 Y43.2897 F150.00
G01 X42.1604 Y43.3222 F150.00
G01 X42.1422 Y43.3319 F150.00
