(G-CODE GENERATED BY FLATCAM v8.991 - www.flatcam.org - Version Date: 2019/12/27)

(Name: DRV-Based Balun.drl_1.3mm_drill)
(Type: G-code from Excellon)
(Units: MM)

(Created on Thursday, 16 April 2020 at 21:30)

(Feedrate: 60.0 mm/min)
(Feedrate rapids 1500.0 mm/min)

(Z_Cut: -2.0 mm)
(Z_Move: 2.0 mm)
(Z Toolchange: 15.0 mm)
(X,Y Toolchange: 0.0000, 0.0000 mm)
(Z Start: None mm)
(Z End: 0.5 mm)
(Steps per circle: 64)
(Preprocessor Excellon: grbl_11)
(X range:    3.4100 ...   52.1690  mm)
(Y range:    0.7330 ...   60.1700  mm)

(Spindle Speed: 15000.0 RPM)

G21
G90
G17
G94




G01 F60.00
G00 Z2.0000

M03 S15000.0
G4 P1.0
G00 X17.7800 Y7.8740
G01 Z-2.0000
G01 Z0
G00 Z2.0000
G00 X17.9070 Y52.5780
G01 Z-2.0000
G01 Z0
G00 Z2.0000
M05
G00 Z0.50
G00 X0.0 Y0.0

