(G-CODE GENERATED BY FLATCAM v8.991 - www.flatcam.org - Version Date: 2019/12/27)

(Name: [6] Inits and Year_ncc)
(Type: G-code from Geometry)
(Units: MM)

(Created on Sunday, 19 April 2020 at 21:22)

(TOOL DIAMETER: 0.15 mm)

(Feedrate: 150.0 mm/min)
(Feedrate_Z: 60.0 mm/min)
(Feedrate rapids 1500.0 mm/min)

(Z_Cut: -0.2858 mm)
(Z_Move: 2.0 mm)
(Z Toolchange: 15.0 mm)
(X,Y Toolchange: 0.0000, 0.0000 mm)
(Z Start: None mm)
(Z End: 5.0 mm)
(Steps per circle: 64)
(Preprocessor Geometry: grbl_11)

(X range:    2.0467 ...   49.6307  mm)
(Y range:    1.3638 ...   60.0547  mm)

(Spindle Speed: 20000 RPM)

G21
G90
G17
G94




G01 F150.00
G00 Z2.0000

M03 S20000
G4 P1.0
G00 X4.1873 Y4.2428
G01 F60.00
G01 Z-0.2858
G01 F150.00
G01 X5.4699 Y4.2428 F150.00
G01 X6.1835 Y4.0729 F150.00
G01 X6.2358 Y4.0356 F150.00
G01 X6.3067 Y3.9344 F150.00
G01 X6.3067 Y3.8129 F150.00
G01 X6.2358 Y3.7117 F150.00
G01 X6.1405 Y3.6436 F150.00
G01 X5.7508 Y3.5044 F150.00
G01 X4.1873 Y3.5044 F150.00
G01 X4.1873 Y4.2428 F150.00
G01 X4.0673 Y4.3628 F150.00
G01 X5.4840 Y4.3628 F150.00
G01 X6.2342 Y4.1842 F150.00
G01 X6.3223 Y4.1212 F150.00
G01 X6.4267 Y3.9722 F150.00
G01 X6.4267 Y3.7751 F150.00
G01 X6.3223 Y3.6260 F150.00
G01 X6.1967 Y3.5362 F150.00
G01 X5.7716 Y3.3844 F150.00
G01 X4.0673 Y3.3844 F150.00
G01 X4.0673 Y4.3628 F150.00
G01 X3.9473 Y4.4828 F150.00
G01 X5.4981 Y4.4828 F150.00
G01 X6.2848 Y4.2955 F150.00
G01 X6.4088 Y4.2069 F150.00
G01 X6.5467 Y4.0100 F150.00
G01 X6.5467 Y3.7372 F150.00
G01 X6.4088 Y3.5403 F150.00
G01 X6.2528 Y3.4288 F150.00
G01 X5.7924 Y3.2644 F150.00
G01 X3.9473 Y3.2644 F150.00
G01 X3.9473 Y4.4828 F150.00
G01 X4.5223 Y4.2228 F150.00
G01 X4.5082 Y4.2225 F150.00
G01 X4.4953 Y4.2216 F150.00
G01 X4.4824 Y4.2202 F150.00
G01 X4.4648 Y4.2175 F150.00
G01 X4.4514 Y4.2146 F150.00
G01 X4.4338 Y4.2101 F150.00
G01 X4.4104 Y4.2022 F150.00
G01 X4.3986 Y4.1974 F150.00
G01 X4.3827 Y4.1901 F150.00
G01 X4.3708 Y4.1839 F150.00
G01 X4.3553 Y4.1748 F150.00
G01 X4.3391 Y4.1640 F150.00
G01 X4.3250 Y4.1533 F150.00
G01 X4.3150 Y4.1448 F150.00
G01 X4.2971 Y4.1279 F150.00
G01 X4.2852 Y4.1150 F150.00
G01 X4.2766 Y4.1048 F150.00
G01 X4.2659 Y4.0907 F150.00
G01 X4.2585 Y4.0798 F150.00
G01 X4.2492 Y4.0647 F150.00
G01 X4.2428 Y4.0530 F150.00
G01 X4.2327 Y4.0315 F150.00
G01 X4.2277 Y4.0191 F150.00
G01 X4.2219 Y4.0025 F150.00
G01 X4.2183 Y3.9900 F150.00
G01 X4.2142 Y3.9728 F150.00
G01 X4.2100 Y3.9484 F150.00
G01 X4.2083 Y3.9315 F150.00
G01 X4.2074 Y3.9143 F150.00
G01 X4.2073 Y3.8394 F150.00
G01 X4.2083 Y3.8157 F150.00
G01 X4.2100 Y3.7988 F150.00
G01 X4.2142 Y3.7744 F150.00
G01 X4.2183 Y3.7573 F150.00
G01 X4.2219 Y3.7447 F150.00
G01 X4.2277 Y3.7281 F150.00
G01 X4.2327 Y3.7158 F150.00
G01 X4.2428 Y3.6942 F150.00
G01 X4.2492 Y3.6826 F150.00
G01 X4.2585 Y3.6674 F150.00
G01 X4.2659 Y3.6565 F150.00
G01 X4.2766 Y3.6424 F150.00
G01 X4.2852 Y3.6322 F150.00
G01 X4.2971 Y3.6193 F150.00
G01 X4.3064 Y3.6102 F150.00
G01 X4.3194 Y3.5986 F150.00
G01 X4.3297 Y3.5903 F150.00
G01 X4.3440 Y3.5798 F150.00
G01 X4.3553 Y3.5725 F150.00
G01 X4.3708 Y3.5633 F150.00
G01 X4.3827 Y3.5571 F150.00
G01 X4.3986 Y3.5498 F150.00
G01 X4.4104 Y3.5450 F150.00
G01 X4.4267 Y3.5393 F150.00
G01 X4.4514 Y3.5326 F150.00
G01 X4.4707 Y3.5288 F150.00
G01 X4.4953 Y3.5256 F150.00
G01 X4.5082 Y3.5248 F150.00
G01 X4.5208 Y3.5244 F150.00
G01 X5.6928 Y3.5244 F150.00
G01 X5.7041 Y3.5246 F150.00
G01 X5.7196 Y3.5256 F150.00
G01 X5.7400 Y3.5281 F150.00
G01 X5.7532 Y3.5304 F150.00
G01 X5.7679 Y3.5336 F150.00
G01 X5.7918 Y3.5404 F150.00
G01 X5.8103 Y3.5469 F150.00
G01 X5.8224 Y3.5516 F150.00
G01 X5.8346 Y3.5570 F150.00
G01 X5.8464 Y3.5627 F150.00
G01 X5.8678 Y3.5747 F150.00
G01 X5.8878 Y3.5881 F150.00
G01 X5.8987 Y3.5964 F150.00
G01 X5.9121 Y3.6076 F150.00
G01 X5.9296 Y3.6245 F150.00
G01 X5.9429 Y3.6392 F150.00
G01 X5.9545 Y3.6537 F150.00
G01 X5.9623 Y3.6645 F150.00
G01 X5.9755 Y3.6854 F150.00
G01 X5.9835 Y3.7001 F150.00
G01 X5.9889 Y3.7112 F150.00
G01 X5.9983 Y3.7339 F150.00
G01 X6.0030 Y3.7479 F150.00
G01 X6.0066 Y3.7598 F150.00
G01 X6.0110 Y3.7779 F150.00
G01 X6.0140 Y3.7942 F150.00
G01 X6.0157 Y3.8069 F150.00
G01 X6.0172 Y3.8248 F150.00
G01 X6.0177 Y3.8388 F150.00
G01 X6.0177 Y3.8507 F150.00
G01 X6.0167 Y3.8694 F150.00
G01 X6.0146 Y3.8873 F150.00
G01 X6.0123 Y3.9014 F150.00
G01 X6.0098 Y3.9133 F150.00
G01 X6.0051 Y3.9314 F150.00
G01 X5.9975 Y3.9542 F150.00
G01 X5.9908 Y3.9705 F150.00
G01 X5.9824 Y3.9880 F150.00
G01 X5.9738 Y4.0036 F150.00
G01 X5.9602 Y4.0245 F150.00
G01 X5.9486 Y4.0399 F150.00
G01 X5.9366 Y4.0540 F150.00
G01 X5.9187 Y4.0723 F150.00
G01 X5.9052 Y4.0843 F150.00
G01 X5.8916 Y4.0951 F150.00
G01 X5.8802 Y4.1032 F150.00
G01 X5.8651 Y4.1129 F150.00
G01 X5.8434 Y4.1248 F150.00
G01 X5.8309 Y4.1307 F150.00
G01 X5.8145 Y4.1375 F150.00
G01 X5.8024 Y4.1418 F150.00
G01 X5.7899 Y4.1457 F150.00
G01 X5.7758 Y4.1494 F150.00
G01 X5.5036 Y4.2143 F150.00
G01 X5.4866 Y4.2178 F150.00
G01 X5.4712 Y4.2201 F150.00
G01 X5.4476 Y4.2223 F150.00
G01 X5.4306 Y4.2228 F150.00
G01 X4.5223 Y4.2228 F150.00
G01 X4.5223 Y4.1028 F150.00
G01 X4.5069 Y4.1022 F150.00
G01 X4.4882 Y4.0998 F150.00
G01 X4.4806 Y4.0983 F150.00
G01 X4.4618 Y4.0931 F150.00
G01 X4.4445 Y4.0866 F150.00
G01 X4.4339 Y4.0816 F150.00
G01 X4.4273 Y4.0780 F150.00
G01 X4.4108 Y4.0677 F150.00
G01 X4.4013 Y4.0606 F150.00
G01 X4.3870 Y4.0482 F150.00
G01 X4.3741 Y4.0344 F150.00
G01 X4.3693 Y4.0287 F150.00
G01 X4.3582 Y4.0131 F150.00
G01 X4.3522 Y4.0030 F150.00
G01 X4.3436 Y3.9857 F150.00
G01 X4.3407 Y3.9788 F150.00
G01 X4.3347 Y3.9609 F150.00
G01 X4.3319 Y3.9495 F150.00
G01 X4.3304 Y3.9421 F150.00
G01 X4.3280 Y3.9239 F150.00
G01 X4.3273 Y3.9078 F150.00
G01 X4.3273 Y3.8394 F150.00
G01 X4.3280 Y3.8234 F150.00
G01 X4.3304 Y3.8052 F150.00
G01 X4.3347 Y3.7864 F150.00
G01 X4.3407 Y3.7685 F150.00
G01 X4.3436 Y3.7616 F150.00
G01 X4.3522 Y3.7443 F150.00
G01 X4.3582 Y3.7341 F150.00
G01 X4.3693 Y3.7186 F150.00
G01 X4.3741 Y3.7128 F150.00
G01 X4.3870 Y3.6991 F150.00
G01 X4.4013 Y3.6866 F150.00
G01 X4.4108 Y3.6795 F150.00
G01 X4.4273 Y3.6692 F150.00
G01 X4.4339 Y3.6656 F150.00
G01 X4.4445 Y3.6607 F150.00
G01 X4.4618 Y3.6541 F150.00
G01 X4.4806 Y3.6490 F150.00
G01 X4.4882 Y3.6475 F150.00
G01 X4.5069 Y3.6451 F150.00
G01 X4.5223 Y3.6444 F150.00
G01 X5.6962 Y3.6445 F150.00
G01 X5.7109 Y3.6453 F150.00
G01 X5.7195 Y3.6463 F150.00
G01 X5.7328 Y3.6486 F150.00
G01 X5.7506 Y3.6532 F150.00
G01 X5.7713 Y3.6605 F150.00
G01 X5.7832 Y3.6654 F150.00
G01 X5.7897 Y3.6685 F150.00
G01 X5.8061 Y3.6777 F150.00
G01 X5.8224 Y3.6890 F150.00
G01 X5.8364 Y3.7010 F150.00
G01 X5.8500 Y3.7151 F150.00
G01 X5.8622 Y3.7307 F150.00
G01 X5.8687 Y3.7405 F150.00
G01 X5.8775 Y3.7565 F150.00
G01 X5.8851 Y3.7740 F150.00
G01 X5.8880 Y3.7820 F150.00
G01 X5.8915 Y3.7939 F150.00
G01 X5.8952 Y3.8115 F150.00
G01 X5.8974 Y3.8302 F150.00
G01 X5.8977 Y3.8502 F150.00
G01 X5.8961 Y3.8689 F150.00
G01 X5.8923 Y3.8889 F150.00
G01 X5.8872 Y3.9064 F150.00
G01 X5.8848 Y3.9131 F150.00
G01 X5.8769 Y3.9308 F150.00
G01 X5.8674 Y3.9475 F150.00
G01 X5.8565 Y3.9630 F150.00
G01 X5.8486 Y3.9725 F150.00
G01 X5.8347 Y3.9866 F150.00
G01 X5.8209 Y3.9981 F150.00
G01 X5.8144 Y4.0028 F150.00
G01 X5.8044 Y4.0094 F150.00
G01 X5.7879 Y4.0184 F150.00
G01 X5.7698 Y4.0261 F150.00
G01 X5.7549 Y4.0309 F150.00
G01 X5.7480 Y4.0327 F150.00
G01 X5.4758 Y4.0975 F150.00
G01 X5.4573 Y4.1009 F150.00
G01 X5.4388 Y4.1026 F150.00
G01 X5.4306 Y4.1028 F150.00
G01 X4.5223 Y4.1028 F150.00
G01 X4.5223 Y3.9828 F150.00
G01 X4.5115 Y3.9820 F150.00
G01 X4.5040 Y3.9806 F150.00
G01 X4.4969 Y3.9784 F150.00
G01 X4.4904 Y3.9757 F150.00
G01 X4.4837 Y3.9721 F150.00
G01 X4.4775 Y3.9680 F150.00
G01 X4.4719 Y3.9633 F150.00
G01 X4.4668 Y3.9582 F150.00
G01 X4.4621 Y3.9525 F150.00
G01 X4.4580 Y3.9464 F150.00
G01 X4.4545 Y3.9399 F150.00
G01 X4.4517 Y3.9330 F150.00
G01 X4.4496 Y3.9261 F150.00
G01 X4.4481 Y3.9187 F150.00
G01 X4.4474 Y3.9119 F150.00
G01 X4.4473 Y3.8394 F150.00
G01 X4.4481 Y3.8285 F150.00
G01 X4.4496 Y3.8211 F150.00
G01 X4.4517 Y3.8143 F150.00
G01 X4.4545 Y3.8074 F150.00
G01 X4.4580 Y3.8008 F150.00
G01 X4.4621 Y3.7947 F150.00
G01 X4.4668 Y3.7890 F150.00
G01 X4.4719 Y3.7839 F150.00
G01 X4.4775 Y3.7792 F150.00
G01 X4.4837 Y3.7751 F150.00
G01 X4.4904 Y3.7715 F150.00
G01 X4.4969 Y3.7689 F150.00
G01 X4.5040 Y3.7667 F150.00
G01 X4.5115 Y3.7652 F150.00
G01 X4.5186 Y3.7645 F150.00
G01 X5.6928 Y3.7644 F150.00
G01 X5.7057 Y3.7655 F150.00
G01 X5.7137 Y3.7674 F150.00
G01 X5.7281 Y3.7724 F150.00
G01 X5.7383 Y3.7769 F150.00
G01 X5.7445 Y3.7806 F150.00
G01 X5.7507 Y3.7853 F150.00
G01 X5.7557 Y3.7898 F150.00
G01 X5.7610 Y3.7957 F150.00
G01 X5.7655 Y3.8017 F150.00
G01 X5.7691 Y3.8079 F150.00
G01 X5.7720 Y3.8140 F150.00
G01 X5.7749 Y3.8220 F150.00
G01 X5.7765 Y3.8288 F150.00
G01 X5.7775 Y3.8356 F150.00
G01 X5.7778 Y3.8437 F150.00
G01 X5.7775 Y3.8504 F150.00
G01 X5.7762 Y3.8586 F150.00
G01 X5.7745 Y3.8653 F150.00
G01 X5.7720 Y3.8720 F150.00
G01 X5.7687 Y3.8788 F150.00
G01 X5.7649 Y3.8851 F150.00
G01 X5.7605 Y3.8909 F150.00
G01 X5.7550 Y3.8969 F150.00
G01 X5.7502 Y3.9012 F150.00
G01 X5.7437 Y3.9059 F150.00
G01 X5.7377 Y3.9094 F150.00
G01 X5.7306 Y3.9127 F150.00
G01 X5.7202 Y3.9160 F150.00
G01 X5.4434 Y3.9817 F150.00
G01 X5.4352 Y3.9827 F150.00
G01 X5.4306 Y3.9828 F150.00
G01 X4.5223 Y3.9828 F150.00
G00 Z2.0000
G00 X6.1341 Y3.7865
G01 F60.00
G01 Z-0.2858
G01 F150.00
G01 X6.1365 Y3.8104 F150.00
G01 X6.1376 Y3.8304 F150.00
G01 X6.1376 Y3.8542 F150.00
G01 X6.1368 Y3.8729 F150.00
G01 X6.1344 Y3.8968 F150.00
G01 X6.1315 Y3.9168 F150.00
G01 X6.1267 Y3.9406 F150.00
G01 X6.1204 Y3.9646 F150.00
G01 X6.1329 Y3.9616 F150.00
G01 X6.1493 Y3.9499 F150.00
G01 X6.1867 Y3.8965 F150.00
G01 X6.1867 Y3.8507 F150.00
G01 X6.1493 Y3.7974 F150.00
G01 X6.1341 Y3.7865 F150.00
G00 Z2.0000
G00 X3.9473 Y5.8835
G01 F60.00
G01 Z-0.2858
G01 F150.00
G01 X3.9473 Y6.8638 F150.00
G01 X5.4590 Y6.8638 F150.00
G01 X5.9195 Y6.6993 F150.00
G01 X6.0755 Y6.5879 F150.00
G01 X6.2134 Y6.3910 F150.00
G01 X6.2134 Y6.3563 F150.00
G01 X6.0755 Y6.1594 F150.00
G01 X5.9195 Y6.0479 F150.00
G01 X5.4590 Y5.8835 F150.00
G01 X3.9473 Y5.8835 F150.00
G01 X4.0673 Y6.0035 F150.00
G01 X4.0673 Y6.7438 F150.00
G01 X5.4382 Y6.7438 F150.00
G01 X5.8633 Y6.5920 F150.00
G01 X5.9890 Y6.5022 F150.00
G01 X6.0790 Y6.3736 F150.00
G01 X5.9890 Y6.2450 F150.00
G01 X5.8633 Y6.1553 F150.00
G01 X5.4382 Y6.0035 F150.00
G01 X4.0673 Y6.0035 F150.00
G01 X4.1873 Y6.1235 F150.00
G01 X4.1873 Y6.6238 F150.00
G01 X5.4175 Y6.6238 F150.00
G01 X5.8072 Y6.4846 F150.00
G01 X5.9025 Y6.4165 F150.00
G01 X5.9325 Y6.3736 F150.00
G01 X5.9025 Y6.3307 F150.00
G01 X5.8072 Y6.2626 F150.00
G01 X5.4175 Y6.1235 F150.00
G01 X4.1873 Y6.1235 F150.00
G01 X4.3073 Y6.2435 F150.00
G01 X4.3073 Y6.5038 F150.00
G01 X5.3967 Y6.5038 F150.00
G01 X5.7511 Y6.3772 F150.00
G01 X5.7561 Y6.3736 F150.00
G01 X5.7511 Y6.3700 F150.00
G01 X5.3967 Y6.2435 F150.00
G01 X4.3073 Y6.2435 F150.00
G01 X4.4273 Y6.3635 F150.00
G01 X4.4273 Y6.3838 F150.00
G01 X5.3759 Y6.3838 F150.00
G01 X5.4043 Y6.3736 F150.00
G01 X5.3759 Y6.3635 F150.00
G01 X4.4273 Y6.3635 F150.00
G00 Z2.0000
G00 X2.5468 Y7.5678
G01 F60.00
G01 Z-0.2858
G01 F150.00
G01 X2.5501 Y7.6329 F150.00
G01 X2.5601 Y7.7006 F150.00
G01 X2.5769 Y7.7675 F150.00
G01 X2.5999 Y7.8319 F150.00
G01 X2.6294 Y7.8943 F150.00
G01 X2.6646 Y7.9529 F150.00
G01 X2.7059 Y8.0087 F150.00
G01 X2.7493 Y8.0566 F150.00
G01 X2.7545 Y8.0618 F150.00
G01 X2.8028 Y8.1055 F150.00
G01 X2.8549 Y8.1443 F150.00
G01 X2.8610 Y8.1484 F150.00
G01 X2.9137 Y8.1799 F150.00
G01 X2.9202 Y8.1834 F150.00
G01 X2.9791 Y8.2112 F150.00
G01 X3.0438 Y8.2343 F150.00
G01 X3.1101 Y8.2509 F150.00
G01 X3.1789 Y8.2611 F150.00
G01 X3.2470 Y8.2644 F150.00
G01 X5.5803 Y8.2644 F150.00
G01 X5.6598 Y8.2599 F150.00
G01 X5.7396 Y8.2461 F150.00
G01 X5.8159 Y8.2236 F150.00
G01 X6.4837 Y7.9851 F150.00
G01 X6.5423 Y7.9610 F150.00
G01 X6.6003 Y7.9306 F150.00
G01 X6.6540 Y7.8959 F150.00
G01 X6.9886 Y7.6569 F150.00
G01 X7.0493 Y7.6080 F150.00
G01 X7.1050 Y7.5518 F150.00
G01 X7.1541 Y7.4895 F150.00
G01 X7.4883 Y7.0119 F150.00
G01 X7.5233 Y6.9562 F150.00
G01 X7.5270 Y6.9496 F150.00
G01 X7.5568 Y6.8889 F150.00
G01 X7.5803 Y6.8259 F150.00
G01 X7.5826 Y6.8186 F150.00
G01 X7.5987 Y6.7570 F150.00
G01 X7.6002 Y6.7495 F150.00
G01 X7.6104 Y6.6825 F150.00
G01 X7.6139 Y6.6143 F150.00
G01 X7.6139 Y6.1329 F150.00
G01 X7.6104 Y6.0648 F150.00
G01 X7.6002 Y5.9977 F150.00
G01 X7.5987 Y5.9902 F150.00
G01 X7.5815 Y5.9248 F150.00
G01 X7.5582 Y5.8617 F150.00
G01 X7.5551 Y5.8547 F150.00
G01 X7.5270 Y5.7977 F150.00
G01 X7.5233 Y5.7910 F150.00
G01 X7.4874 Y5.7339 F150.00
G01 X7.2185 Y5.3498 F150.00
G01 X7.3219 Y5.2759 F150.00
G01 X7.3793 Y5.2299 F150.00
G01 X7.3856 Y5.2242 F150.00
G01 X7.4383 Y5.1708 F150.00
G01 X7.4874 Y5.1086 F150.00
G01 X7.8207 Y4.6324 F150.00
G01 X7.8566 Y4.5753 F150.00
G01 X7.8603 Y4.5686 F150.00
G01 X7.8901 Y4.5079 F150.00
G01 X7.9137 Y4.4449 F150.00
G01 X7.9160 Y4.4376 F150.00
G01 X7.9329 Y4.3723 F150.00
G01 X7.9432 Y4.3057 F150.00
G01 X7.9440 Y4.2981 F150.00
G01 X7.9473 Y4.2308 F150.00
G01 X7.9473 Y3.5165 F150.00
G01 X7.9437 Y3.4457 F150.00
G01 X7.9329 Y3.3750 F150.00
G01 X7.9148 Y3.3056 F150.00
G01 X7.8902 Y3.2394 F150.00
G01 X7.8603 Y3.1786 F150.00
G01 X7.8566 Y3.1720 F150.00
G01 X7.8207 Y3.1149 F150.00
G01 X7.4874 Y2.6387 F150.00
G01 X7.4410 Y2.5797 F150.00
G01 X7.4354 Y2.5733 F150.00
G01 X7.3823 Y2.5199 F150.00
G01 X7.3207 Y2.4704 F150.00
G01 X6.9862 Y2.2315 F150.00
G01 X6.9334 Y2.1974 F150.00
G01 X6.8756 Y2.1672 F150.00
G01 X6.8159 Y2.1427 F150.00
G01 X6.1470 Y1.9038 F150.00
G01 X6.0766 Y1.8831 F150.00
G01 X6.0682 Y1.8812 F150.00
G01 X5.9935 Y1.8683 F150.00
G01 X5.9180 Y1.8639 F150.00
G01 X3.2450 Y1.8638 F150.00
G01 X3.1820 Y1.8669 F150.00
G01 X3.1747 Y1.8676 F150.00
G01 X3.1104 Y1.8772 F150.00
G01 X3.0473 Y1.8930 F150.00
G01 X3.0402 Y1.8951 F150.00
G01 X2.9790 Y1.9171 F150.00
G01 X2.9202 Y1.9448 F150.00
G01 X2.9137 Y1.9483 F150.00
G01 X2.8610 Y1.9798 F150.00
G01 X2.8549 Y1.9839 F150.00
G01 X2.8026 Y2.0229 F150.00
G01 X2.7545 Y2.0664 F150.00
G01 X2.7493 Y2.0716 F150.00
G01 X2.7058 Y2.1197 F150.00
G01 X2.6647 Y2.1751 F150.00
G01 X2.6295 Y2.2338 F150.00
G01 X2.6015 Y2.2927 F150.00
G01 X2.5987 Y2.2995 F150.00
G01 X2.5768 Y2.3609 F150.00
G01 X2.5610 Y2.4239 F150.00
G01 X2.5595 Y2.4311 F150.00
G01 X2.5501 Y2.4953 F150.00
G01 X2.5467 Y2.5641 F150.00
G01 X2.5468 Y7.5678 F150.00
G01 X2.4269 Y7.5737 F150.00
G01 X2.4304 Y7.6418 F150.00
G01 X2.4318 Y7.6540 F150.00
G01 X2.4408 Y7.7147 F150.00
G01 X2.4445 Y7.7335 F150.00
G01 X2.4595 Y7.7930 F150.00
G01 X2.4630 Y7.8052 F150.00
G01 X2.4879 Y7.8750 F150.00
G01 X2.4930 Y7.8868 F150.00
G01 X2.5192 Y7.9422 F150.00
G01 X2.5283 Y7.9591 F150.00
G01 X2.5598 Y8.0118 F150.00
G01 X2.5663 Y8.0219 F150.00
G01 X2.6070 Y8.0770 F150.00
G01 X2.6191 Y8.0917 F150.00
G01 X2.6604 Y8.1372 F150.00
G01 X2.6691 Y8.1462 F150.00
G01 X2.7245 Y8.1964 F150.00
G01 X2.7341 Y8.2041 F150.00
G01 X2.7834 Y8.2406 F150.00
G01 X2.7993 Y8.2513 F150.00
G01 X2.8578 Y8.2862 F150.00
G01 X2.8689 Y8.2919 F150.00
G01 X2.9243 Y8.3181 F150.00
G01 X2.9420 Y8.3254 F150.00
G01 X3.0062 Y8.3483 F150.00
G01 X3.0181 Y8.3516 F150.00
G01 X3.0836 Y8.3679 F150.00
G01 X3.0964 Y8.3703 F150.00
G01 X3.1647 Y8.3802 F150.00
G01 X3.1761 Y8.3812 F150.00
G01 X3.2421 Y8.3843 F150.00
G01 X5.5803 Y8.3844 F150.00
G01 X5.5915 Y8.3841 F150.00
G01 X5.6628 Y8.3800 F150.00
G01 X5.6766 Y8.3787 F150.00
G01 X5.7638 Y8.3636 F150.00
G01 X5.7771 Y8.3602 F150.00
G01 X5.8523 Y8.3380 F150.00
G01 X6.5238 Y8.0982 F150.00
G01 X6.5903 Y8.0710 F150.00
G01 X6.6011 Y8.0658 F150.00
G01 X6.6588 Y8.0354 F150.00
G01 X6.6678 Y8.0299 F150.00
G01 X6.7185 Y7.9971 F150.00
G01 X7.0642 Y7.7501 F150.00
G01 X7.1272 Y7.6993 F150.00
G01 X7.1375 Y7.6896 F150.00
G01 X7.1873 Y7.6393 F150.00
G01 X7.1971 Y7.6287 F150.00
G01 X7.2020 Y7.6228 F150.00
G01 X7.2458 Y7.5672 F150.00
G01 X7.2524 Y7.5583 F150.00
G01 X7.5912 Y7.0739 F150.00
G01 X7.6250 Y7.0200 F150.00
G01 X7.6314 Y7.0089 F150.00
G01 X7.6628 Y6.9456 F150.00
G01 X7.6706 Y6.9273 F150.00
G01 X7.6928 Y6.8677 F150.00
G01 X7.6968 Y6.8558 F150.00
G01 X7.7148 Y6.7872 F150.00
G01 X7.7188 Y6.7678 F150.00
G01 X7.7295 Y6.6974 F150.00
G01 X7.7305 Y6.6852 F150.00
G01 X7.7339 Y6.6164 F150.00
G01 X7.7339 Y6.1308 F150.00
G01 X7.7305 Y6.0621 F150.00
G01 X7.7295 Y6.0499 F150.00
G01 X7.7188 Y5.9794 F150.00
G01 X7.7164 Y5.9668 F150.00
G01 X7.6968 Y5.8915 F150.00
G01 X7.6928 Y5.8795 F150.00
G01 X7.6706 Y5.8199 F150.00
G01 X7.6628 Y5.8017 F150.00
G01 X7.6346 Y5.7446 F150.00
G01 X7.6284 Y5.7330 F150.00
G01 X7.5865 Y5.6662 F150.00
G01 X7.3850 Y5.3784 F150.00
G01 X7.3993 Y5.3678 F150.00
G01 X7.4544 Y5.3235 F150.00
G01 X7.4605 Y5.3183 F150.00
G01 X7.4708 Y5.3087 F150.00
G01 X7.5207 Y5.2584 F150.00
G01 X7.5304 Y5.2477 F150.00
G01 X7.5791 Y5.1862 F150.00
G01 X7.5857 Y5.1774 F150.00
G01 X7.9245 Y4.6929 F150.00
G01 X7.9583 Y4.6390 F150.00
G01 X7.9647 Y4.6280 F150.00
G01 X7.9961 Y4.5646 F150.00
G01 X8.0040 Y4.5464 F150.00
G01 X8.0271 Y4.4840 F150.00
G01 X8.0321 Y4.4678 F150.00
G01 X8.0481 Y4.4063 F150.00
G01 X8.0510 Y4.3935 F150.00
G01 X8.0618 Y4.3240 F150.00
G01 X8.0638 Y4.3042 F150.00
G01 X8.0673 Y4.2308 F150.00
G01 X8.0673 Y3.5165 F150.00
G01 X8.0634 Y3.4369 F150.00
G01 X8.0618 Y3.4233 F150.00
G01 X8.0510 Y3.3539 F150.00
G01 X8.0481 Y3.3410 F150.00
G01 X8.0300 Y3.2721 F150.00
G01 X8.0261 Y3.2605 F150.00
G01 X8.0016 Y3.1950 F150.00
G01 X7.9961 Y3.1826 F150.00
G01 X7.9680 Y3.1256 F150.00
G01 X7.9583 Y3.1082 F150.00
G01 X7.9196 Y3.0469 F150.00
G01 X7.5857 Y2.5699 F150.00
G01 X7.5791 Y2.5610 F150.00
G01 X7.5353 Y2.5054 F150.00
G01 X7.5262 Y2.4947 F150.00
G01 X7.5207 Y2.4889 F150.00
G01 X7.4708 Y2.4386 F150.00
G01 X7.4599 Y2.4284 F150.00
G01 X7.3993 Y2.3794 F150.00
G01 X7.3905 Y2.3728 F150.00
G01 X7.0527 Y2.1316 F150.00
G01 X7.0012 Y2.0982 F150.00
G01 X6.9917 Y2.0925 F150.00
G01 X6.9286 Y2.0595 F150.00
G01 X6.9181 Y2.0548 F150.00
G01 X6.8562 Y2.0297 F150.00
G01 X6.1823 Y1.7892 F150.00
G01 X6.1104 Y1.7680 F150.00
G01 X6.0964 Y1.7644 F150.00
G01 X6.0887 Y1.7629 F150.00
G01 X6.0105 Y1.7496 F150.00
G01 X5.9962 Y1.7482 F150.00
G01 X5.9248 Y1.7441 F150.00
G01 X5.9137 Y1.7438 F150.00
G01 X3.2404 Y1.7439 F150.00
G01 X3.1761 Y1.7470 F150.00
G01 X3.1571 Y1.7489 F150.00
G01 X3.0964 Y1.7579 F150.00
G01 X3.0842 Y1.7601 F150.00
G01 X3.0181 Y1.7766 F150.00
G01 X2.9998 Y1.7821 F150.00
G01 X2.9358 Y1.8051 F150.00
G01 X2.9243 Y1.8101 F150.00
G01 X2.8689 Y1.8363 F150.00
G01 X2.8520 Y1.8454 F150.00
G01 X2.7993 Y1.8769 F150.00
G01 X2.7834 Y1.8875 F150.00
G01 X2.7287 Y1.9283 F150.00
G01 X2.7194 Y1.9362 F150.00
G01 X2.6739 Y1.9774 F150.00
G01 X2.6604 Y1.9910 F150.00
G01 X2.6150 Y2.0412 F150.00
G01 X2.6070 Y2.0512 F150.00
G01 X2.5704 Y2.1005 F150.00
G01 X2.5633 Y2.1109 F150.00
G01 X2.5283 Y2.1691 F150.00
G01 X2.5192 Y2.1860 F150.00
G01 X2.4902 Y2.2477 F150.00
G01 X2.4857 Y2.2591 F150.00
G01 X2.4650 Y2.3169 F150.00
G01 X2.4595 Y2.3352 F150.00
G01 X2.4430 Y2.4013 F150.00
G01 X2.4408 Y2.4135 F150.00
G01 X2.4318 Y2.4742 F150.00
G01 X2.4304 Y2.4864 F150.00
G01 X2.4267 Y2.5641 F150.00
G01 X2.4269 Y7.5737 F150.00
G01 X2.3071 Y7.5796 F150.00
G01 X2.3110 Y7.6536 F150.00
G01 X2.3129 Y7.6702 F150.00
G01 X2.3223 Y7.7337 F150.00
G01 X2.3253 Y7.7501 F150.00
G01 X2.3278 Y7.7611 F150.00
G01 X2.3434 Y7.8236 F150.00
G01 X2.3481 Y7.8401 F150.00
G01 X2.3520 Y7.8517 F150.00
G01 X2.3770 Y7.9208 F150.00
G01 X2.3839 Y7.9367 F150.00
G01 X2.4108 Y7.9935 F150.00
G01 X2.4164 Y8.0049 F150.00
G01 X2.4246 Y8.0196 F150.00
G01 X2.4576 Y8.0746 F150.00
G01 X2.4664 Y8.0884 F150.00
G01 X2.4741 Y8.0991 F150.00
G01 X2.5116 Y8.1497 F150.00
G01 X2.5189 Y8.1591 F150.00
G01 X2.5302 Y8.1723 F150.00
G01 X2.5724 Y8.2189 F150.00
G01 X2.5842 Y8.2311 F150.00
G01 X2.6388 Y8.2809 F150.00
G01 X2.6484 Y8.2892 F150.00
G01 X2.6615 Y8.2996 F150.00
G01 X2.7130 Y8.3378 F150.00
G01 X2.7260 Y8.3468 F150.00
G01 X2.7377 Y8.3542 F150.00
G01 X2.7916 Y8.3865 F150.00
G01 X2.8065 Y8.3948 F150.00
G01 X2.8786 Y8.4291 F150.00
G01 X2.9003 Y8.4379 F150.00
G01 X2.9715 Y8.4631 F150.00
G01 X2.9889 Y8.4680 F150.00
G01 X3.0600 Y8.4856 F150.00
G01 X3.0788 Y8.4890 F150.00
G01 X3.1395 Y8.4980 F150.00
G01 X3.1534 Y8.4997 F150.00
G01 X3.1703 Y8.5010 F150.00
G01 X3.2399 Y8.5043 F150.00
G01 X5.5803 Y8.5044 F150.00
G01 X5.5976 Y8.5039 F150.00
G01 X5.6697 Y8.4998 F150.00
G01 X5.6934 Y8.4975 F150.00
G01 X5.7759 Y8.4835 F150.00
G01 X5.7915 Y8.4804 F150.00
G01 X5.8109 Y8.4753 F150.00
G01 X5.8909 Y8.4516 F150.00
G01 X6.5646 Y8.2111 F150.00
G01 X6.5769 Y8.2063 F150.00
G01 X6.6408 Y8.1798 F150.00
G01 X6.6567 Y8.1721 F150.00
G01 X6.7079 Y8.1454 F150.00
G01 X6.7198 Y8.1388 F150.00
G01 X6.7330 Y8.1307 F150.00
G01 X6.7858 Y8.0965 F150.00
G01 X7.1269 Y7.8531 F150.00
G01 X7.1385 Y7.8443 F150.00
G01 X7.1963 Y7.7980 F150.00
G01 X7.2076 Y7.7883 F150.00
G01 X7.2216 Y7.7752 F150.00
G01 X7.2726 Y7.7238 F150.00
G01 X7.2825 Y7.7133 F150.00
G01 X7.2952 Y7.6984 F150.00
G01 X7.3405 Y7.6408 F150.00
G01 X7.3507 Y7.6271 F150.00
G01 X7.6844 Y7.1504 F150.00
G01 X7.6924 Y7.1383 F150.00
G01 X7.7266 Y7.0837 F150.00
G01 X7.7331 Y7.0728 F150.00
G01 X7.7416 Y7.0571 F150.00
G01 X7.7704 Y6.9986 F150.00
G01 X7.7760 Y6.9865 F150.00
G01 X7.7826 Y6.9706 F150.00
G01 X7.8053 Y6.9096 F150.00
G01 X7.8121 Y6.8891 F150.00
G01 X7.8320 Y6.8129 F150.00
G01 X7.8352 Y6.7986 F150.00
G01 X7.8374 Y6.7860 F150.00
G01 X7.8473 Y6.7215 F150.00
G01 X7.8495 Y6.7031 F150.00
G01 X7.8539 Y6.6201 F150.00
G01 X7.8539 Y6.1272 F150.00
G01 X7.8503 Y6.0560 F150.00
G01 X7.8489 Y6.0380 F150.00
G01 X7.8471 Y6.0241 F150.00
G01 X7.8364 Y5.9553 F150.00
G01 X7.8313 Y5.9313 F150.00
G01 X7.8149 Y5.8682 F150.00
G01 X7.8112 Y5.8553 F150.00
G01 X7.8058 Y5.8390 F150.00
G01 X7.7826 Y5.7767 F150.00
G01 X7.7760 Y5.7608 F150.00
G01 X7.7704 Y5.7486 F150.00
G01 X7.7394 Y5.6859 F150.00
G01 X7.7274 Y5.6648 F150.00
G01 X7.6865 Y5.5999 F150.00
G01 X7.5476 Y5.4014 F150.00
G01 X7.6059 Y5.3428 F150.00
G01 X7.6158 Y5.3323 F150.00
G01 X7.6295 Y5.3161 F150.00
G01 X7.6806 Y5.2509 F150.00
G01 X8.0185 Y4.7683 F150.00
G01 X8.0257 Y4.7573 F150.00
G01 X8.0600 Y4.7027 F150.00
G01 X8.0694 Y4.6865 F150.00
G01 X8.0756 Y4.6747 F150.00
G01 X8.1037 Y4.6177 F150.00
G01 X8.1118 Y4.5999 F150.00
G01 X8.1401 Y4.5245 F150.00
G01 X8.1445 Y4.5110 F150.00
G01 X8.1482 Y4.4981 F150.00
G01 X8.1673 Y4.4237 F150.00
G01 X8.1705 Y4.4066 F150.00
G01 X8.1804 Y4.3422 F150.00
G01 X8.1822 Y4.3283 F150.00
G01 X8.1834 Y4.3144 F150.00
G01 X8.1870 Y4.2437 F150.00
G01 X8.1873 Y4.2308 F150.00
G01 X8.1873 Y3.5154 F150.00
G01 X8.1869 Y3.5005 F150.00
G01 X8.1828 Y3.4250 F150.00
G01 X8.1804 Y3.4050 F150.00
G01 X8.1685 Y3.3297 F150.00
G01 X8.1643 Y3.3108 F150.00
G01 X8.1482 Y3.2492 F150.00
G01 X8.1444 Y3.2357 F150.00
G01 X8.1386 Y3.2186 F150.00
G01 X8.1119 Y3.1477 F150.00
G01 X8.1037 Y3.1296 F150.00
G01 X8.0709 Y3.0634 F150.00
G01 X8.0600 Y3.0445 F150.00
G01 X8.0262 Y2.9906 F150.00
G01 X8.0186 Y2.9790 F150.00
G01 X7.6836 Y2.5004 F150.00
G01 X7.6739 Y2.4875 F150.00
G01 X7.6285 Y2.4299 F150.00
G01 X7.6162 Y2.4153 F150.00
G01 X7.6059 Y2.4044 F150.00
G01 X7.5548 Y2.3528 F150.00
G01 X7.5401 Y2.3391 F150.00
G01 X7.5296 Y2.3302 F150.00
G01 X7.4744 Y2.2859 F150.00
G01 X7.4610 Y2.2757 F150.00
G01 X7.1193 Y2.0318 F150.00
G01 X7.0663 Y1.9975 F150.00
G01 X7.0524 Y1.9890 F150.00
G01 X7.0412 Y1.9828 F150.00
G01 X6.9792 Y1.9507 F150.00
G01 X6.9636 Y1.9438 F150.00
G01 X6.8975 Y1.9170 F150.00
G01 X6.2299 Y1.6786 F150.00
G01 X6.2177 Y1.6745 F150.00
G01 X6.1394 Y1.6515 F150.00
G01 X6.1237 Y1.6476 F150.00
G01 X6.1092 Y1.6447 F150.00
G01 X6.0388 Y1.6325 F150.00
G01 X6.0241 Y1.6303 F150.00
G01 X6.0047 Y1.6285 F150.00
G01 X5.9309 Y1.6243 F150.00
G01 X5.9137 Y1.6238 F150.00
G01 X3.2358 Y1.6240 F150.00
G01 X3.1659 Y1.6274 F150.00
G01 X3.1521 Y1.6286 F150.00
G01 X3.1395 Y1.6302 F150.00
G01 X3.0774 Y1.6394 F150.00
G01 X3.0608 Y1.6424 F150.00
G01 X2.9875 Y1.6605 F150.00
G01 X2.9767 Y1.6635 F150.00
G01 X2.9607 Y1.6686 F150.00
G01 X2.8899 Y1.6943 F150.00
G01 X2.8744 Y1.7010 F150.00
G01 X2.8175 Y1.7279 F150.00
G01 X2.7981 Y1.7379 F150.00
G01 X2.7340 Y1.7762 F150.00
G01 X2.7223 Y1.7838 F150.00
G01 X2.7119 Y1.7912 F150.00
G01 X2.6524 Y1.8357 F150.00
G01 X2.6398 Y1.8464 F150.00
G01 X2.5933 Y1.8885 F150.00
G01 X2.5842 Y1.8971 F150.00
G01 X2.5724 Y1.9093 F150.00
G01 X2.5223 Y1.9650 F150.00
G01 X2.5106 Y1.9798 F150.00
G01 X2.4732 Y2.0303 F150.00
G01 X2.4634 Y2.0443 F150.00
G01 X2.4232 Y2.1110 F150.00
G01 X2.4166 Y2.1229 F150.00
G01 X2.4108 Y2.1346 F150.00
G01 X2.3793 Y2.2019 F150.00
G01 X2.3732 Y2.2174 F150.00
G01 X2.3520 Y2.2765 F150.00
G01 X2.3480 Y2.2886 F150.00
G01 X2.3434 Y2.3047 F150.00
G01 X2.3253 Y2.3779 F150.00
G01 X2.3223 Y2.3944 F150.00
G01 X2.3131 Y2.4566 F150.00
G01 X2.3107 Y2.4775 F150.00
G01 X2.3071 Y2.5486 F150.00
G01 X2.3067 Y2.5641 F150.00
G01 X2.3067 Y7.5641 F150.00
G01 X2.3071 Y7.5796 F150.00
G01 X2.2867 Y7.5676 F150.00
G01 X2.2867 Y2.5606 F150.00
G01 X2.2904 Y2.4794 F150.00
G01 X2.2923 Y2.4606 F150.00
G01 X2.3034 Y2.3860 F150.00
G01 X2.3070 Y2.3675 F150.00
G01 X2.3254 Y2.2944 F150.00
G01 X2.3308 Y2.2763 F150.00
G01 X2.3562 Y2.2054 F150.00
G01 X2.3635 Y2.1879 F150.00
G01 X2.3957 Y2.1198 F150.00
G01 X2.4046 Y2.1031 F150.00
G01 X2.4433 Y2.0385 F150.00
G01 X2.4538 Y2.0228 F150.00
G01 X2.4987 Y1.9622 F150.00
G01 X2.5107 Y1.9476 F150.00
G01 X2.5613 Y1.8918 F150.00
G01 X2.5747 Y1.8784 F150.00
G01 X2.6305 Y1.8278 F150.00
G01 X2.6451 Y1.8158 F150.00
G01 X2.7057 Y1.7709 F150.00
G01 X2.7214 Y1.7604 F150.00
G01 X2.7860 Y1.7217 F150.00
G01 X2.8027 Y1.7128 F150.00
G01 X2.8708 Y1.6806 F150.00
G01 X2.8883 Y1.6733 F150.00
G01 X2.9592 Y1.6479 F150.00
G01 X2.9773 Y1.6424 F150.00
G01 X3.0504 Y1.6241 F150.00
G01 X3.0689 Y1.6205 F150.00
G01 X3.1435 Y1.6094 F150.00
G01 X3.1623 Y1.6075 F150.00
G01 X3.2341 Y1.6040 F150.00
G01 X5.9177 Y1.6038 F150.00
G01 X5.9287 Y1.6041 F150.00
G01 X6.0123 Y1.6089 F150.00
G01 X6.0342 Y1.6114 F150.00
G01 X6.1206 Y1.6264 F150.00
G01 X6.1421 Y1.6314 F150.00
G01 X6.2224 Y1.6550 F150.00
G01 X6.2328 Y1.6584 F150.00
G01 X6.9064 Y1.8989 F150.00
G01 X6.9773 Y1.9278 F150.00
G01 X6.9934 Y1.9353 F150.00
G01 X7.0563 Y1.9681 F150.00
G01 X7.0717 Y1.9771 F150.00
G01 X7.1285 Y2.0138 F150.00
G01 X7.4751 Y2.2612 F150.00
G01 X7.4838 Y2.2678 F150.00
G01 X7.5484 Y2.3197 F150.00
G01 X7.5646 Y2.3343 F150.00
G01 X7.6258 Y2.3961 F150.00
G01 X7.6403 Y2.4124 F150.00
G01 X7.6916 Y2.4775 F150.00
G01 X7.6981 Y2.4863 F150.00
G01 X8.0358 Y2.9687 F150.00
G01 X8.0808 Y3.0400 F150.00
G01 X8.0903 Y3.0572 F150.00
G01 X8.1249 Y3.1272 F150.00
G01 X8.1326 Y3.1452 F150.00
G01 X8.1599 Y3.2184 F150.00
G01 X8.1658 Y3.2371 F150.00
G01 X8.1854 Y3.3127 F150.00
G01 X8.1894 Y3.3319 F150.00
G01 X8.2013 Y3.4092 F150.00
G01 X8.2033 Y3.4287 F150.00
G01 X8.2073 Y3.5129 F150.00
G01 X8.2073 Y4.2344 F150.00
G01 X8.2033 Y4.3186 F150.00
G01 X8.2013 Y4.3381 F150.00
G01 X8.1894 Y4.4153 F150.00
G01 X8.1854 Y4.4345 F150.00
G01 X8.1658 Y4.5101 F150.00
G01 X8.1599 Y4.5288 F150.00
G01 X8.1326 Y4.6020 F150.00
G01 X8.1249 Y4.6200 F150.00
G01 X8.0903 Y4.6901 F150.00
G01 X8.0808 Y4.7072 F150.00
G01 X8.0358 Y4.7785 F150.00
G01 X7.7121 Y5.2409 F150.00
G01 X7.7046 Y5.2523 F150.00
G01 X7.6940 Y5.2701 F150.00
G01 X7.6859 Y5.2861 F150.00
G01 X7.6803 Y5.2983 F150.00
G01 X7.6737 Y5.3154 F150.00
G01 X7.6676 Y5.3344 F150.00
G01 X7.6630 Y5.3520 F150.00
G01 X7.6604 Y5.3650 F150.00
G01 X7.6577 Y5.3825 F150.00
G01 X7.6563 Y5.3959 F150.00
G01 X7.6552 Y5.4210 F150.00
G01 X7.6558 Y5.4394 F150.00
G01 X7.6569 Y5.4534 F150.00
G01 X7.6592 Y5.4711 F150.00
G01 X7.6615 Y5.4838 F150.00
G01 X7.6654 Y5.5008 F150.00
G01 X7.6709 Y5.5195 F150.00
G01 X7.6798 Y5.5435 F150.00
G01 X7.6897 Y5.5647 F150.00
G01 X7.7020 Y5.5867 F150.00
G01 X7.7474 Y5.6591 F150.00
G01 X7.7570 Y5.6762 F150.00
G01 X7.7915 Y5.7463 F150.00
G01 X7.7993 Y5.7643 F150.00
G01 X7.8265 Y5.8375 F150.00
G01 X7.8324 Y5.8562 F150.00
G01 X7.8521 Y5.9318 F150.00
G01 X7.8561 Y5.9510 F150.00
G01 X7.8679 Y6.0282 F150.00
G01 X7.8699 Y6.0477 F150.00
G01 X7.8740 Y6.1319 F150.00
G01 X7.8740 Y6.6153 F150.00
G01 X7.8699 Y6.6995 F150.00
G01 X7.8679 Y6.7190 F150.00
G01 X7.8561 Y6.7963 F150.00
G01 X7.8521 Y6.8154 F150.00
G01 X7.8456 Y6.8415 F150.00
G01 X7.8422 Y6.8586 F150.00
G01 X7.8404 Y6.8713 F150.00
G01 X7.8387 Y6.8891 F150.00
G01 X7.8381 Y6.9032 F150.00
G01 X7.8380 Y6.9152 F150.00
G01 X7.8385 Y6.9279 F150.00
G01 X7.8398 Y6.9442 F150.00
G01 X7.8414 Y6.9564 F150.00
G01 X7.8446 Y6.9743 F150.00
G01 X7.8493 Y6.9938 F150.00
G01 X7.8334 Y7.0037 F150.00
G01 X7.8236 Y7.0105 F150.00
G01 X7.8092 Y7.0216 F150.00
G01 X7.7980 Y7.0311 F150.00
G01 X7.7847 Y7.0437 F150.00
G01 X7.7758 Y7.0530 F150.00
G01 X7.7643 Y7.0663 F150.00
G01 X7.7558 Y7.0771 F150.00
G01 X7.7429 Y7.0954 F150.00
G01 X7.7025 Y7.1594 F150.00
G01 X7.3647 Y7.6419 F150.00
G01 X7.3582 Y7.6507 F150.00
G01 X7.3069 Y7.7158 F150.00
G01 X7.2925 Y7.7321 F150.00
G01 X7.2313 Y7.7939 F150.00
G01 X7.2151 Y7.8085 F150.00
G01 X7.1505 Y7.8604 F150.00
G01 X7.1418 Y7.8670 F150.00
G01 X6.7951 Y8.1144 F150.00
G01 X6.7383 Y8.1511 F150.00
G01 X6.7230 Y8.1600 F150.00
G01 X6.6601 Y8.1929 F150.00
G01 X6.6440 Y8.2004 F150.00
G01 X6.5731 Y8.2293 F150.00
G01 X5.8995 Y8.4698 F150.00
G01 X5.8890 Y8.4732 F150.00
G01 X5.8087 Y8.4968 F150.00
G01 X5.7873 Y8.5018 F150.00
G01 X5.7008 Y8.5168 F150.00
G01 X5.6790 Y8.5193 F150.00
G01 X5.5954 Y8.5241 F150.00
G01 X5.5844 Y8.5244 F150.00
G01 X3.2341 Y8.5242 F150.00
G01 X3.1623 Y8.5207 F150.00
G01 X3.1435 Y8.5188 F150.00
G01 X3.0689 Y8.5077 F150.00
G01 X3.0504 Y8.5041 F150.00
G01 X2.9773 Y8.4857 F150.00
G01 X2.9592 Y8.4803 F150.00
G01 X2.8883 Y8.4549 F150.00
G01 X2.8708 Y8.4476 F150.00
G01 X2.8027 Y8.4154 F150.00
G01 X2.7860 Y8.4065 F150.00
G01 X2.7214 Y8.3678 F150.00
G01 X2.7057 Y8.3573 F150.00
G01 X2.6451 Y8.3124 F150.00
G01 X2.6305 Y8.3004 F150.00
G01 X2.5747 Y8.2498 F150.00
G01 X2.5613 Y8.2364 F150.00
G01 X2.5107 Y8.1806 F150.00
G01 X2.4987 Y8.1660 F150.00
G01 X2.4538 Y8.1054 F150.00
G01 X2.4433 Y8.0897 F150.00
G01 X2.4046 Y8.0251 F150.00
G01 X2.3957 Y8.0084 F150.00
G01 X2.3635 Y7.9403 F150.00
G01 X2.3562 Y7.9228 F150.00
G01 X2.3308 Y7.8519 F150.00
G01 X2.3254 Y7.8338 F150.00
G01 X2.3070 Y7.7607 F150.00
G01 X2.3034 Y7.7422 F150.00
G01 X2.2923 Y7.6676 F150.00
G01 X2.2904 Y7.6488 F150.00
G01 X2.2867 Y7.5676 F150.00
G01 X2.1667 Y7.5691 F150.00
G01 X2.1667 Y2.5591 F150.00
G01 X2.1670 Y2.5467 F150.00
G01 X2.1707 Y2.4705 F150.00
G01 X2.1732 Y2.4459 F150.00
G01 X2.1851 Y2.3655 F150.00
G01 X2.1899 Y2.3412 F150.00
G01 X2.2097 Y2.2624 F150.00
G01 X2.2169 Y2.2387 F150.00
G01 X2.2442 Y2.1622 F150.00
G01 X2.2537 Y2.1392 F150.00
G01 X2.2885 Y2.0658 F150.00
G01 X2.3001 Y2.0439 F150.00
G01 X2.3419 Y1.9742 F150.00
G01 X2.3557 Y1.9536 F150.00
G01 X2.4041 Y1.8884 F150.00
G01 X2.4198 Y1.8692 F150.00
G01 X2.4744 Y1.8090 F150.00
G01 X2.4919 Y1.7915 F150.00
G01 X2.5521 Y1.7369 F150.00
G01 X2.5713 Y1.7212 F150.00
G01 X2.6365 Y1.6728 F150.00
G01 X2.6572 Y1.6590 F150.00
G01 X2.7268 Y1.6172 F150.00
G01 X2.7487 Y1.6056 F150.00
G01 X2.8222 Y1.5708 F150.00
G01 X2.8451 Y1.5613 F150.00
G01 X2.9216 Y1.5340 F150.00
G01 X2.9453 Y1.5268 F150.00
G01 X3.0241 Y1.5070 F150.00
G01 X3.0484 Y1.5022 F150.00
G01 X3.1288 Y1.4903 F150.00
G01 X3.1535 Y1.4878 F150.00
G01 X3.2296 Y1.4841 F150.00
G01 X3.2420 Y1.4838 F150.00
G01 X5.9195 Y1.4838 F150.00
G01 X5.9339 Y1.4842 F150.00
G01 X6.0226 Y1.4893 F150.00
G01 X6.0513 Y1.4926 F150.00
G01 X6.1445 Y1.5087 F150.00
G01 X6.1726 Y1.5153 F150.00
G01 X6.2578 Y1.5403 F150.00
G01 X6.2716 Y1.5448 F150.00
G01 X6.9481 Y1.7864 F150.00
G01 X7.0254 Y1.8178 F150.00
G01 X7.0466 Y1.8277 F150.00
G01 X7.1143 Y1.8631 F150.00
G01 X7.1345 Y1.8748 F150.00
G01 X7.1948 Y1.9138 F150.00
G01 X7.2044 Y1.9204 F150.00
G01 X7.5463 Y2.1645 F150.00
G01 X7.5576 Y2.1732 F150.00
G01 X7.6262 Y2.2283 F150.00
G01 X7.6475 Y2.2474 F150.00
G01 X7.7135 Y2.3140 F150.00
G01 X7.7324 Y2.3355 F150.00
G01 X7.7869 Y2.4046 F150.00
G01 X7.7954 Y2.4161 F150.00
G01 X8.1350 Y2.9012 F150.00
G01 X8.1421 Y2.9119 F150.00
G01 X8.1841 Y2.9789 F150.00
G01 X8.1966 Y3.0013 F150.00
G01 X8.2339 Y3.0769 F150.00
G01 X8.2440 Y3.1005 F150.00
G01 X8.2734 Y3.1795 F150.00
G01 X8.2811 Y3.2040 F150.00
G01 X8.3023 Y3.2855 F150.00
G01 X8.3075 Y3.3107 F150.00
G01 X8.3204 Y3.3939 F150.00
G01 X8.3230 Y3.4195 F150.00
G01 X8.3270 Y3.4985 F150.00
G01 X8.3273 Y3.5113 F150.00
G01 X8.3273 Y4.2359 F150.00
G01 X8.3270 Y4.2488 F150.00
G01 X8.3230 Y4.3277 F150.00
G01 X8.3204 Y4.3533 F150.00
G01 X8.3075 Y4.4366 F150.00
G01 X8.3023 Y4.4617 F150.00
G01 X8.2811 Y4.5433 F150.00
G01 X8.2734 Y4.5678 F150.00
G01 X8.2440 Y4.6467 F150.00
G01 X8.2339 Y4.6703 F150.00
G01 X8.1966 Y4.7459 F150.00
G01 X8.1841 Y4.7683 F150.00
G01 X8.1421 Y4.8353 F150.00
G01 X8.1350 Y4.8461 F150.00
G01 X7.8069 Y5.3150 F150.00
G01 X7.7986 Y5.3290 F150.00
G01 X7.7932 Y5.3397 F150.00
G01 X7.7859 Y5.3580 F150.00
G01 X7.7804 Y5.3771 F150.00
G01 X7.7769 Y5.3960 F150.00
G01 X7.7761 Y5.4034 F150.00
G01 X7.7752 Y5.4226 F150.00
G01 X7.7764 Y5.4428 F150.00
G01 X7.7780 Y5.4546 F150.00
G01 X7.7821 Y5.4727 F150.00
G01 X7.7882 Y5.4914 F150.00
G01 X7.7959 Y5.5090 F150.00
G01 X7.8037 Y5.5231 F150.00
G01 X7.8507 Y5.5979 F150.00
G01 X7.8633 Y5.6204 F150.00
G01 X7.9005 Y5.6960 F150.00
G01 X7.9107 Y5.7196 F150.00
G01 X7.9401 Y5.7985 F150.00
G01 X7.9478 Y5.8230 F150.00
G01 X7.9690 Y5.9045 F150.00
G01 X7.9742 Y5.9297 F150.00
G01 X7.9870 Y6.0130 F150.00
G01 X7.9896 Y6.0385 F150.00
G01 X7.9937 Y6.1175 F150.00
G01 X7.9940 Y6.1304 F150.00
G01 X7.9940 Y6.6169 F150.00
G01 X7.9937 Y6.6297 F150.00
G01 X7.9896 Y6.7087 F150.00
G01 X7.9870 Y6.7343 F150.00
G01 X7.9742 Y6.8175 F150.00
G01 X7.9690 Y6.8427 F150.00
G01 X7.9625 Y6.8684 F150.00
G01 X7.9598 Y6.8837 F150.00
G01 X7.9581 Y6.9037 F150.00
G01 X7.9584 Y6.9225 F150.00
G01 X7.9603 Y6.9401 F150.00
G01 X7.9625 Y6.9520 F150.00
G01 X7.9645 Y6.9601 F150.00
G01 X7.9680 Y6.9720 F150.00
G01 X7.9704 Y6.9786 F150.00
G01 X7.9770 Y6.9943 F150.00
G01 X7.9827 Y7.0053 F150.00
G01 X7.9873 Y7.0131 F150.00
G01 X7.9984 Y7.0291 F150.00
G01 X8.0054 Y7.0377 F150.00
G01 X8.0180 Y7.0510 F150.00
G01 X8.0321 Y7.0633 F150.00
G01 X8.0386 Y7.0682 F150.00
G01 X8.0499 Y7.0758 F150.00
G01 X8.0352 Y7.0730 F150.00
G01 X8.0232 Y7.0717 F150.00
G01 X8.0041 Y7.0711 F150.00
G01 X7.9858 Y7.0723 F150.00
G01 X7.9782 Y7.0733 F150.00
G01 X7.9600 Y7.0770 F150.00
G01 X7.9410 Y7.0828 F150.00
G01 X7.9296 Y7.0874 F150.00
G01 X7.9129 Y7.0956 F150.00
G01 X7.9071 Y7.0990 F150.00
G01 X7.8927 Y7.1086 F150.00
G01 X7.8832 Y7.1160 F150.00
G01 X7.8767 Y7.1217 F150.00
G01 X7.8633 Y7.1351 F150.00
G01 X7.8557 Y7.1440 F150.00
G01 X7.8457 Y7.1575 F150.00
G01 X7.8087 Y7.2163 F150.00
G01 X7.8016 Y7.2270 F150.00
G01 X7.4621 Y7.7121 F150.00
G01 X7.4535 Y7.7236 F150.00
G01 X7.3991 Y7.7927 F150.00
G01 X7.3801 Y7.8142 F150.00
G01 X7.3142 Y7.8807 F150.00
G01 X7.2929 Y7.8999 F150.00
G01 X7.2243 Y7.9550 F150.00
G01 X7.2129 Y7.9637 F150.00
G01 X6.8711 Y8.2078 F150.00
G01 X6.8012 Y8.2534 F150.00
G01 X6.7810 Y8.2651 F150.00
G01 X6.7132 Y8.3005 F150.00
G01 X6.6921 Y8.3104 F150.00
G01 X6.6256 Y8.3376 F150.00
G01 X6.6148 Y8.3418 F150.00
G01 X5.9382 Y8.5834 F150.00
G01 X5.9245 Y8.5879 F150.00
G01 X5.8393 Y8.6129 F150.00
G01 X5.8112 Y8.6195 F150.00
G01 X5.7179 Y8.6356 F150.00
G01 X5.6892 Y8.6389 F150.00
G01 X5.6006 Y8.6440 F150.00
G01 X5.5861 Y8.6444 F150.00
G01 X3.2420 Y8.6444 F150.00
G01 X3.2296 Y8.6441 F150.00
G01 X3.1535 Y8.6404 F150.00
G01 X3.1288 Y8.6379 F150.00
G01 X3.0484 Y8.6260 F150.00
G01 X3.0241 Y8.6212 F150.00
G01 X2.9453 Y8.6014 F150.00
G01 X2.9216 Y8.5942 F150.00
G01 X2.8451 Y8.5669 F150.00
G01 X2.8222 Y8.5574 F150.00
G01 X2.7487 Y8.5226 F150.00
G01 X2.7268 Y8.5110 F150.00
G01 X2.6572 Y8.4692 F150.00
G01 X2.6365 Y8.4554 F150.00
G01 X2.5713 Y8.4070 F150.00
G01 X2.5521 Y8.3913 F150.00
G01 X2.4919 Y8.3367 F150.00
G01 X2.4744 Y8.3192 F150.00
G01 X2.4198 Y8.2590 F150.00
G01 X2.4041 Y8.2398 F150.00
G01 X2.3557 Y8.1746 F150.00
G01 X2.3419 Y8.1539 F150.00
G01 X2.3001 Y8.0843 F150.00
G01 X2.2885 Y8.0624 F150.00
G01 X2.2537 Y7.9889 F150.00
G01 X2.2442 Y7.9660 F150.00
G01 X2.2169 Y7.8895 F150.00
G01 X2.2097 Y7.8658 F150.00
G01 X2.1899 Y7.7870 F150.00
G01 X2.1851 Y7.7627 F150.00
G01 X2.1732 Y7.6823 F150.00
G01 X2.1707 Y7.6576 F150.00
G01 X2.1670 Y7.5815 F150.00
G01 X2.1667 Y7.5691 F150.00
G01 X2.0467 Y7.5705 F150.00
G01 X2.0467 Y2.5577 F150.00
G01 X2.0471 Y2.5423 F150.00
G01 X2.0510 Y2.4617 F150.00
G01 X2.0540 Y2.4312 F150.00
G01 X2.0668 Y2.3450 F150.00
G01 X2.0728 Y2.3149 F150.00
G01 X2.0940 Y2.2304 F150.00
G01 X2.1029 Y2.2010 F150.00
G01 X2.1322 Y2.1190 F150.00
G01 X2.1440 Y2.0906 F150.00
G01 X2.1812 Y2.0118 F150.00
G01 X2.1957 Y1.9848 F150.00
G01 X2.2405 Y1.9100 F150.00
G01 X2.2575 Y1.8845 F150.00
G01 X2.3095 Y1.8145 F150.00
G01 X2.3289 Y1.7908 F150.00
G01 X2.3874 Y1.7262 F150.00
G01 X2.4091 Y1.7045 F150.00
G01 X2.4737 Y1.6460 F150.00
G01 X2.4974 Y1.6266 F150.00
G01 X2.5674 Y1.5746 F150.00
G01 X2.5929 Y1.5576 F150.00
G01 X2.6677 Y1.5128 F150.00
G01 X2.6947 Y1.4983 F150.00
G01 X2.7735 Y1.4611 F150.00
G01 X2.8019 Y1.4493 F150.00
G01 X2.8839 Y1.4200 F150.00
G01 X2.9133 Y1.4111 F150.00
G01 X2.9978 Y1.3899 F150.00
G01 X3.0279 Y1.3839 F150.00
G01 X3.1141 Y1.3711 F150.00
G01 X3.1446 Y1.3681 F150.00
G01 X3.2252 Y1.3642 F150.00
G01 X3.2406 Y1.3638 F150.00
G01 X5.9212 Y1.3638 F150.00
G01 X5.9390 Y1.3643 F150.00
G01 X6.0329 Y1.3697 F150.00
G01 X6.0684 Y1.3737 F150.00
G01 X6.1683 Y1.3911 F150.00
G01 X6.2032 Y1.3992 F150.00
G01 X6.2933 Y1.4257 F150.00
G01 X6.3103 Y1.4312 F150.00
G01 X6.9898 Y1.6738 F150.00
G01 X7.0032 Y1.6790 F150.00
G01 X7.0735 Y1.7078 F150.00
G01 X7.0997 Y1.7200 F150.00
G01 X7.1724 Y1.7580 F150.00
G01 X7.1973 Y1.7726 F150.00
G01 X7.2611 Y1.8138 F150.00
G01 X7.2731 Y1.8219 F150.00
G01 X7.6174 Y2.0679 F150.00
G01 X7.6315 Y2.0786 F150.00
G01 X7.7041 Y2.1369 F150.00
G01 X7.7304 Y2.1606 F150.00
G01 X7.8011 Y2.2320 F150.00
G01 X7.8246 Y2.2585 F150.00
G01 X7.8822 Y2.3317 F150.00
G01 X7.8927 Y2.3459 F150.00
G01 X8.2342 Y2.8336 F150.00
G01 X8.2430 Y2.8469 F150.00
G01 X8.2874 Y2.9178 F150.00
G01 X8.3029 Y2.9455 F150.00
G01 X8.3428 Y3.0266 F150.00
G01 X8.3554 Y3.0558 F150.00
G01 X8.3869 Y3.1405 F150.00
G01 X8.3965 Y3.1708 F150.00
G01 X8.4192 Y3.2582 F150.00
G01 X8.4257 Y3.2894 F150.00
G01 X8.4394 Y3.3787 F150.00
G01 X8.4427 Y3.4103 F150.00
G01 X8.4469 Y3.4939 F150.00
G01 X8.4473 Y3.5098 F150.00
G01 X8.4473 Y4.2374 F150.00
G01 X8.4469 Y4.2533 F150.00
G01 X8.4427 Y4.3369 F150.00
G01 X8.4394 Y4.3685 F150.00
G01 X8.4257 Y4.4578 F150.00
G01 X8.4192 Y4.4890 F150.00
G01 X8.3965 Y4.5764 F150.00
G01 X8.3869 Y4.6068 F150.00
G01 X8.3554 Y4.6914 F150.00
G01 X8.3428 Y4.7207 F150.00
G01 X8.3029 Y4.8017 F150.00
G01 X8.2874 Y4.8295 F150.00
G01 X8.2430 Y4.9004 F150.00
G01 X8.2342 Y4.9136 F150.00
G01 X7.9087 Y5.3785 F150.00
G01 X7.9031 Y5.3880 F150.00
G01 X7.9001 Y5.3948 F150.00
G01 X7.8977 Y5.4023 F150.00
G01 X7.8962 Y5.4094 F150.00
G01 X7.8953 Y5.4169 F150.00
G01 X7.8952 Y5.4242 F150.00
G01 X7.8959 Y5.4321 F150.00
G01 X7.8972 Y5.4389 F150.00
G01 X7.8994 Y5.4463 F150.00
G01 X7.9022 Y5.4532 F150.00
G01 X7.9055 Y5.4595 F150.00
G01 X7.9540 Y5.5368 F150.00
G01 X7.9695 Y5.5646 F150.00
G01 X8.0095 Y5.6456 F150.00
G01 X8.0221 Y5.6748 F150.00
G01 X8.0536 Y5.7595 F150.00
G01 X8.0632 Y5.7899 F150.00
G01 X8.0859 Y5.8773 F150.00
G01 X8.0923 Y5.9084 F150.00
G01 X8.1061 Y5.9977 F150.00
G01 X8.1093 Y6.0294 F150.00
G01 X8.1136 Y6.1129 F150.00
G01 X8.1140 Y6.1288 F150.00
G01 X8.1140 Y6.6184 F150.00
G01 X8.1136 Y6.6343 F150.00
G01 X8.1093 Y6.7179 F150.00
G01 X8.1061 Y6.7495 F150.00
G01 X8.0923 Y6.8388 F150.00
G01 X8.0859 Y6.8699 F150.00
G01 X8.0794 Y6.8954 F150.00
G01 X8.0784 Y6.9021 F150.00
G01 X8.0779 Y6.9103 F150.00
G01 X8.0782 Y6.9171 F150.00
G01 X8.0792 Y6.9238 F150.00
G01 X8.0811 Y6.9319 F150.00
G01 X8.0835 Y6.9386 F150.00
G01 X8.0861 Y6.9443 F150.00
G01 X8.0907 Y6.9522 F150.00
G01 X8.0948 Y6.9576 F150.00
G01 X8.0996 Y6.9630 F150.00
G01 X8.1045 Y6.9675 F150.00
G01 X8.1110 Y6.9725 F150.00
G01 X8.1172 Y6.9762 F150.00
G01 X8.1238 Y6.9794 F150.00
G01 X8.1312 Y6.9821 F150.00
G01 X8.1380 Y6.9838 F150.00
G01 X8.1456 Y6.9849 F150.00
G01 X8.1522 Y6.9853 F150.00
G01 X8.1604 Y6.9849 F150.00
G01 X8.1672 Y6.9839 F150.00
G01 X8.1742 Y6.9822 F150.00
G01 X8.1815 Y6.9796 F150.00
G01 X8.1881 Y6.9765 F150.00
G01 X8.1948 Y6.9725 F150.00
G01 X8.2003 Y6.9684 F150.00
G01 X8.2060 Y6.9633 F150.00
G01 X8.2111 Y6.9576 F150.00
G01 X8.2151 Y6.9522 F150.00
G01 X8.2405 Y6.9100 F150.00
G01 X8.2575 Y6.8845 F150.00
G01 X8.3095 Y6.8145 F150.00
G01 X8.3289 Y6.7908 F150.00
G01 X8.3874 Y6.7262 F150.00
G01 X8.4091 Y6.7045 F150.00
G01 X8.4737 Y6.6460 F150.00
G01 X8.4974 Y6.6266 F150.00
G01 X8.5674 Y6.5746 F150.00
G01 X8.5929 Y6.5576 F150.00
G01 X8.6677 Y6.5128 F150.00
G01 X8.6947 Y6.4983 F150.00
G01 X8.7735 Y6.4611 F150.00
G01 X8.8019 Y6.4493 F150.00
G01 X8.8839 Y6.4200 F150.00
G01 X8.9133 Y6.4111 F150.00
G01 X8.9978 Y6.3899 F150.00
G01 X9.0279 Y6.3839 F150.00
G01 X9.1141 Y6.3711 F150.00
G01 X9.1446 Y6.3681 F150.00
G01 X9.2252 Y6.3642 F150.00
G01 X9.2406 Y6.3638 F150.00
G01 X9.9758 Y6.3637 F150.00
G01 X9.9825 Y6.3630 F150.00
G01 X9.9902 Y6.3615 F150.00
G01 X9.9968 Y6.3594 F150.00
G01 X10.0036 Y6.3567 F150.00
G01 X10.0100 Y6.3533 F150.00
G01 X10.0167 Y6.3488 F150.00
G01 X10.0219 Y6.3445 F150.00
G01 X10.0274 Y6.3390 F150.00
G01 X10.0317 Y6.3338 F150.00
G01 X10.0363 Y6.3269 F150.00
G01 X10.0393 Y6.3212 F150.00
G01 X10.0421 Y6.3145 F150.00
G01 X10.0446 Y6.3065 F150.00
G01 X10.0459 Y6.2996 F150.00
G01 X10.0467 Y6.2888 F150.00
G01 X10.0467 Y2.5577 F150.00
G01 X10.0471 Y2.5423 F150.00
G01 X10.0510 Y2.4617 F150.00
G01 X10.0540 Y2.4312 F150.00
G01 X10.0668 Y2.3450 F150.00
G01 X10.0728 Y2.3149 F150.00
G01 X10.0940 Y2.2304 F150.00
G01 X10.1029 Y2.2010 F150.00
G01 X10.1322 Y2.1190 F150.00
G01 X10.1440 Y2.0906 F150.00
G01 X10.1812 Y2.0118 F150.00
G01 X10.1957 Y1.9848 F150.00
G01 X10.2405 Y1.9100 F150.00
G01 X10.2575 Y1.8845 F150.00
G01 X10.3095 Y1.8145 F150.00
G01 X10.3289 Y1.7908 F150.00
G01 X10.3874 Y1.7262 F150.00
G01 X10.4091 Y1.7045 F150.00
G01 X10.4737 Y1.6460 F150.00
G01 X10.4974 Y1.6266 F150.00
G01 X10.5674 Y1.5746 F150.00
G01 X10.5929 Y1.5576 F150.00
G01 X10.6677 Y1.5128 F150.00
G01 X10.6947 Y1.4983 F150.00
G01 X10.7735 Y1.4611 F150.00
G01 X10.8019 Y1.4493 F150.00
G01 X10.8839 Y1.4200 F150.00
G01 X10.9133 Y1.4111 F150.00
G01 X10.9978 Y1.3899 F150.00
G01 X11.0279 Y1.3839 F150.00
G01 X11.1141 Y1.3711 F150.00
G01 X11.1446 Y1.3681 F150.00
G01 X11.2317 Y1.3638 F150.00
G01 X11.2623 Y1.3638 F150.00
G01 X11.3494 Y1.3681 F150.00
G01 X11.3799 Y1.3711 F150.00
G01 X11.4661 Y1.3839 F150.00
G01 X11.4962 Y1.3899 F150.00
G01 X11.5807 Y1.4111 F150.00
G01 X11.6101 Y1.4200 F150.00
G01 X11.6921 Y1.4493 F150.00
G01 X11.7205 Y1.4611 F150.00
G01 X11.7993 Y1.4983 F150.00
G01 X11.8263 Y1.5128 F150.00
G01 X11.9011 Y1.5576 F150.00
G01 X11.9266 Y1.5746 F150.00
G01 X11.9966 Y1.6266 F150.00
G01 X12.0203 Y1.6460 F150.00
G01 X12.0849 Y1.7045 F150.00
G01 X12.1066 Y1.7262 F150.00
G01 X12.1651 Y1.7908 F150.00
G01 X12.1845 Y1.8145 F150.00
G01 X12.2365 Y1.8845 F150.00
G01 X12.2535 Y1.9100 F150.00
G01 X12.2983 Y1.9848 F150.00
G01 X12.3128 Y2.0118 F150.00
G01 X12.3500 Y2.0906 F150.00
G01 X12.3618 Y2.1190 F150.00
G01 X12.3911 Y2.2010 F150.00
G01 X12.4000 Y2.2304 F150.00
G01 X12.4212 Y2.3149 F150.00
G01 X12.4272 Y2.3450 F150.00
G01 X12.4400 Y2.4312 F150.00
G01 X12.4430 Y2.4617 F150.00
G01 X12.4469 Y2.5423 F150.00
G01 X12.4473 Y2.5577 F150.00
G01 X12.4473 Y6.2888 F150.00
G01 X12.4481 Y6.2996 F150.00
G01 X12.4494 Y6.3065 F150.00
G01 X12.4519 Y6.3145 F150.00
G01 X12.4547 Y6.3212 F150.00
G01 X12.4577 Y6.3269 F150.00
G01 X12.4623 Y6.3338 F150.00
G01 X12.4666 Y6.3390 F150.00
G01 X12.4721 Y6.3445 F150.00
G01 X12.4773 Y6.3488 F150.00
G01 X12.4840 Y6.3533 F150.00
G01 X12.4904 Y6.3567 F150.00
G01 X12.4972 Y6.3594 F150.00
G01 X12.5038 Y6.3615 F150.00
G01 X12.5115 Y6.3630 F150.00
G01 X12.5182 Y6.3637 F150.00
G01 X13.2534 Y6.3638 F150.00
G01 X13.2688 Y6.3642 F150.00
G01 X13.3494 Y6.3681 F150.00
G01 X13.3799 Y6.3711 F150.00
G01 X13.4661 Y6.3839 F150.00
G01 X13.4962 Y6.3899 F150.00
G01 X13.5807 Y6.4111 F150.00
G01 X13.6101 Y6.4200 F150.00
G01 X13.6921 Y6.4493 F150.00
G01 X13.7205 Y6.4611 F150.00
G01 X13.7993 Y6.4983 F150.00
G01 X13.8263 Y6.5128 F150.00
G01 X13.9011 Y6.5576 F150.00
G01 X13.9266 Y6.5746 F150.00
G01 X13.9966 Y6.6266 F150.00
G01 X14.0203 Y6.6460 F150.00
G01 X14.0849 Y6.7045 F150.00
G01 X14.1066 Y6.7262 F150.00
G01 X14.1651 Y6.7908 F150.00
G01 X14.1845 Y6.8145 F150.00
G01 X14.2365 Y6.8845 F150.00
G01 X14.2535 Y6.9100 F150.00
G01 X14.2983 Y6.9848 F150.00
G01 X14.3128 Y7.0118 F150.00
G01 X14.3500 Y7.0906 F150.00
G01 X14.3618 Y7.1190 F150.00
G01 X14.3911 Y7.2010 F150.00
G01 X14.4000 Y7.2304 F150.00
G01 X14.4212 Y7.3149 F150.00
G01 X14.4272 Y7.3450 F150.00
G01 X14.4400 Y7.4312 F150.00
G01 X14.4430 Y7.4617 F150.00
G01 X14.4473 Y7.5488 F150.00
G01 X14.4473 Y7.5794 F150.00
G01 X14.4430 Y7.6665 F150.00
G01 X14.4400 Y7.6970 F150.00
G01 X14.4272 Y7.7832 F150.00
G01 X14.4212 Y7.8133 F150.00
G01 X14.4000 Y7.8978 F150.00
G01 X14.3911 Y7.9272 F150.00
G01 X14.3618 Y8.0092 F150.00
G01 X14.3500 Y8.0376 F150.00
G01 X14.3128 Y8.1164 F150.00
G01 X14.2983 Y8.1434 F150.00
G01 X14.2535 Y8.2182 F150.00
G01 X14.2365 Y8.2437 F150.00
G01 X14.1845 Y8.3137 F150.00
G01 X14.1651 Y8.3374 F150.00
G01 X14.1066 Y8.4020 F150.00
G01 X14.0849 Y8.4237 F150.00
G01 X14.0203 Y8.4822 F150.00
G01 X13.9966 Y8.5016 F150.00
G01 X13.9266 Y8.5535 F150.00
G01 X13.9011 Y8.5706 F150.00
G01 X13.8263 Y8.6154 F150.00
G01 X13.7993 Y8.6299 F150.00
G01 X13.7205 Y8.6671 F150.00
G01 X13.6921 Y8.6789 F150.00
G01 X13.6101 Y8.7082 F150.00
G01 X13.5807 Y8.7171 F150.00
G01 X13.4962 Y8.7383 F150.00
G01 X13.4661 Y8.7443 F150.00
G01 X13.3799 Y8.7571 F150.00
G01 X13.3494 Y8.7601 F150.00
G01 X13.2688 Y8.7640 F150.00
G01 X13.2534 Y8.7644 F150.00
G01 X9.2406 Y8.7644 F150.00
G01 X9.2252 Y8.7640 F150.00
G01 X9.1446 Y8.7601 F150.00
G01 X9.1141 Y8.7571 F150.00
G01 X9.0279 Y8.7443 F150.00
G01 X8.9978 Y8.7383 F150.00
G01 X8.9133 Y8.7171 F150.00
G01 X8.8839 Y8.7082 F150.00
G01 X8.8019 Y8.6789 F150.00
G01 X8.7735 Y8.6671 F150.00
G01 X8.6947 Y8.6299 F150.00
G01 X8.6677 Y8.6154 F150.00
G01 X8.5929 Y8.5706 F150.00
G01 X8.5674 Y8.5535 F150.00
G01 X8.4974 Y8.5016 F150.00
G01 X8.4737 Y8.4822 F150.00
G01 X8.4091 Y8.4237 F150.00
G01 X8.3874 Y8.4020 F150.00
G01 X8.3289 Y8.3374 F150.00
G01 X8.3095 Y8.3137 F150.00
G01 X8.2575 Y8.2437 F150.00
G01 X8.2405 Y8.2182 F150.00
G01 X8.1957 Y8.1434 F150.00
G01 X8.1812 Y8.1164 F150.00
G01 X8.1440 Y8.0376 F150.00
G01 X8.1322 Y8.0092 F150.00
G01 X8.1029 Y7.9272 F150.00
G01 X8.0940 Y7.8978 F150.00
G01 X8.0728 Y7.8133 F150.00
G01 X8.0668 Y7.7832 F150.00
G01 X8.0540 Y7.6970 F150.00
G01 X8.0510 Y7.6665 F150.00
G01 X8.0467 Y7.5794 F150.00
G01 X8.0467 Y7.5488 F150.00
G01 X8.0510 Y7.4617 F150.00
G01 X8.0540 Y7.4312 F150.00
G01 X8.0668 Y7.3450 F150.00
G01 X8.0728 Y7.3149 F150.00
G01 X8.0812 Y7.2810 F150.00
G01 X8.0824 Y7.2728 F150.00
G01 X8.0827 Y7.2660 F150.00
G01 X8.0824 Y7.2591 F150.00
G01 X8.0815 Y7.2522 F150.00
G01 X8.0795 Y7.2443 F150.00
G01 X8.0770 Y7.2372 F150.00
G01 X8.0744 Y7.2316 F150.00
G01 X8.0699 Y7.2241 F150.00
G01 X8.0663 Y7.2191 F150.00
G01 X8.0608 Y7.2130 F150.00
G01 X8.0561 Y7.2087 F150.00
G01 X8.0498 Y7.2039 F150.00
G01 X8.0440 Y7.2003 F150.00
G01 X8.0369 Y7.1969 F150.00
G01 X8.0304 Y7.1945 F150.00
G01 X8.0234 Y7.1926 F150.00
G01 X8.0160 Y7.1915 F150.00
G01 X8.0084 Y7.1910 F150.00
G01 X8.0016 Y7.1912 F150.00
G01 X7.9941 Y7.1922 F150.00
G01 X7.9873 Y7.1938 F150.00
G01 X7.9798 Y7.1964 F150.00
G01 X7.9731 Y7.1995 F150.00
G01 X7.9672 Y7.2029 F150.00
G01 X7.9619 Y7.2066 F150.00
G01 X7.9554 Y7.2123 F150.00
G01 X7.9508 Y7.2172 F150.00
G01 X7.9460 Y7.2234 F150.00
G01 X7.9096 Y7.2813 F150.00
G01 X7.9008 Y7.2946 F150.00
G01 X7.5594 Y7.7823 F150.00
G01 X7.5488 Y7.7965 F150.00
G01 X7.4912 Y7.8697 F150.00
G01 X7.4678 Y7.8962 F150.00
G01 X7.3970 Y7.9676 F150.00
G01 X7.3707 Y7.9913 F150.00
G01 X7.2982 Y8.0496 F150.00
G01 X7.2840 Y8.0603 F150.00
G01 X6.9397 Y8.3063 F150.00
G01 X6.9278 Y8.3144 F150.00
G01 X6.8640 Y8.3556 F150.00
G01 X6.8391 Y8.3702 F150.00
G01 X6.7664 Y8.4082 F150.00
G01 X6.7402 Y8.4204 F150.00
G01 X6.6699 Y8.4492 F150.00
G01 X6.6564 Y8.4543 F150.00
G01 X5.9770 Y8.6970 F150.00
G01 X5.9600 Y8.7025 F150.00
G01 X5.8698 Y8.7290 F150.00
G01 X5.8350 Y8.7371 F150.00
G01 X5.7350 Y8.7545 F150.00
G01 X5.6995 Y8.7585 F150.00
G01 X5.6057 Y8.7639 F150.00
G01 X5.5878 Y8.7644 F150.00
G01 X3.2406 Y8.7644 F150.00
G01 X3.2252 Y8.7640 F150.00
G01 X3.1446 Y8.7601 F150.00
G01 X3.1141 Y8.7571 F150.00
G01 X3.0279 Y8.7443 F150.00
G01 X2.9978 Y8.7383 F150.00
G01 X2.9133 Y8.7171 F150.00
G01 X2.8839 Y8.7082 F150.00
G01 X2.8019 Y8.6789 F150.00
G01 X2.7735 Y8.6671 F150.00
G01 X2.6947 Y8.6299 F150.00
G01 X2.6677 Y8.6154 F150.00
G01 X2.5929 Y8.5706 F150.00
G01 X2.5674 Y8.5535 F150.00
G01 X2.4974 Y8.5016 F150.00
G01 X2.4737 Y8.4822 F150.00
G01 X2.4091 Y8.4237 F150.00
G01 X2.3874 Y8.4020 F150.00
G01 X2.3289 Y8.3374 F150.00
G01 X2.3095 Y8.3137 F150.00
G01 X2.2575 Y8.2437 F150.00
G01 X2.2405 Y8.2182 F150.00
G01 X2.1957 Y8.1434 F150.00
G01 X2.1812 Y8.1164 F150.00
G01 X2.1440 Y8.0376 F150.00
G01 X2.1322 Y8.0092 F150.00
G01 X2.1029 Y7.9272 F150.00
G01 X2.0940 Y7.8978 F150.00
G01 X2.0728 Y7.8133 F150.00
G01 X2.0668 Y7.7832 F150.00
G01 X2.0540 Y7.6970 F150.00
G01 X2.0510 Y7.6665 F150.00
G01 X2.0471 Y7.5859 F150.00
G01 X2.0467 Y7.5705 F150.00
G00 Z2.0000
G00 X8.1108 Y7.1006
G01 F60.00
G01 Z-0.2858
G01 F150.00
G01 X8.1223 Y7.1083 F150.00
G01 X8.1286 Y7.1131 F150.00
G01 X8.1420 Y7.1246 F150.00
G01 X8.1557 Y7.1391 F150.00
G01 X8.1666 Y7.1530 F150.00
G01 X8.1732 Y7.1630 F150.00
G01 X8.1777 Y7.1705 F150.00
G01 X8.1832 Y7.1811 F150.00
G01 X8.1900 Y7.1968 F150.00
G01 X8.1925 Y7.2039 F150.00
G01 X8.1961 Y7.2159 F150.00
G01 X8.1980 Y7.2238 F150.00
G01 X8.2013 Y7.2426 F150.00
G01 X8.2023 Y7.2537 F150.00
G01 X8.2026 Y7.2715 F150.00
G01 X8.2011 Y7.2903 F150.00
G01 X8.1982 Y7.3075 F150.00
G01 X8.1899 Y7.3412 F150.00
G01 X8.1851 Y7.3655 F150.00
G01 X8.1732 Y7.4459 F150.00
G01 X8.1707 Y7.4705 F150.00
G01 X8.1667 Y7.5517 F150.00
G01 X8.1667 Y7.5765 F150.00
G01 X8.1707 Y7.6576 F150.00
G01 X8.1732 Y7.6823 F150.00
G01 X8.1851 Y7.7627 F150.00
G01 X8.1899 Y7.7870 F150.00
G01 X8.2097 Y7.8658 F150.00
G01 X8.2169 Y7.8895 F150.00
G01 X8.2442 Y7.9660 F150.00
G01 X8.2537 Y7.9889 F150.00
G01 X8.2885 Y8.0624 F150.00
G01 X8.3001 Y8.0843 F150.00
G01 X8.3419 Y8.1539 F150.00
G01 X8.3557 Y8.1746 F150.00
G01 X8.4041 Y8.2398 F150.00
G01 X8.4198 Y8.2590 F150.00
G01 X8.4744 Y8.3192 F150.00
G01 X8.4919 Y8.3367 F150.00
G01 X8.5521 Y8.3913 F150.00
G01 X8.5713 Y8.4070 F150.00
G01 X8.6365 Y8.4554 F150.00
G01 X8.6572 Y8.4692 F150.00
G01 X8.7268 Y8.5110 F150.00
G01 X8.7487 Y8.5226 F150.00
G01 X8.8222 Y8.5574 F150.00
G01 X8.8451 Y8.5669 F150.00
G01 X8.9216 Y8.5942 F150.00
G01 X8.9453 Y8.6014 F150.00
G01 X9.0241 Y8.6212 F150.00
G01 X9.0484 Y8.6260 F150.00
G01 X9.1288 Y8.6379 F150.00
G01 X9.1535 Y8.6404 F150.00
G01 X9.2296 Y8.6441 F150.00
G01 X9.2420 Y8.6444 F150.00
G01 X13.2520 Y8.6444 F150.00
G01 X13.2644 Y8.6441 F150.00
G01 X13.3405 Y8.6404 F150.00
G01 X13.3652 Y8.6379 F150.00
G01 X13.4456 Y8.6260 F150.00
G01 X13.4699 Y8.6212 F150.00
G01 X13.5487 Y8.6014 F150.00
G01 X13.5724 Y8.5942 F150.00
G01 X13.6489 Y8.5669 F150.00
G01 X13.6718 Y8.5574 F150.00
G01 X13.7453 Y8.5226 F150.00
G01 X13.7672 Y8.5110 F150.00
G01 X13.8368 Y8.4692 F150.00
G01 X13.8575 Y8.4554 F150.00
G01 X13.9227 Y8.4070 F150.00
G01 X13.9419 Y8.3913 F150.00
G01 X14.0021 Y8.3367 F150.00
G01 X14.0196 Y8.3192 F150.00
G01 X14.0742 Y8.2590 F150.00
G01 X14.0899 Y8.2398 F150.00
G01 X14.1383 Y8.1746 F150.00
G01 X14.1521 Y8.1539 F150.00
G01 X14.1939 Y8.0843 F150.00
G01 X14.2055 Y8.0624 F150.00
G01 X14.2403 Y7.9889 F150.00
G01 X14.2498 Y7.9660 F150.00
G01 X14.2771 Y7.8895 F150.00
G01 X14.2843 Y7.8658 F150.00
G01 X14.3041 Y7.7870 F150.00
G01 X14.3089 Y7.7627 F150.00
G01 X14.3208 Y7.6823 F150.00
G01 X14.3233 Y7.6576 F150.00
G01 X14.3273 Y7.5765 F150.00
G01 X14.3273 Y7.5517 F150.00
G01 X14.3233 Y7.4705 F150.00
G01 X14.3208 Y7.4459 F150.00
G01 X14.3089 Y7.3655 F150.00
G01 X14.3041 Y7.3412 F150.00
G01 X14.2843 Y7.2624 F150.00
G01 X14.2771 Y7.2387 F150.00
G01 X14.2498 Y7.1622 F150.00
G01 X14.2403 Y7.1392 F150.00
G01 X14.2055 Y7.0658 F150.00
G01 X14.1939 Y7.0439 F150.00
G01 X14.1521 Y6.9742 F150.00
G01 X14.1383 Y6.9536 F150.00
G01 X14.0899 Y6.8884 F150.00
G01 X14.0742 Y6.8692 F150.00
G01 X14.0196 Y6.8090 F150.00
G01 X14.0021 Y6.7915 F150.00
G01 X13.9419 Y6.7369 F150.00
G01 X13.9227 Y6.7212 F150.00
G01 X13.8575 Y6.6728 F150.00
G01 X13.8368 Y6.6590 F150.00
G01 X13.7672 Y6.6172 F150.00
G01 X13.7453 Y6.6056 F150.00
G01 X13.6718 Y6.5708 F150.00
G01 X13.6489 Y6.5613 F150.00
G01 X13.5724 Y6.5340 F150.00
G01 X13.5487 Y6.5268 F150.00
G01 X13.4699 Y6.5070 F150.00
G01 X13.4456 Y6.5022 F150.00
G01 X13.3652 Y6.4903 F150.00
G01 X13.3405 Y6.4878 F150.00
G01 X13.2644 Y6.4841 F150.00
G01 X13.2520 Y6.4838 F150.00
G01 X12.5223 Y6.4838 F150.00
G01 X12.5150 Y6.4836 F150.00
G01 X12.4996 Y6.4824 F150.00
G01 X12.4803 Y6.4791 F150.00
G01 X12.4688 Y6.4763 F150.00
G01 X12.4515 Y6.4704 F150.00
G01 X12.4447 Y6.4676 F150.00
G01 X12.4278 Y6.4593 F150.00
G01 X12.4173 Y6.4530 F150.00
G01 X12.4010 Y6.4414 F150.00
G01 X12.3872 Y6.4293 F150.00
G01 X12.3818 Y6.4239 F150.00
G01 X12.3697 Y6.4101 F150.00
G01 X12.3625 Y6.4004 F150.00
G01 X12.3518 Y6.3834 F150.00
G01 X12.3441 Y6.3678 F150.00
G01 X12.3413 Y6.3611 F150.00
G01 X12.3370 Y6.3493 F150.00
G01 X12.3346 Y6.3413 F150.00
G01 X12.3303 Y6.3224 F150.00
G01 X12.3280 Y6.3048 F150.00
G01 X12.3273 Y6.2888 F150.00
G01 X12.3273 Y2.5591 F150.00
G01 X12.3270 Y2.5467 F150.00
G01 X12.3233 Y2.4705 F150.00
G01 X12.3208 Y2.4459 F150.00
G01 X12.3089 Y2.3655 F150.00
G01 X12.3041 Y2.3412 F150.00
G01 X12.2843 Y2.2624 F150.00
G01 X12.2771 Y2.2387 F150.00
G01 X12.2498 Y2.1622 F150.00
G01 X12.2403 Y2.1392 F150.00
G01 X12.2055 Y2.0658 F150.00
G01 X12.1939 Y2.0439 F150.00
G01 X12.1521 Y1.9742 F150.00
G01 X12.1383 Y1.9536 F150.00
G01 X12.0899 Y1.8884 F150.00
G01 X12.0742 Y1.8692 F150.00
G01 X12.0196 Y1.8090 F150.00
G01 X12.0021 Y1.7915 F150.00
G01 X11.9419 Y1.7369 F150.00
G01 X11.9227 Y1.7212 F150.00
G01 X11.8575 Y1.6728 F150.00
G01 X11.8368 Y1.6590 F150.00
G01 X11.7672 Y1.6172 F150.00
G01 X11.7453 Y1.6056 F150.00
G01 X11.6718 Y1.5708 F150.00
G01 X11.6489 Y1.5613 F150.00
G01 X11.5724 Y1.5340 F150.00
G01 X11.5487 Y1.5268 F150.00
G01 X11.4699 Y1.5070 F150.00
G01 X11.4456 Y1.5022 F150.00
G01 X11.3652 Y1.4903 F150.00
G01 X11.3405 Y1.4878 F150.00
G01 X11.2594 Y1.4838 F150.00
G01 X11.2346 Y1.4838 F150.00
G01 X11.1535 Y1.4878 F150.00
G01 X11.1288 Y1.4903 F150.00
G01 X11.0484 Y1.5022 F150.00
G01 X11.0241 Y1.5070 F150.00
G01 X10.9453 Y1.5268 F150.00
G01 X10.9216 Y1.5340 F150.00
G01 X10.8451 Y1.5613 F150.00
G01 X10.8222 Y1.5708 F150.00
G01 X10.7487 Y1.6056 F150.00
G01 X10.7268 Y1.6172 F150.00
G01 X10.6572 Y1.6590 F150.00
G01 X10.6365 Y1.6728 F150.00
G01 X10.5713 Y1.7212 F150.00
G01 X10.5521 Y1.7369 F150.00
G01 X10.4919 Y1.7915 F150.00
G01 X10.4744 Y1.8090 F150.00
G01 X10.4198 Y1.8692 F150.00
G01 X10.4041 Y1.8884 F150.00
G01 X10.3557 Y1.9536 F150.00
G01 X10.3419 Y1.9742 F150.00
G01 X10.3001 Y2.0439 F150.00
G01 X10.2885 Y2.0658 F150.00
G01 X10.2537 Y2.1392 F150.00
G01 X10.2442 Y2.1622 F150.00
G01 X10.2169 Y2.2387 F150.00
G01 X10.2097 Y2.2624 F150.00
G01 X10.1899 Y2.3412 F150.00
G01 X10.1851 Y2.3655 F150.00
G01 X10.1732 Y2.4459 F150.00
G01 X10.1707 Y2.4705 F150.00
G01 X10.1670 Y2.5467 F150.00
G01 X10.1667 Y2.5591 F150.00
G01 X10.1667 Y6.2888 F150.00
G01 X10.1660 Y6.3048 F150.00
G01 X10.1637 Y6.3224 F150.00
G01 X10.1594 Y6.3413 F150.00
G01 X10.1570 Y6.3493 F150.00
G01 X10.1527 Y6.3611 F150.00
G01 X10.1452 Y6.3777 F150.00
G01 X10.1361 Y6.3934 F150.00
G01 X10.1315 Y6.4004 F150.00
G01 X10.1200 Y6.4153 F150.00
G01 X10.1122 Y6.4239 F150.00
G01 X10.0982 Y6.4371 F150.00
G01 X10.0834 Y6.4485 F150.00
G01 X10.0767 Y6.4530 F150.00
G01 X10.0598 Y6.4627 F150.00
G01 X10.0493 Y6.4676 F150.00
G01 X10.0318 Y6.4742 F150.00
G01 X10.0137 Y6.4791 F150.00
G01 X10.0060 Y6.4807 F150.00
G01 X9.9877 Y6.4831 F150.00
G01 X9.9717 Y6.4838 F150.00
G01 X9.2420 Y6.4838 F150.00
G01 X9.2296 Y6.4841 F150.00
G01 X9.1535 Y6.4878 F150.00
G01 X9.1288 Y6.4903 F150.00
G01 X9.0484 Y6.5022 F150.00
G01 X9.0241 Y6.5070 F150.00
G01 X8.9453 Y6.5268 F150.00
G01 X8.9216 Y6.5340 F150.00
G01 X8.8451 Y6.5613 F150.00
G01 X8.8222 Y6.5708 F150.00
G01 X8.7487 Y6.6056 F150.00
G01 X8.7268 Y6.6172 F150.00
G01 X8.6572 Y6.6590 F150.00
G01 X8.6365 Y6.6728 F150.00
G01 X8.5713 Y6.7212 F150.00
G01 X8.5521 Y6.7369 F150.00
G01 X8.4919 Y6.7915 F150.00
G01 X8.4744 Y6.8090 F150.00
G01 X8.4198 Y6.8692 F150.00
G01 X8.4041 Y6.8884 F150.00
G01 X8.3557 Y6.9536 F150.00
G01 X8.3419 Y6.9742 F150.00
G01 X8.3164 Y7.0166 F150.00
G01 X8.3075 Y7.0291 F150.00
G01 X8.2950 Y7.0437 F150.00
G01 X8.2864 Y7.0524 F150.00
G01 X8.2807 Y7.0575 F150.00
G01 X8.2663 Y7.0688 F150.00
G01 X8.2498 Y7.0794 F150.00
G01 X8.2325 Y7.0882 F150.00
G01 X8.2142 Y7.0953 F150.00
G01 X8.1958 Y7.1004 F150.00
G01 X8.1778 Y7.1036 F150.00
G01 X8.1577 Y7.1051 F150.00
G01 X8.1392 Y7.1047 F150.00
G01 X8.1277 Y7.1036 F150.00
G01 X8.1108 Y7.1006 F150.00
G01 X8.3113 Y7.1824 F150.00
G01 X8.3159 Y7.2013 F150.00
G01 X8.3201 Y7.2261 F150.00
G01 X8.3222 Y7.2482 F150.00
G01 X8.3226 Y7.2605 F150.00
G01 X8.3225 Y7.2770 F150.00
G01 X8.3206 Y7.3018 F150.00
G01 X8.3187 Y7.3159 F150.00
G01 X8.3153 Y7.3341 F150.00
G01 X8.3070 Y7.3675 F150.00
G01 X8.3034 Y7.3860 F150.00
G01 X8.2923 Y7.4606 F150.00
G01 X8.2904 Y7.4794 F150.00
G01 X8.2867 Y7.5546 F150.00
G01 X8.2867 Y7.5735 F150.00
G01 X8.2904 Y7.6488 F150.00
G01 X8.2923 Y7.6676 F150.00
G01 X8.3034 Y7.7422 F150.00
G01 X8.3070 Y7.7607 F150.00
G01 X8.3254 Y7.8338 F150.00
G01 X8.3308 Y7.8519 F150.00
G01 X8.3562 Y7.9228 F150.00
G01 X8.3635 Y7.9403 F150.00
G01 X8.3957 Y8.0084 F150.00
G01 X8.4046 Y8.0251 F150.00
G01 X8.4433 Y8.0897 F150.00
G01 X8.4538 Y8.1054 F150.00
G01 X8.4987 Y8.1660 F150.00
G01 X8.5107 Y8.1806 F150.00
G01 X8.5613 Y8.2364 F150.00
G01 X8.5747 Y8.2498 F150.00
G01 X8.6305 Y8.3004 F150.00
G01 X8.6451 Y8.3124 F150.00
G01 X8.7057 Y8.3573 F150.00
G01 X8.7214 Y8.3678 F150.00
G01 X8.7860 Y8.4065 F150.00
G01 X8.8027 Y8.4154 F150.00
G01 X8.8708 Y8.4476 F150.00
G01 X8.8883 Y8.4549 F150.00
G01 X8.9592 Y8.4803 F150.00
G01 X8.9773 Y8.4857 F150.00
G01 X9.0504 Y8.5041 F150.00
G01 X9.0689 Y8.5077 F150.00
G01 X9.1435 Y8.5188 F150.00
G01 X9.1623 Y8.5207 F150.00
G01 X9.2435 Y8.5244 F150.00
G01 X13.2505 Y8.5244 F150.00
G01 X13.3317 Y8.5207 F150.00
G01 X13.3505 Y8.5188 F150.00
G01 X13.4251 Y8.5077 F150.00
G01 X13.4436 Y8.5041 F150.00
G01 X13.5167 Y8.4857 F150.00
G01 X13.5348 Y8.4803 F150.00
G01 X13.6057 Y8.4549 F150.00
G01 X13.6232 Y8.4476 F150.00
G01 X13.6913 Y8.4154 F150.00
G01 X13.7080 Y8.4065 F150.00
G01 X13.7726 Y8.3678 F150.00
G01 X13.7883 Y8.3573 F150.00
G01 X13.8489 Y8.3124 F150.00
G01 X13.8635 Y8.3004 F150.00
G01 X13.9193 Y8.2498 F150.00
G01 X13.9327 Y8.2364 F150.00
G01 X13.9833 Y8.1806 F150.00
G01 X13.9953 Y8.1660 F150.00
G01 X14.0402 Y8.1054 F150.00
G01 X14.0507 Y8.0897 F150.00
G01 X14.0894 Y8.0251 F150.00
G01 X14.0983 Y8.0084 F150.00
G01 X14.1305 Y7.9403 F150.00
G01 X14.1378 Y7.9228 F150.00
G01 X14.1632 Y7.8519 F150.00
G01 X14.1686 Y7.8338 F150.00
G01 X14.1870 Y7.7607 F150.00
G01 X14.1906 Y7.7422 F150.00
G01 X14.2017 Y7.6676 F150.00
G01 X14.2036 Y7.6488 F150.00
G01 X14.2073 Y7.5735 F150.00
G01 X14.2073 Y7.5546 F150.00
G01 X14.2036 Y7.4794 F150.00
G01 X14.2017 Y7.4606 F150.00
G01 X14.1906 Y7.3860 F150.00
G01 X14.1870 Y7.3675 F150.00
G01 X14.1686 Y7.2944 F150.00
G01 X14.1632 Y7.2763 F150.00
G01 X14.1378 Y7.2054 F150.00
G01 X14.1305 Y7.1879 F150.00
G01 X14.0983 Y7.1198 F150.00
G01 X14.0894 Y7.1031 F150.00
G01 X14.0507 Y7.0385 F150.00
G01 X14.0402 Y7.0228 F150.00
G01 X13.9953 Y6.9622 F150.00
G01 X13.9833 Y6.9476 F150.00
G01 X13.9327 Y6.8918 F150.00
G01 X13.9193 Y6.8784 F150.00
G01 X13.8635 Y6.8278 F150.00
G01 X13.8489 Y6.8158 F150.00
G01 X13.7883 Y6.7709 F150.00
G01 X13.7726 Y6.7604 F150.00
G01 X13.7080 Y6.7217 F150.00
G01 X13.6913 Y6.7128 F150.00
G01 X13.6232 Y6.6806 F150.00
G01 X13.6057 Y6.6733 F150.00
G01 X13.5348 Y6.6479 F150.00
G01 X13.5167 Y6.6424 F150.00
G01 X13.4436 Y6.6241 F150.00
G01 X13.4251 Y6.6205 F150.00
G01 X13.3505 Y6.6094 F150.00
G01 X13.3317 Y6.6075 F150.00
G01 X13.2599 Y6.6040 F150.00
G01 X12.5174 Y6.6037 F150.00
G01 X12.4987 Y6.6028 F150.00
G01 X12.4819 Y6.6011 F150.00
G01 X12.4568 Y6.5968 F150.00
G01 X12.4396 Y6.5926 F150.00
G01 X12.4218 Y6.5872 F150.00
G01 X12.4058 Y6.5814 F150.00
G01 X12.3937 Y6.5762 F150.00
G01 X12.3716 Y6.5653 F150.00
G01 X12.3557 Y6.5560 F150.00
G01 X12.3439 Y6.5483 F150.00
G01 X12.3294 Y6.5377 F150.00
G01 X12.3151 Y6.5260 F150.00
G01 X12.2969 Y6.5087 F150.00
G01 X12.2851 Y6.4960 F150.00
G01 X12.2770 Y6.4863 F150.00
G01 X12.2661 Y6.4719 F150.00
G01 X12.2549 Y6.4550 F150.00
G01 X12.2460 Y6.4398 F150.00
G01 X12.2358 Y6.4194 F150.00
G01 X12.2307 Y6.4077 F150.00
G01 X12.2222 Y6.3841 F150.00
G01 X12.2181 Y6.3702 F150.00
G01 X12.2138 Y6.3521 F150.00
G01 X12.2116 Y6.3398 F150.00
G01 X12.2093 Y6.3234 F150.00
G01 X12.2077 Y6.3037 F150.00
G01 X12.2073 Y6.2904 F150.00
G01 X12.2073 Y2.5606 F150.00
G01 X12.2036 Y2.4794 F150.00
G01 X12.2017 Y2.4606 F150.00
G01 X12.1906 Y2.3860 F150.00
G01 X12.1870 Y2.3675 F150.00
G01 X12.1686 Y2.2944 F150.00
G01 X12.1632 Y2.2763 F150.00
G01 X12.1378 Y2.2054 F150.00
G01 X12.1305 Y2.1879 F150.00
G01 X12.0983 Y2.1198 F150.00
G01 X12.0894 Y2.1031 F150.00
G01 X12.0507 Y2.0385 F150.00
G01 X12.0402 Y2.0228 F150.00
G01 X11.9953 Y1.9622 F150.00
G01 X11.9833 Y1.9476 F150.00
G01 X11.9327 Y1.8918 F150.00
G01 X11.9193 Y1.8784 F150.00
G01 X11.8635 Y1.8278 F150.00
G01 X11.8489 Y1.8158 F150.00
G01 X11.7883 Y1.7709 F150.00
G01 X11.7726 Y1.7604 F150.00
G01 X11.7080 Y1.7217 F150.00
G01 X11.6913 Y1.7128 F150.00
G01 X11.6232 Y1.6806 F150.00
G01 X11.6057 Y1.6733 F150.00
G01 X11.5348 Y1.6479 F150.00
G01 X11.5167 Y1.6424 F150.00
G01 X11.4436 Y1.6241 F150.00
G01 X11.4251 Y1.6205 F150.00
G01 X11.3505 Y1.6094 F150.00
G01 X11.3317 Y1.6075 F150.00
G01 X11.2564 Y1.6038 F150.00
G01 X11.2376 Y1.6038 F150.00
G01 X11.1623 Y1.6075 F150.00
G01 X11.1435 Y1.6094 F150.00
G01 X11.0689 Y1.6205 F150.00
G01 X11.0504 Y1.6241 F150.00
G01 X10.9773 Y1.6424 F150.00
G01 X10.9592 Y1.6479 F150.00
G01 X10.8883 Y1.6733 F150.00
G01 X10.8708 Y1.6806 F150.00
G01 X10.8027 Y1.7128 F150.00
G01 X10.7860 Y1.7217 F150.00
G01 X10.7214 Y1.7604 F150.00
G01 X10.7057 Y1.7709 F150.00
G01 X10.6451 Y1.8158 F150.00
G01 X10.6305 Y1.8278 F150.00
G01 X10.5747 Y1.8784 F150.00
G01 X10.5613 Y1.8918 F150.00
G01 X10.5107 Y1.9476 F150.00
G01 X10.4987 Y1.9622 F150.00
G01 X10.4538 Y2.0228 F150.00
G01 X10.4433 Y2.0385 F150.00
G01 X10.4046 Y2.1031 F150.00
G01 X10.3957 Y2.1198 F150.00
G01 X10.3635 Y2.1879 F150.00
G01 X10.3562 Y2.2054 F150.00
G01 X10.3308 Y2.2763 F150.00
G01 X10.3254 Y2.2944 F150.00
G01 X10.3070 Y2.3675 F150.00
G01 X10.3034 Y2.3860 F150.00
G01 X10.2923 Y2.4606 F150.00
G01 X10.2904 Y2.4794 F150.00
G01 X10.2867 Y2.5606 F150.00
G01 X10.2866 Y6.2937 F150.00
G01 X10.2857 Y6.3124 F150.00
G01 X10.2840 Y6.3289 F150.00
G01 X10.2802 Y6.3521 F150.00
G01 X10.2759 Y6.3702 F150.00
G01 X10.2698 Y6.3901 F150.00
G01 X10.2633 Y6.4077 F150.00
G01 X10.2582 Y6.4194 F150.00
G01 X10.2480 Y6.4398 F150.00
G01 X10.2391 Y6.4550 F150.00
G01 X10.2314 Y6.4669 F150.00
G01 X10.2207 Y6.4816 F150.00
G01 X10.2089 Y6.4960 F150.00
G01 X10.1971 Y6.5087 F150.00
G01 X10.1789 Y6.5260 F150.00
G01 X10.1692 Y6.5341 F150.00
G01 X10.1550 Y6.5448 F150.00
G01 X10.1383 Y6.5560 F150.00
G01 X10.1224 Y6.5653 F150.00
G01 X10.1108 Y6.5713 F150.00
G01 X10.0950 Y6.5786 F150.00
G01 X10.0829 Y6.5834 F150.00
G01 X10.0601 Y6.5911 F150.00
G01 X10.0429 Y6.5955 F150.00
G01 X10.0237 Y6.5994 F150.00
G01 X9.9996 Y6.6025 F150.00
G01 X9.9866 Y6.6034 F150.00
G01 X9.9733 Y6.6038 F150.00
G01 X9.2435 Y6.6038 F150.00
G01 X9.1623 Y6.6075 F150.00
G01 X9.1435 Y6.6094 F150.00
G01 X9.0689 Y6.6205 F150.00
G01 X9.0504 Y6.6241 F150.00
G01 X8.9773 Y6.6424 F150.00
G01 X8.9592 Y6.6479 F150.00
G01 X8.8883 Y6.6733 F150.00
G01 X8.8708 Y6.6806 F150.00
G01 X8.8027 Y6.7128 F150.00
G01 X8.7860 Y6.7217 F150.00
G01 X8.7214 Y6.7604 F150.00
G01 X8.7057 Y6.7709 F150.00
G01 X8.6451 Y6.8158 F150.00
G01 X8.6305 Y6.8278 F150.00
G01 X8.5747 Y6.8784 F150.00
G01 X8.5613 Y6.8918 F150.00
G01 X8.5107 Y6.9476 F150.00
G01 X8.4987 Y6.9622 F150.00
G01 X8.4538 Y7.0228 F150.00
G01 X8.4433 Y7.0385 F150.00
G01 X8.4223 Y7.0736 F150.00
G01 X8.4153 Y7.0846 F150.00
G01 X8.4039 Y7.1006 F150.00
G01 X8.3892 Y7.1184 F150.00
G01 X8.3799 Y7.1286 F150.00
G01 X8.3712 Y7.1372 F150.00
G01 X8.3567 Y7.1503 F150.00
G01 X8.3378 Y7.1652 F150.00
G01 X8.3330 Y7.1686 F150.00
G01 X8.3233 Y7.1751 F150.00
G01 X8.3113 Y7.1824 F150.00
G01 X8.7851 Y6.8864 F150.00
G01 X8.7970 Y6.8783 F150.00
G01 X8.8571 Y6.8424 F150.00
G01 X8.8689 Y6.8363 F150.00
G01 X8.9243 Y6.8101 F150.00
G01 X8.9420 Y6.8028 F150.00
G01 X8.9998 Y6.7821 F150.00
G01 X9.0119 Y6.7782 F150.00
G01 X9.0835 Y6.7603 F150.00
G01 X9.0964 Y6.7579 F150.00
G01 X9.1635 Y6.7481 F150.00
G01 X9.1761 Y6.7470 F150.00
G01 X9.2446 Y6.7438 F150.00
G01 X10.4267 Y6.7438 F150.00
G01 X10.4267 Y2.5641 F150.00
G01 X10.4299 Y2.4932 F150.00
G01 X10.4309 Y2.4818 F150.00
G01 X10.4420 Y2.4065 F150.00
G01 X10.4445 Y2.3947 F150.00
G01 X10.4611 Y2.3290 F150.00
G01 X10.4650 Y2.3169 F150.00
G01 X10.4879 Y2.2532 F150.00
G01 X10.4930 Y2.2414 F150.00
G01 X10.5221 Y2.1801 F150.00
G01 X10.5283 Y2.1691 F150.00
G01 X10.5638 Y2.1101 F150.00
G01 X10.5704 Y2.1005 F150.00
G01 X10.6110 Y2.0461 F150.00
G01 X10.6191 Y2.0364 F150.00
G01 X10.6649 Y1.9862 F150.00
G01 X10.6739 Y1.9774 F150.00
G01 X10.7244 Y1.9318 F150.00
G01 X10.7341 Y1.9241 F150.00
G01 X10.7834 Y1.8875 F150.00
G01 X10.7993 Y1.8769 F150.00
G01 X10.8542 Y1.8440 F150.00
G01 X10.8689 Y1.8363 F150.00
G01 X10.9243 Y1.8101 F150.00
G01 X10.9358 Y1.8051 F150.00
G01 X10.9998 Y1.7821 F150.00
G01 X11.0181 Y1.7766 F150.00
G01 X11.0776 Y1.7616 F150.00
G01 X11.0898 Y1.7590 F150.00
G01 X11.1571 Y1.7489 F150.00
G01 X11.1696 Y1.7475 F150.00
G01 X11.2374 Y1.7440 F150.00
G01 X11.2499 Y1.7438 F150.00
G01 X11.3179 Y1.7470 F150.00
G01 X11.3339 Y1.7485 F150.00
G01 X11.3976 Y1.7579 F150.00
G01 X11.4099 Y1.7602 F150.00
G01 X11.4824 Y1.7783 F150.00
G01 X11.4942 Y1.7821 F150.00
G01 X11.5582 Y1.8051 F150.00
G01 X11.5697 Y1.8101 F150.00
G01 X11.6251 Y1.8363 F150.00
G01 X11.6400 Y1.8442 F150.00
G01 X11.6947 Y1.8769 F150.00
G01 X11.7106 Y1.8875 F150.00
G01 X11.7599 Y1.9241 F150.00
G01 X11.7696 Y1.9318 F150.00
G01 X11.8249 Y1.9820 F150.00
G01 X11.8336 Y1.9910 F150.00
G01 X11.8793 Y2.0416 F150.00
G01 X11.8870 Y2.0512 F150.00
G01 X11.9236 Y2.1005 F150.00
G01 X11.9342 Y2.1164 F150.00
G01 X11.9657 Y2.1691 F150.00
G01 X11.9748 Y2.1860 F150.00
G01 X12.0010 Y2.2414 F150.00
G01 X12.0061 Y2.2532 F150.00
G01 X12.0312 Y2.3233 F150.00
G01 X12.0345 Y2.3352 F150.00
G01 X12.0508 Y2.4007 F150.00
G01 X12.0532 Y2.4135 F150.00
G01 X12.0622 Y2.4742 F150.00
G01 X12.0641 Y2.4932 F150.00
G01 X12.0673 Y2.5641 F150.00
G01 X12.0673 Y6.7438 F150.00
G01 X13.2470 Y6.7438 F150.00
G01 X13.3247 Y6.7475 F150.00
G01 X13.3369 Y6.7489 F150.00
G01 X13.3976 Y6.7579 F150.00
G01 X13.4105 Y6.7603 F150.00
G01 X13.4759 Y6.7766 F150.00
G01 X13.4942 Y6.7821 F150.00
G01 X13.5520 Y6.8028 F150.00
G01 X13.5634 Y6.8073 F150.00
G01 X13.6251 Y6.8363 F150.00
G01 X13.6420 Y6.8454 F150.00
G01 X13.6974 Y6.8786 F150.00
G01 X13.7106 Y6.8875 F150.00
G01 X13.7654 Y6.9284 F150.00
G01 X13.7746 Y6.9362 F150.00
G01 X13.8249 Y6.9820 F150.00
G01 X13.8336 Y6.9910 F150.00
G01 X13.8791 Y7.0413 F150.00
G01 X13.8870 Y7.0512 F150.00
G01 X13.9236 Y7.1005 F150.00
G01 X13.9342 Y7.1164 F150.00
G01 X13.9692 Y7.1752 F150.00
G01 X13.9748 Y7.1860 F150.00
G01 X14.0010 Y7.2414 F150.00
G01 X14.0083 Y7.2591 F150.00
G01 X14.0290 Y7.3169 F150.00
G01 X14.0345 Y7.3352 F150.00
G01 X14.0495 Y7.3947 F150.00
G01 X14.0520 Y7.4066 F150.00
G01 X14.0622 Y7.4742 F150.00
G01 X14.0637 Y7.4876 F150.00
G01 X14.0671 Y7.5545 F150.00
G01 X14.0673 Y7.5670 F150.00
G01 X14.0641 Y7.6350 F150.00
G01 X14.0631 Y7.6464 F150.00
G01 X14.0520 Y7.7216 F150.00
G01 X14.0495 Y7.7335 F150.00
G01 X14.0328 Y7.7996 F150.00
G01 X14.0290 Y7.8113 F150.00
G01 X14.0061 Y7.8750 F150.00
G01 X14.0010 Y7.8868 F150.00
G01 X13.9720 Y7.9478 F150.00
G01 X13.9657 Y7.9591 F150.00
G01 X13.9342 Y8.0118 F150.00
G01 X13.9271 Y8.0227 F150.00
G01 X13.8870 Y8.0770 F150.00
G01 X13.8749 Y8.0917 F150.00
G01 X13.8336 Y8.1372 F150.00
G01 X13.8249 Y8.1462 F150.00
G01 X13.7746 Y8.1920 F150.00
G01 X13.7599 Y8.2041 F150.00
G01 X13.7106 Y8.2406 F150.00
G01 X13.7007 Y8.2475 F150.00
G01 X13.6420 Y8.2828 F150.00
G01 X13.6251 Y8.2919 F150.00
G01 X13.5634 Y8.3209 F150.00
G01 X13.5520 Y8.3254 F150.00
G01 X13.4942 Y8.3461 F150.00
G01 X13.4759 Y8.3516 F150.00
G01 X13.4105 Y8.3679 F150.00
G01 X13.3976 Y8.3703 F150.00
G01 X13.3369 Y8.3793 F150.00
G01 X13.3235 Y8.3808 F150.00
G01 X13.2470 Y8.3844 F150.00
G01 X9.2470 Y8.3844 F150.00
G01 X9.1761 Y8.3812 F150.00
G01 X9.1647 Y8.3802 F150.00
G01 X9.0964 Y8.3703 F150.00
G01 X9.0835 Y8.3679 F150.00
G01 X9.0119 Y8.3500 F150.00
G01 X8.9998 Y8.3461 F150.00
G01 X8.9420 Y8.3254 F150.00
G01 X8.9243 Y8.3181 F150.00
G01 X8.8689 Y8.2919 F150.00
G01 X8.8571 Y8.2858 F150.00
G01 X8.7933 Y8.2475 F150.00
G01 X8.7834 Y8.2406 F150.00
G01 X8.7341 Y8.2041 F150.00
G01 X8.7194 Y8.1920 F150.00
G01 X8.6739 Y8.1507 F150.00
G01 X8.6649 Y8.1420 F150.00
G01 X8.6149 Y8.0869 F150.00
G01 X8.6070 Y8.0770 F150.00
G01 X8.5704 Y8.0277 F150.00
G01 X8.5598 Y8.0118 F150.00
G01 X8.5248 Y7.9530 F150.00
G01 X8.5192 Y7.9422 F150.00
G01 X8.4930 Y7.8868 F150.00
G01 X8.4857 Y7.8691 F150.00
G01 X8.4650 Y7.8113 F150.00
G01 X8.4612 Y7.7996 F150.00
G01 X8.4431 Y7.7274 F150.00
G01 X8.4408 Y7.7147 F150.00
G01 X8.4318 Y7.6540 F150.00
G01 X8.4299 Y7.6350 F150.00
G01 X8.4269 Y7.5737 F150.00
G01 X8.4267 Y7.5612 F150.00
G01 X8.4303 Y7.4876 F150.00
G01 X8.4318 Y7.4742 F150.00
G01 X8.4408 Y7.4135 F150.00
G01 X8.4445 Y7.3947 F150.00
G01 X8.4595 Y7.3352 F150.00
G01 X8.4630 Y7.3230 F150.00
G01 X8.4879 Y7.2532 F150.00
G01 X8.4930 Y7.2414 F150.00
G01 X8.5192 Y7.1860 F150.00
G01 X8.5283 Y7.1691 F150.00
G01 X8.5598 Y7.1164 F150.00
G01 X8.5669 Y7.1055 F150.00
G01 X8.6112 Y7.0458 F150.00
G01 X8.6191 Y7.0364 F150.00
G01 X8.6604 Y6.9910 F150.00
G01 X8.6739 Y6.9774 F150.00
G01 X8.7248 Y6.9315 F150.00
G01 X8.7341 Y6.9241 F150.00
G01 X8.7851 Y6.8864 F150.00
G00 Z2.0000
G00 X8.8550 Y6.9840
G01 F60.00
G01 Z-0.2858
G01 F150.00
G01 X8.8610 Y6.9798 F150.00
G01 X8.9165 Y6.9467 F150.00
G01 X8.9756 Y6.9186 F150.00
G01 X8.9824 Y6.9158 F150.00
G01 X9.0438 Y6.8939 F150.00
G01 X9.1068 Y6.8780 F150.00
G01 X9.1140 Y6.8766 F150.00
G01 X9.1747 Y6.8676 F150.00
G01 X9.1820 Y6.8669 F150.00
G01 X9.2470 Y6.8638 F150.00
G01 X10.5467 Y6.8638 F150.00
G01 X10.5467 Y2.5641 F150.00
G01 X10.5500 Y2.4960 F150.00
G01 X10.5602 Y2.4272 F150.00
G01 X10.5759 Y2.3644 F150.00
G01 X10.5780 Y2.3573 F150.00
G01 X10.5999 Y2.2962 F150.00
G01 X10.6277 Y2.2373 F150.00
G01 X10.6312 Y2.2308 F150.00
G01 X10.6650 Y2.1746 F150.00
G01 X10.7056 Y2.1199 F150.00
G01 X10.7518 Y2.0689 F150.00
G01 X10.7999 Y2.0252 F150.00
G01 X10.8056 Y2.0205 F150.00
G01 X10.8549 Y1.9839 F150.00
G01 X10.8610 Y1.9798 F150.00
G01 X10.9165 Y1.9467 F150.00
G01 X10.9756 Y1.9186 F150.00
G01 X10.9824 Y1.9158 F150.00
G01 X11.0437 Y1.8940 F150.00
G01 X11.1104 Y1.8772 F150.00
G01 X11.1784 Y1.8672 F150.00
G01 X11.2433 Y1.8639 F150.00
G01 X11.2507 Y1.8639 F150.00
G01 X11.3156 Y1.8672 F150.00
G01 X11.3800 Y1.8766 F150.00
G01 X11.3872 Y1.8780 F150.00
G01 X11.4467 Y1.8930 F150.00
G01 X11.4538 Y1.8951 F150.00
G01 X11.5150 Y1.9171 F150.00
G01 X11.5778 Y1.9468 F150.00
G01 X11.6330 Y1.9798 F150.00
G01 X11.6391 Y1.9839 F150.00
G01 X11.6912 Y2.0227 F150.00
G01 X11.7395 Y2.0664 F150.00
G01 X11.7447 Y2.0716 F150.00
G01 X11.7884 Y2.1199 F150.00
G01 X11.8290 Y2.1746 F150.00
G01 X11.8628 Y2.2308 F150.00
G01 X11.8663 Y2.2373 F150.00
G01 X11.8941 Y2.2962 F150.00
G01 X11.9160 Y2.3573 F150.00
G01 X11.9181 Y2.3644 F150.00
G01 X11.9338 Y2.4272 F150.00
G01 X11.9440 Y2.4960 F150.00
G01 X11.9473 Y2.5641 F150.00
G01 X11.9473 Y6.8638 F150.00
G01 X13.2470 Y6.8638 F150.00
G01 X13.3120 Y6.8669 F150.00
G01 X13.3193 Y6.8676 F150.00
G01 X13.3840 Y6.8773 F150.00
G01 X13.4502 Y6.8939 F150.00
G01 X13.5149 Y6.9170 F150.00
G01 X13.5775 Y6.9467 F150.00
G01 X13.6363 Y6.9820 F150.00
G01 X13.6914 Y7.0229 F150.00
G01 X13.7422 Y7.0689 F150.00
G01 X13.7883 Y7.1197 F150.00
G01 X13.8291 Y7.1748 F150.00
G01 X13.8647 Y7.2342 F150.00
G01 X13.8941 Y7.2962 F150.00
G01 X13.9171 Y7.3607 F150.00
G01 X13.9338 Y7.4273 F150.00
G01 X13.9440 Y7.4960 F150.00
G01 X13.9473 Y7.5641 F150.00
G01 X13.9440 Y7.6322 F150.00
G01 X13.9338 Y7.7009 F150.00
G01 X13.9171 Y7.7675 F150.00
G01 X13.8941 Y7.8319 F150.00
G01 X13.8647 Y7.8940 F150.00
G01 X13.8291 Y7.9534 F150.00
G01 X13.7906 Y8.0055 F150.00
G01 X13.7859 Y8.0112 F150.00
G01 X13.7422 Y8.0593 F150.00
G01 X13.6941 Y8.1030 F150.00
G01 X13.6884 Y8.1077 F150.00
G01 X13.6363 Y8.1462 F150.00
G01 X13.5803 Y8.1799 F150.00
G01 X13.5738 Y8.1834 F150.00
G01 X13.5149 Y8.2112 F150.00
G01 X13.4538 Y8.2331 F150.00
G01 X13.4467 Y8.2352 F150.00
G01 X13.3840 Y8.2509 F150.00
G01 X13.3151 Y8.2611 F150.00
G01 X13.2470 Y8.2644 F150.00
G01 X9.2470 Y8.2644 F150.00
G01 X9.1789 Y8.2611 F150.00
G01 X9.1100 Y8.2509 F150.00
G01 X9.0438 Y8.2343 F150.00
G01 X8.9824 Y8.2124 F150.00
G01 X8.9756 Y8.2096 F150.00
G01 X8.9165 Y8.1815 F150.00
G01 X8.8577 Y8.1462 F150.00
G01 X8.8056 Y8.1077 F150.00
G01 X8.7999 Y8.1030 F150.00
G01 X8.7518 Y8.0593 F150.00
G01 X8.7057 Y8.0085 F150.00
G01 X8.6668 Y7.9562 F150.00
G01 X8.6627 Y7.9501 F150.00
G01 X8.6293 Y7.8940 F150.00
G01 X8.5999 Y7.8319 F150.00
G01 X8.5780 Y7.7709 F150.00
G01 X8.5759 Y7.7638 F150.00
G01 X8.5602 Y7.7009 F150.00
G01 X8.5505 Y7.6364 F150.00
G01 X8.5498 Y7.6291 F150.00
G01 X8.5467 Y7.5641 F150.00
G01 X8.5500 Y7.4960 F150.00
G01 X8.5595 Y7.4311 F150.00
G01 X8.5610 Y7.4239 F150.00
G01 X8.5769 Y7.3607 F150.00
G01 X8.5999 Y7.2962 F150.00
G01 X8.6277 Y7.2373 F150.00
G01 X8.6312 Y7.2308 F150.00
G01 X8.6649 Y7.1748 F150.00
G01 X8.7057 Y7.1197 F150.00
G01 X8.7493 Y7.0716 F150.00
G01 X8.7545 Y7.0664 F150.00
G01 X8.8030 Y7.0226 F150.00
G01 X8.8550 Y6.9840 F150.00
G00 Z2.0000
G00 X8.7154 Y6.7887
G01 F60.00
G01 Z-0.2858
G01 F150.00
G01 X8.7265 Y6.7810 F150.00
G01 X8.7365 Y6.7747 F150.00
G01 X8.7914 Y6.7418 F150.00
G01 X8.8054 Y6.7340 F150.00
G01 X8.8175 Y6.7279 F150.00
G01 X8.8744 Y6.7010 F150.00
G01 X8.8848 Y6.6964 F150.00
G01 X8.9003 Y6.6903 F150.00
G01 X8.9715 Y6.6651 F150.00
G01 X8.9876 Y6.6605 F150.00
G01 X9.0485 Y6.6452 F150.00
G01 X9.0598 Y6.6426 F150.00
G01 X9.0772 Y6.6395 F150.00
G01 X9.1516 Y6.6287 F150.00
G01 X9.1703 Y6.6272 F150.00
G01 X9.2325 Y6.6241 F150.00
G01 X9.2465 Y6.6238 F150.00
G01 X10.3067 Y6.6238 F150.00
G01 X10.3067 Y2.5630 F150.00
G01 X10.3070 Y2.5498 F150.00
G01 X10.3103 Y2.4836 F150.00
G01 X10.3114 Y2.4705 F150.00
G01 X10.3131 Y2.4566 F150.00
G01 X10.3224 Y2.3943 F150.00
G01 X10.3255 Y2.3771 F150.00
G01 X10.3455 Y2.2970 F150.00
G01 X10.3520 Y2.2765 F150.00
G01 X10.3770 Y2.2074 F150.00
G01 X10.3845 Y2.1901 F150.00
G01 X10.4114 Y2.1333 F150.00
G01 X10.4191 Y2.1184 F150.00
G01 X10.4569 Y2.0547 F150.00
G01 X10.4675 Y2.0382 F150.00
G01 X10.5132 Y1.9763 F150.00
G01 X10.5219 Y1.9655 F150.00
G01 X10.5302 Y1.9559 F150.00
G01 X10.5724 Y1.9093 F150.00
G01 X10.5842 Y1.8971 F150.00
G01 X10.6388 Y1.8473 F150.00
G01 X10.6483 Y1.8391 F150.00
G01 X10.6592 Y1.8304 F150.00
G01 X10.7132 Y1.7902 F150.00
G01 X10.7227 Y1.7835 F150.00
G01 X10.7365 Y1.7747 F150.00
G01 X10.8002 Y1.7368 F150.00
G01 X10.8175 Y1.7279 F150.00
G01 X10.8744 Y1.7010 F150.00
G01 X10.8899 Y1.6943 F150.00
G01 X10.9594 Y1.6691 F150.00
G01 X10.9767 Y1.6635 F150.00
G01 X11.0499 Y1.6449 F150.00
G01 X11.0664 Y1.6413 F150.00
G01 X11.0788 Y1.6392 F150.00
G01 X11.1521 Y1.6286 F150.00
G01 X11.1688 Y1.6273 F150.00
G01 X11.2315 Y1.6242 F150.00
G01 X11.2441 Y1.6238 F150.00
G01 X11.2580 Y1.6240 F150.00
G01 X11.3252 Y1.6273 F150.00
G01 X11.3419 Y1.6286 F150.00
G01 X11.3530 Y1.6300 F150.00
G01 X11.4276 Y1.6413 F150.00
G01 X11.4455 Y1.6452 F150.00
G01 X11.5173 Y1.6635 F150.00
G01 X11.5333 Y1.6686 F150.00
G01 X11.5924 Y1.6898 F150.00
G01 X11.6095 Y1.6965 F150.00
G01 X11.6780 Y1.7286 F150.00
G01 X11.6893 Y1.7343 F150.00
G01 X11.7027 Y1.7418 F150.00
G01 X11.7670 Y1.7807 F150.00
G01 X11.7809 Y1.7903 F150.00
G01 X11.8313 Y1.8277 F150.00
G01 X11.8411 Y1.8353 F150.00
G01 X11.8519 Y1.8444 F150.00
G01 X11.9018 Y1.8895 F150.00
G01 X11.9140 Y1.9013 F150.00
G01 X11.9216 Y1.9093 F150.00
G01 X11.9721 Y1.9655 F150.00
G01 X11.9834 Y1.9798 F150.00
G01 X12.0207 Y2.0301 F150.00
G01 X12.0298 Y2.0431 F150.00
G01 X12.0371 Y2.0547 F150.00
G01 X12.0694 Y2.1087 F150.00
G01 X12.0749 Y2.1184 F150.00
G01 X12.0826 Y2.1333 F150.00
G01 X12.1147 Y2.2019 F150.00
G01 X12.1208 Y2.2174 F150.00
G01 X12.1420 Y2.2765 F150.00
G01 X12.1460 Y2.2886 F150.00
G01 X12.1499 Y2.3019 F150.00
G01 X12.1685 Y2.3771 F150.00
G01 X12.1719 Y2.3959 F150.00
G01 X12.1809 Y2.4566 F150.00
G01 X12.1826 Y2.4705 F150.00
G01 X12.1839 Y2.4873 F150.00
G01 X12.1870 Y2.5502 F150.00
G01 X12.1873 Y2.5641 F150.00
G01 X12.1873 Y6.6238 F150.00
G01 X13.2486 Y6.6238 F150.00
G01 X13.2615 Y6.6241 F150.00
G01 X13.3237 Y6.6272 F150.00
G01 X13.3453 Y6.6290 F150.00
G01 X13.4152 Y6.6392 F150.00
G01 X13.4284 Y6.6415 F150.00
G01 X13.4442 Y6.6449 F150.00
G01 X13.5051 Y6.6601 F150.00
G01 X13.5169 Y6.6634 F150.00
G01 X13.5332 Y6.6686 F150.00
G01 X13.6037 Y6.6941 F150.00
G01 X13.6196 Y6.7010 F150.00
G01 X13.6779 Y6.7286 F150.00
G01 X13.6886 Y6.7340 F150.00
G01 X13.7026 Y6.7418 F150.00
G01 X13.7563 Y6.7740 F150.00
G01 X13.7676 Y6.7811 F150.00
G01 X13.7810 Y6.7904 F150.00
G01 X13.8313 Y6.8277 F150.00
G01 X13.8417 Y6.8357 F150.00
G01 X13.8521 Y6.8446 F150.00
G01 X13.9007 Y6.8885 F150.00
G01 X13.9140 Y6.9013 F150.00
G01 X13.9226 Y6.9104 F150.00
G01 X13.9647 Y6.9569 F150.00
G01 X13.9773 Y6.9719 F150.00
G01 X14.0223 Y7.0323 F150.00
G01 X14.0363 Y7.0534 F150.00
G01 X14.0695 Y7.1087 F150.00
G01 X14.0779 Y7.1240 F150.00
G01 X14.1095 Y7.1901 F150.00
G01 X14.1170 Y7.2074 F150.00
G01 X14.1420 Y7.2765 F150.00
G01 X14.1476 Y7.2937 F150.00
G01 X14.1659 Y7.3656 F150.00
G01 X14.1697 Y7.3830 F150.00
G01 X14.1809 Y7.4566 F150.00
G01 X14.1826 Y7.4705 F150.00
G01 X14.1839 Y7.4873 F150.00
G01 X14.1873 Y7.5612 F150.00
G01 X14.1869 Y7.5796 F150.00
G01 X14.1832 Y7.6519 F150.00
G01 X14.1811 Y7.6699 F150.00
G01 X14.1716 Y7.7338 F150.00
G01 X14.1668 Y7.7586 F150.00
G01 X14.1484 Y7.8316 F150.00
G01 X14.1424 Y7.8504 F150.00
G01 X14.1213 Y7.9095 F150.00
G01 X14.1147 Y7.9263 F150.00
G01 X14.1095 Y7.9381 F150.00
G01 X14.0814 Y7.9973 F150.00
G01 X14.0751 Y8.0094 F150.00
G01 X14.0687 Y8.0208 F150.00
G01 X14.0300 Y8.0847 F150.00
G01 X14.0207 Y8.0981 F150.00
G01 X13.9834 Y8.1484 F150.00
G01 X13.9755 Y8.1586 F150.00
G01 X13.9666 Y8.1691 F150.00
G01 X13.9216 Y8.2189 F150.00
G01 X13.9098 Y8.2311 F150.00
G01 X13.9018 Y8.2387 F150.00
G01 X13.8552 Y8.2809 F150.00
G01 X13.8452 Y8.2896 F150.00
G01 X13.8324 Y8.2997 F150.00
G01 X13.7821 Y8.3370 F150.00
G01 X13.7651 Y8.3487 F150.00
G01 X13.7003 Y8.3877 F150.00
G01 X13.6886 Y8.3942 F150.00
G01 X13.6765 Y8.4003 F150.00
G01 X13.6092 Y8.4318 F150.00
G01 X13.5937 Y8.4379 F150.00
G01 X13.5346 Y8.4591 F150.00
G01 X13.5225 Y8.4631 F150.00
G01 X13.5092 Y8.4670 F150.00
G01 X13.4342 Y8.4855 F150.00
G01 X13.4168 Y8.4887 F150.00
G01 X13.3545 Y8.4980 F150.00
G01 X13.3348 Y8.5003 F150.00
G01 X13.2621 Y8.5040 F150.00
G01 X13.2470 Y8.5044 F150.00
G01 X9.2470 Y8.5044 F150.00
G01 X9.2327 Y8.5041 F150.00
G01 X9.1703 Y8.5010 F150.00
G01 X9.1534 Y8.4997 F150.00
G01 X9.1395 Y8.4980 F150.00
G01 X9.0772 Y8.4887 F150.00
G01 X9.0537 Y8.4842 F150.00
G01 X8.9771 Y8.4648 F150.00
G01 X8.9608 Y8.4596 F150.00
G01 X8.9003 Y8.4379 F150.00
G01 X8.8848 Y8.4318 F150.00
G01 X8.8744 Y8.4272 F150.00
G01 X8.8161 Y8.3996 F150.00
G01 X8.8002 Y8.3914 F150.00
G01 X8.7377 Y8.3542 F150.00
G01 X8.7264 Y8.3471 F150.00
G01 X8.7130 Y8.3378 F150.00
G01 X8.6627 Y8.3005 F150.00
G01 X8.6534 Y8.2933 F150.00
G01 X8.6400 Y8.2819 F150.00
G01 X8.5922 Y8.2387 F150.00
G01 X8.5800 Y8.2269 F150.00
G01 X8.5714 Y8.2178 F150.00
G01 X8.5222 Y8.1631 F150.00
G01 X8.5115 Y8.1497 F150.00
G01 X8.4741 Y8.0991 F150.00
G01 X8.4673 Y8.0896 F150.00
G01 X8.4577 Y8.0748 F150.00
G01 X8.4245 Y8.0195 F150.00
G01 X8.4161 Y8.0042 F150.00
G01 X8.3845 Y7.9381 F150.00
G01 X8.3793 Y7.9263 F150.00
G01 X8.3732 Y7.9108 F150.00
G01 X8.3520 Y7.8517 F150.00
G01 X8.3481 Y7.8401 F150.00
G01 X8.3434 Y7.8236 F150.00
G01 X8.3278 Y7.7613 F150.00
G01 X8.3243 Y7.7452 F150.00
G01 X8.3131 Y7.6716 F150.00
G01 X8.3114 Y7.6577 F150.00
G01 X8.3101 Y7.6421 F150.00
G01 X8.3071 Y7.5796 F150.00
G01 X8.3067 Y7.5670 F150.00
G01 X8.3070 Y7.5501 F150.00
G01 X8.3101 Y7.4861 F150.00
G01 X8.3114 Y7.4705 F150.00
G01 X8.3131 Y7.4566 F150.00
G01 X8.3224 Y7.3943 F150.00
G01 X8.3255 Y7.3772 F150.00
G01 X8.3281 Y7.3656 F150.00
G01 X8.3434 Y7.3046 F150.00
G01 X8.3481 Y7.2881 F150.00
G01 X8.3520 Y7.2765 F150.00
G01 X8.3770 Y7.2074 F150.00
G01 X8.3839 Y7.1915 F150.00
G01 X8.4114 Y7.1334 F150.00
G01 X8.4189 Y7.1188 F150.00
G01 X8.4253 Y7.1074 F150.00
G01 X8.4577 Y7.0534 F150.00
G01 X8.4673 Y7.0386 F150.00
G01 X8.5106 Y6.9798 F150.00
G01 X8.5185 Y6.9696 F150.00
G01 X8.5293 Y6.9569 F150.00
G01 X8.5724 Y6.9093 F150.00
G01 X8.5842 Y6.8971 F150.00
G01 X8.5922 Y6.8895 F150.00
G01 X8.6388 Y6.8473 F150.00
G01 X8.6488 Y6.8386 F150.00
G01 X8.6627 Y6.8277 F150.00
G01 X8.7154 Y6.7887 F150.00
G00 Z2.0000
G00 X45.7621 Y12.4443
G01 F60.00
G01 Z-0.2858
G01 F150.00
G01 X45.7625 Y12.4596 F150.00
G01 X45.7652 Y12.5157 F150.00
G01 X45.7682 Y12.5463 F150.00
G01 X45.7774 Y12.6082 F150.00
G01 X45.7834 Y12.6383 F150.00
G01 X45.7986 Y12.6990 F150.00
G01 X45.8075 Y12.7283 F150.00
G01 X45.8286 Y12.7873 F150.00
G01 X45.8404 Y12.8156 F150.00
G01 X45.8671 Y12.8722 F150.00
G01 X45.8816 Y12.8993 F150.00
G01 X45.9138 Y12.9530 F150.00
G01 X45.9308 Y12.9785 F150.00
G01 X45.9681 Y13.0288 F150.00
G01 X45.9876 Y13.0525 F150.00
G01 X46.0296 Y13.0989 F150.00
G01 X46.0513 Y13.1205 F150.00
G01 X46.0977 Y13.1626 F150.00
G01 X46.1214 Y13.1820 F150.00
G01 X46.1717 Y13.2193 F150.00
G01 X46.1972 Y13.2364 F150.00
G01 X46.2509 Y13.2686 F150.00
G01 X46.2779 Y13.2830 F150.00
G01 X46.3345 Y13.3098 F150.00
G01 X46.3629 Y13.3215 F150.00
G01 X46.4218 Y13.3426 F150.00
G01 X46.4512 Y13.3515 F150.00
G01 X46.5119 Y13.3667 F150.00
G01 X46.5420 Y13.3727 F150.00
G01 X46.6039 Y13.3819 F150.00
G01 X46.6344 Y13.3849 F150.00
G01 X46.6905 Y13.3877 F150.00
G01 X46.7058 Y13.3880 F150.00
G01 X47.8612 Y13.3880 F150.00
G01 X47.8757 Y13.3877 F150.00
G01 X47.9287 Y13.3853 F150.00
G01 X47.9575 Y13.3826 F150.00
G01 X48.0161 Y13.3744 F150.00
G01 X48.0446 Y13.3690 F150.00
G01 X48.1021 Y13.3554 F150.00
G01 X48.1300 Y13.3475 F150.00
G01 X48.1860 Y13.3286 F150.00
G01 X48.2130 Y13.3181 F150.00
G01 X48.2615 Y13.2966 F150.00
G01 X48.2746 Y13.2905 F150.00
G01 X48.5721 Y13.1417 F150.00
G01 X48.5869 Y13.1338 F150.00
G01 X48.6402 Y13.1035 F150.00
G01 X48.6684 Y13.0854 F150.00
G01 X48.7239 Y13.0454 F150.00
G01 X48.7500 Y13.0244 F150.00
G01 X48.7956 Y12.9834 F150.00
G01 X48.8078 Y12.9719 F150.00
G01 X48.9606 Y12.8190 F150.00
G01 X48.9721 Y12.8069 F150.00
G01 X49.0131 Y12.7613 F150.00
G01 X49.0341 Y12.7351 F150.00
G01 X49.0741 Y12.6797 F150.00
G01 X49.0922 Y12.6515 F150.00
G01 X49.1225 Y12.5982 F150.00
G01 X49.1304 Y12.5834 F150.00
G01 X49.2792 Y12.2859 F150.00
G01 X49.2853 Y12.2728 F150.00
G01 X49.3068 Y12.2243 F150.00
G01 X49.3173 Y12.1973 F150.00
G01 X49.3362 Y12.1413 F150.00
G01 X49.3442 Y12.1134 F150.00
G01 X49.3577 Y12.0559 F150.00
G01 X49.3631 Y12.0274 F150.00
G01 X49.3713 Y11.9688 F150.00
G01 X49.3740 Y11.9400 F150.00
G01 X49.3764 Y11.8870 F150.00
G01 X49.3768 Y11.8725 F150.00
G01 X49.3768 Y11.4318 F150.00
G01 X49.3764 Y11.4173 F150.00
G01 X49.3740 Y11.3643 F150.00
G01 X49.3713 Y11.3355 F150.00
G01 X49.3631 Y11.2769 F150.00
G01 X49.3577 Y11.2484 F150.00
G01 X49.3442 Y11.1909 F150.00
G01 X49.3362 Y11.1630 F150.00
G01 X49.3173 Y11.1070 F150.00
G01 X49.3068 Y11.0800 F150.00
G01 X49.2853 Y11.0315 F150.00
G01 X49.2792 Y11.0184 F150.00
G01 X49.1304 Y10.7209 F150.00
G01 X49.1225 Y10.7061 F150.00
G01 X49.0922 Y10.6528 F150.00
G01 X49.0741 Y10.6246 F150.00
G01 X49.0341 Y10.5691 F150.00
G01 X49.0131 Y10.5430 F150.00
G01 X48.9721 Y10.4974 F150.00
G01 X48.9606 Y10.4852 F150.00
G01 X48.9419 Y10.4666 F150.00
G01 X48.9375 Y10.4617 F150.00
G01 X48.9326 Y10.4552 F150.00
G01 X48.9285 Y10.4483 F150.00
G01 X48.9252 Y10.4410 F150.00
G01 X48.9218 Y10.4298 F150.00
G01 X48.9202 Y10.4189 F150.00
G01 X48.9202 Y10.4082 F150.00
G01 X48.9208 Y10.4028 F150.00
G01 X48.9231 Y10.3923 F150.00
G01 X48.9248 Y10.3871 F150.00
G01 X48.9274 Y10.3811 F150.00
G01 X48.9330 Y10.3714 F150.00
G01 X49.2087 Y9.9775 F150.00
G01 X49.2172 Y9.9647 F150.00
G01 X49.2471 Y9.9172 F150.00
G01 X49.2621 Y9.8904 F150.00
G01 X49.2901 Y9.8344 F150.00
G01 X49.3025 Y9.8064 F150.00
G01 X49.3248 Y9.7479 F150.00
G01 X49.3344 Y9.7187 F150.00
G01 X49.3509 Y9.6584 F150.00
G01 X49.3575 Y9.6284 F150.00
G01 X49.3680 Y9.5667 F150.00
G01 X49.3717 Y9.5362 F150.00
G01 X49.3761 Y9.4738 F150.00
G01 X49.3768 Y9.4431 F150.00
G01 X49.3751 Y9.3805 F150.00
G01 X49.3727 Y9.3500 F150.00
G01 X49.3649 Y9.2878 F150.00
G01 X49.3596 Y9.2576 F150.00
G01 X49.3457 Y9.1966 F150.00
G01 X49.3374 Y9.1670 F150.00
G01 X49.3176 Y9.1077 F150.00
G01 X49.3065 Y9.0791 F150.00
G01 X49.2810 Y9.0219 F150.00
G01 X49.2671 Y8.9946 F150.00
G01 X49.2361 Y8.9402 F150.00
G01 X49.2196 Y8.9143 F150.00
G01 X49.1834 Y8.8632 F150.00
G01 X49.1644 Y8.8391 F150.00
G01 X49.1234 Y8.7918 F150.00
G01 X49.1022 Y8.7697 F150.00
G01 X49.0567 Y8.7266 F150.00
G01 X49.0335 Y8.7067 F150.00
G01 X48.9840 Y8.6683 F150.00
G01 X48.9589 Y8.6507 F150.00
G01 X48.9059 Y8.6173 F150.00
G01 X48.8791 Y8.6023 F150.00
G01 X48.8232 Y8.5743 F150.00
G01 X48.7951 Y8.5620 F150.00
G01 X48.7366 Y8.5396 F150.00
G01 X48.7074 Y8.5301 F150.00
G01 X48.6471 Y8.5135 F150.00
G01 X48.6171 Y8.5069 F150.00
G01 X48.5554 Y8.4964 F150.00
G01 X48.5249 Y8.4927 F150.00
G01 X48.4625 Y8.4883 F150.00
G01 X48.4318 Y8.4876 F150.00
G01 X48.3693 Y8.4893 F150.00
G01 X48.3387 Y8.4917 F150.00
G01 X48.2766 Y8.4995 F150.00
G01 X48.2463 Y8.5049 F150.00
G01 X48.1853 Y8.5187 F150.00
G01 X48.1558 Y8.5270 F150.00
G01 X48.0964 Y8.5468 F150.00
G01 X48.0678 Y8.5579 F150.00
G01 X48.0106 Y8.5835 F150.00
G01 X47.9833 Y8.5973 F150.00
G01 X47.9289 Y8.6284 F150.00
G01 X47.9030 Y8.6448 F150.00
G01 X47.8519 Y8.6810 F150.00
G01 X47.8278 Y8.7000 F150.00
G01 X47.7805 Y8.7410 F150.00
G01 X47.7584 Y8.7622 F150.00
G01 X47.7153 Y8.8077 F150.00
G01 X47.6954 Y8.8310 F150.00
G01 X47.6609 Y8.8753 F150.00
G01 X47.6518 Y8.8877 F150.00
G01 X47.6293 Y8.9198 F150.00
G01 X47.6256 Y8.9244 F150.00
G01 X47.6193 Y8.9308 F150.00
G01 X47.6133 Y8.9357 F150.00
G01 X47.6059 Y8.9404 F150.00
G01 X47.6004 Y8.9432 F150.00
G01 X47.5937 Y8.9459 F150.00
G01 X47.5873 Y8.9478 F150.00
G01 X47.5784 Y8.9495 F150.00
G01 X47.5718 Y8.9500 F150.00
G01 X47.5648 Y8.9499 F150.00
G01 X47.5572 Y8.9491 F150.00
G01 X47.5496 Y8.9475 F150.00
G01 X47.5446 Y8.9459 F150.00
G01 X47.5356 Y8.9421 F150.00
G01 X47.5313 Y8.9398 F150.00
G01 X47.5241 Y8.9350 F150.00
G01 X47.5182 Y8.9301 F150.00
G01 X47.5134 Y8.9252 F150.00
G01 X47.5085 Y8.9192 F150.00
G01 X47.4938 Y8.8972 F150.00
G01 X47.4565 Y8.8470 F150.00
G01 X47.4370 Y8.8232 F150.00
G01 X47.3950 Y8.7769 F150.00
G01 X47.3733 Y8.7552 F150.00
G01 X47.3269 Y8.7131 F150.00
G01 X47.3032 Y8.6937 F150.00
G01 X47.2529 Y8.6564 F150.00
G01 X47.2274 Y8.6393 F150.00
G01 X47.1737 Y8.6072 F150.00
G01 X47.1466 Y8.5927 F150.00
G01 X47.0901 Y8.5659 F150.00
G01 X47.0617 Y8.5542 F150.00
G01 X47.0028 Y8.5331 F150.00
G01 X46.9734 Y8.5242 F150.00
G01 X46.9127 Y8.5090 F150.00
G01 X46.8826 Y8.5030 F150.00
G01 X46.8207 Y8.4938 F150.00
G01 X46.7901 Y8.4908 F150.00
G01 X46.7276 Y8.4877 F150.00
G01 X46.6969 Y8.4877 F150.00
G01 X46.6344 Y8.4908 F150.00
G01 X46.6039 Y8.4938 F150.00
G01 X46.5420 Y8.5030 F150.00
G01 X46.5119 Y8.5090 F150.00
G01 X46.4512 Y8.5242 F150.00
G01 X46.4218 Y8.5331 F150.00
G01 X46.3629 Y8.5542 F150.00
G01 X46.3345 Y8.5659 F150.00
G01 X46.2779 Y8.5927 F150.00
G01 X46.2509 Y8.6072 F150.00
G01 X46.1972 Y8.6393 F150.00
G01 X46.1717 Y8.6564 F150.00
G01 X46.1214 Y8.6937 F150.00
G01 X46.0977 Y8.7131 F150.00
G01 X46.0513 Y8.7552 F150.00
G01 X46.0296 Y8.7769 F150.00
G01 X45.9876 Y8.8232 F150.00
G01 X45.9681 Y8.8470 F150.00
G01 X45.9308 Y8.8972 F150.00
G01 X45.9138 Y8.9228 F150.00
G01 X45.8816 Y8.9764 F150.00
G01 X45.8671 Y9.0035 F150.00
G01 X45.8404 Y9.0601 F150.00
G01 X45.8286 Y9.0884 F150.00
G01 X45.8075 Y9.1474 F150.00
G01 X45.7986 Y9.1767 F150.00
G01 X45.7834 Y9.2375 F150.00
G01 X45.7774 Y9.2675 F150.00
G01 X45.7682 Y9.3295 F150.00
G01 X45.7652 Y9.3600 F150.00
G01 X45.7625 Y9.4161 F150.00
G01 X45.7621 Y9.4314 F150.00
G01 X45.7621 Y12.4443 F150.00
G01 X45.8821 Y12.4428 F150.00
G01 X45.8849 Y12.5069 F150.00
G01 X45.8874 Y12.5316 F150.00
G01 X45.8957 Y12.5877 F150.00
G01 X45.9005 Y12.6120 F150.00
G01 X45.9143 Y12.6670 F150.00
G01 X45.9215 Y12.6907 F150.00
G01 X45.9406 Y12.7441 F150.00
G01 X45.9501 Y12.7670 F150.00
G01 X45.9743 Y12.8182 F150.00
G01 X45.9860 Y12.8401 F150.00
G01 X46.0152 Y12.8887 F150.00
G01 X46.0289 Y12.9094 F150.00
G01 X46.0627 Y12.9549 F150.00
G01 X46.0785 Y12.9741 F150.00
G01 X46.1165 Y13.0161 F150.00
G01 X46.1341 Y13.0336 F150.00
G01 X46.1761 Y13.0717 F150.00
G01 X46.1952 Y13.0874 F150.00
G01 X46.2408 Y13.1212 F150.00
G01 X46.2614 Y13.1350 F150.00
G01 X46.3100 Y13.1641 F150.00
G01 X46.3319 Y13.1758 F150.00
G01 X46.3832 Y13.2001 F150.00
G01 X46.4061 Y13.2095 F150.00
G01 X46.4594 Y13.2286 F150.00
G01 X46.4832 Y13.2358 F150.00
G01 X46.5382 Y13.2496 F150.00
G01 X46.5625 Y13.2545 F150.00
G01 X46.6186 Y13.2628 F150.00
G01 X46.6433 Y13.2652 F150.00
G01 X46.7073 Y13.2680 F150.00
G01 X47.8598 Y13.2680 F150.00
G01 X47.9204 Y13.2655 F150.00
G01 X47.9437 Y13.2633 F150.00
G01 X47.9967 Y13.2559 F150.00
G01 X48.0197 Y13.2516 F150.00
G01 X48.0719 Y13.2393 F150.00
G01 X48.0944 Y13.2329 F150.00
G01 X48.1451 Y13.2158 F150.00
G01 X48.1670 Y13.2073 F150.00
G01 X48.2222 Y13.1825 F150.00
G01 X48.5170 Y13.0351 F150.00
G01 X48.5289 Y13.0287 F150.00
G01 X48.5780 Y13.0008 F150.00
G01 X48.6008 Y12.9862 F150.00
G01 X48.6511 Y12.9499 F150.00
G01 X48.6722 Y12.9329 F150.00
G01 X48.7142 Y12.8952 F150.00
G01 X48.7240 Y12.8859 F150.00
G01 X48.8746 Y12.7353 F150.00
G01 X48.8839 Y12.7255 F150.00
G01 X48.9217 Y12.6835 F150.00
G01 X48.9387 Y12.6624 F150.00
G01 X48.9749 Y12.6121 F150.00
G01 X48.9895 Y12.5893 F150.00
G01 X49.0174 Y12.5402 F150.00
G01 X49.0238 Y12.5283 F150.00
G01 X49.1712 Y12.2335 F150.00
G01 X49.1762 Y12.2229 F150.00
G01 X49.1960 Y12.1782 F150.00
G01 X49.2045 Y12.1564 F150.00
G01 X49.2216 Y12.1057 F150.00
G01 X49.2280 Y12.0831 F150.00
G01 X49.2403 Y12.0310 F150.00
G01 X49.2446 Y12.0080 F150.00
G01 X49.2521 Y11.9550 F150.00
G01 X49.2542 Y11.9316 F150.00
G01 X49.2568 Y11.8711 F150.00
G01 X49.2568 Y11.4332 F150.00
G01 X49.2542 Y11.3726 F150.00
G01 X49.2521 Y11.3493 F150.00
G01 X49.2446 Y11.2963 F150.00
G01 X49.2403 Y11.2733 F150.00
G01 X49.2280 Y11.2211 F150.00
G01 X49.2216 Y11.1986 F150.00
G01 X49.2045 Y11.1479 F150.00
G01 X49.1960 Y11.1260 F150.00
G01 X49.1762 Y11.0814 F150.00
G01 X49.1712 Y11.0708 F150.00
G01 X49.0238 Y10.7760 F150.00
G01 X49.0175 Y10.7641 F150.00
G01 X48.9895 Y10.7150 F150.00
G01 X48.9749 Y10.6922 F150.00
G01 X48.9387 Y10.6419 F150.00
G01 X48.9217 Y10.6208 F150.00
G01 X48.8839 Y10.5788 F150.00
G01 X48.8489 Y10.5427 F150.00
G01 X48.8425 Y10.5351 F150.00
G01 X48.8350 Y10.5251 F150.00
G01 X48.8252 Y10.5094 F150.00
G01 X48.8193 Y10.4980 F150.00
G01 X48.8128 Y10.4831 F150.00
G01 X48.8068 Y10.4641 F150.00
G01 X48.8037 Y10.4514 F150.00
G01 X48.8014 Y10.4369 F150.00
G01 X48.8002 Y10.4189 F150.00
G01 X48.8002 Y10.4082 F150.00
G01 X48.8009 Y10.3953 F150.00
G01 X48.8035 Y10.3770 F150.00
G01 X48.8059 Y10.3665 F150.00
G01 X48.8093 Y10.3540 F150.00
G01 X48.8170 Y10.3339 F150.00
G01 X48.8212 Y10.3252 F150.00
G01 X48.8283 Y10.3124 F150.00
G01 X48.8352 Y10.3017 F150.00
G01 X49.1095 Y9.9099 F150.00
G01 X49.1164 Y9.8995 F150.00
G01 X49.1439 Y9.8558 F150.00
G01 X49.1561 Y9.8342 F150.00
G01 X49.1815 Y9.7834 F150.00
G01 X49.1914 Y9.7607 F150.00
G01 X49.2117 Y9.7078 F150.00
G01 X49.2194 Y9.6842 F150.00
G01 X49.2344 Y9.6295 F150.00
G01 X49.2397 Y9.6053 F150.00
G01 X49.2493 Y9.5494 F150.00
G01 X49.2522 Y9.5248 F150.00
G01 X49.2562 Y9.4682 F150.00
G01 X49.2568 Y9.4435 F150.00
G01 X49.2552 Y9.3868 F150.00
G01 X49.2533 Y9.3621 F150.00
G01 X49.2462 Y9.3058 F150.00
G01 X49.2419 Y9.2814 F150.00
G01 X49.2293 Y9.2261 F150.00
G01 X49.2226 Y9.2022 F150.00
G01 X49.2047 Y9.1484 F150.00
G01 X49.1957 Y9.1253 F150.00
G01 X49.1726 Y9.0736 F150.00
G01 X49.1614 Y9.0514 F150.00
G01 X49.1333 Y9.0022 F150.00
G01 X49.1200 Y8.9813 F150.00
G01 X49.0872 Y8.9350 F150.00
G01 X49.0719 Y8.9155 F150.00
G01 X49.0347 Y8.8727 F150.00
G01 X49.0176 Y8.8548 F150.00
G01 X48.9764 Y8.8158 F150.00
G01 X48.9576 Y8.7997 F150.00
G01 X48.9128 Y8.7649 F150.00
G01 X48.8925 Y8.7507 F150.00
G01 X48.8445 Y8.7205 F150.00
G01 X48.8229 Y8.7083 F150.00
G01 X48.7721 Y8.6830 F150.00
G01 X48.7494 Y8.6730 F150.00
G01 X48.6965 Y8.6527 F150.00
G01 X48.6729 Y8.6450 F150.00
G01 X48.6182 Y8.6301 F150.00
G01 X48.5940 Y8.6247 F150.00
G01 X48.5381 Y8.6152 F150.00
G01 X48.5135 Y8.6122 F150.00
G01 X48.4570 Y8.6082 F150.00
G01 X48.4322 Y8.6077 F150.00
G01 X48.3755 Y8.6092 F150.00
G01 X48.3508 Y8.6111 F150.00
G01 X48.2945 Y8.6182 F150.00
G01 X48.2701 Y8.6225 F150.00
G01 X48.2148 Y8.6351 F150.00
G01 X48.1909 Y8.6418 F150.00
G01 X48.1371 Y8.6597 F150.00
G01 X48.1140 Y8.6687 F150.00
G01 X48.0623 Y8.6918 F150.00
G01 X48.0402 Y8.7030 F150.00
G01 X47.9909 Y8.7311 F150.00
G01 X47.9700 Y8.7445 F150.00
G01 X47.9237 Y8.7772 F150.00
G01 X47.9042 Y8.7926 F150.00
G01 X47.8614 Y8.8297 F150.00
G01 X47.8435 Y8.8469 F150.00
G01 X47.8045 Y8.8880 F150.00
G01 X47.7884 Y8.9069 F150.00
G01 X47.7567 Y8.9477 F150.00
G01 X47.7266 Y8.9901 F150.00
G01 X47.7189 Y8.9998 F150.00
G01 X47.7127 Y9.0070 F150.00
G01 X47.7035 Y9.0163 F150.00
G01 X47.6888 Y9.0290 F150.00
G01 X47.6781 Y9.0367 F150.00
G01 X47.6707 Y9.0414 F150.00
G01 X47.6604 Y9.0473 F150.00
G01 X47.6451 Y9.0546 F150.00
G01 X47.6383 Y9.0573 F150.00
G01 X47.6215 Y9.0628 F150.00
G01 X47.6094 Y9.0658 F150.00
G01 X47.6005 Y9.0674 F150.00
G01 X47.5880 Y9.0691 F150.00
G01 X47.5705 Y9.0700 F150.00
G01 X47.5518 Y9.0692 F150.00
G01 X47.5321 Y9.0664 F150.00
G01 X47.5144 Y9.0622 F150.00
G01 X47.4980 Y9.0565 F150.00
G01 X47.4890 Y9.0527 F150.00
G01 X47.4785 Y9.0477 F150.00
G01 X47.4650 Y9.0398 F150.00
G01 X47.4578 Y9.0350 F150.00
G01 X47.4473 Y9.0272 F150.00
G01 X47.4414 Y9.0223 F150.00
G01 X47.4280 Y9.0095 F150.00
G01 X47.4152 Y8.9947 F150.00
G01 X47.4083 Y8.9854 F150.00
G01 X47.3956 Y8.9664 F150.00
G01 X47.3618 Y8.9208 F150.00
G01 X47.3461 Y8.9016 F150.00
G01 X47.3080 Y8.8596 F150.00
G01 X47.2905 Y8.8421 F150.00
G01 X47.2485 Y8.8040 F150.00
G01 X47.2293 Y8.7883 F150.00
G01 X47.1838 Y8.7545 F150.00
G01 X47.1632 Y8.7407 F150.00
G01 X47.1145 Y8.7116 F150.00
G01 X47.0927 Y8.6999 F150.00
G01 X47.0414 Y8.6757 F150.00
G01 X47.0185 Y8.6662 F150.00
G01 X46.9651 Y8.6471 F150.00
G01 X46.9414 Y8.6399 F150.00
G01 X46.8864 Y8.6261 F150.00
G01 X46.8621 Y8.6213 F150.00
G01 X46.8060 Y8.6129 F150.00
G01 X46.7813 Y8.6105 F150.00
G01 X46.7247 Y8.6077 F150.00
G01 X46.6999 Y8.6077 F150.00
G01 X46.6433 Y8.6105 F150.00
G01 X46.6186 Y8.6129 F150.00
G01 X46.5625 Y8.6213 F150.00
G01 X46.5382 Y8.6261 F150.00
G01 X46.4832 Y8.6399 F150.00
G01 X46.4594 Y8.6471 F150.00
G01 X46.4061 Y8.6662 F150.00
G01 X46.3832 Y8.6757 F150.00
G01 X46.3319 Y8.6999 F150.00
G01 X46.3100 Y8.7116 F150.00
G01 X46.2614 Y8.7407 F150.00
G01 X46.2408 Y8.7545 F150.00
G01 X46.1952 Y8.7883 F150.00
G01 X46.1761 Y8.8040 F150.00
G01 X46.1341 Y8.8421 F150.00
G01 X46.1165 Y8.8596 F150.00
G01 X46.0785 Y8.9016 F150.00
G01 X46.0627 Y8.9208 F150.00
G01 X46.0289 Y8.9664 F150.00
G01 X46.0152 Y8.9870 F150.00
G01 X45.9860 Y9.0356 F150.00
G01 X45.9743 Y9.0575 F150.00
G01 X45.9501 Y9.1087 F150.00
G01 X45.9406 Y9.1316 F150.00
G01 X45.9215 Y9.1850 F150.00
G01 X45.9143 Y9.2087 F150.00
G01 X45.9005 Y9.2638 F150.00
G01 X45.8957 Y9.2881 F150.00
G01 X45.8874 Y9.3442 F150.00
G01 X45.8849 Y9.3688 F150.00
G01 X45.8821 Y9.4329 F150.00
G01 X45.8821 Y12.4428 F150.00
G01 X46.0021 Y12.4414 F150.00
G01 X46.0047 Y12.4981 F150.00
G01 X46.0065 Y12.5169 F150.00
G01 X46.0140 Y12.5671 F150.00
G01 X46.0176 Y12.5857 F150.00
G01 X46.0300 Y12.6350 F150.00
G01 X46.0355 Y12.6530 F150.00
G01 X46.0526 Y12.7009 F150.00
G01 X46.0598 Y12.7183 F150.00
G01 X46.0816 Y12.7643 F150.00
G01 X46.0905 Y12.7809 F150.00
G01 X46.1166 Y12.8245 F150.00
G01 X46.1271 Y12.8402 F150.00
G01 X46.1574 Y12.8811 F150.00
G01 X46.1693 Y12.8957 F150.00
G01 X46.2035 Y12.9333 F150.00
G01 X46.2168 Y12.9467 F150.00
G01 X46.2545 Y12.9808 F150.00
G01 X46.2691 Y12.9928 F150.00
G01 X46.3099 Y13.0231 F150.00
G01 X46.3256 Y13.0336 F150.00
G01 X46.3692 Y13.0597 F150.00
G01 X46.3859 Y13.0686 F150.00
G01 X46.4318 Y13.0903 F150.00
G01 X46.4493 Y13.0975 F150.00
G01 X46.4971 Y13.1147 F150.00
G01 X46.5152 Y13.1202 F150.00
G01 X46.5645 Y13.1325 F150.00
G01 X46.5830 Y13.1362 F150.00
G01 X46.6333 Y13.1436 F150.00
G01 X46.6521 Y13.1455 F150.00
G01 X46.7088 Y13.1480 F150.00
G01 X47.8584 Y13.1480 F150.00
G01 X47.9120 Y13.1458 F150.00
G01 X47.9298 Y13.1441 F150.00
G01 X47.9773 Y13.1375 F150.00
G01 X47.9949 Y13.1342 F150.00
G01 X48.0416 Y13.1231 F150.00
G01 X48.0587 Y13.1182 F150.00
G01 X48.1042 Y13.1029 F150.00
G01 X48.1209 Y13.0965 F150.00
G01 X48.1698 Y13.0745 F150.00
G01 X48.4619 Y12.9285 F150.00
G01 X48.5159 Y12.8981 F150.00
G01 X48.5333 Y12.8869 F150.00
G01 X48.5783 Y12.8545 F150.00
G01 X48.5944 Y12.8415 F150.00
G01 X48.6328 Y12.8070 F150.00
G01 X48.6403 Y12.7999 F150.00
G01 X48.7886 Y12.6516 F150.00
G01 X48.8302 Y12.6057 F150.00
G01 X48.8432 Y12.5896 F150.00
G01 X48.8756 Y12.5446 F150.00
G01 X48.8868 Y12.5272 F150.00
G01 X48.9172 Y12.4732 F150.00
G01 X49.0671 Y12.1730 F150.00
G01 X49.0852 Y12.1322 F150.00
G01 X49.0916 Y12.1155 F150.00
G01 X49.1070 Y12.0700 F150.00
G01 X49.1119 Y12.0529 F150.00
G01 X49.1229 Y12.0061 F150.00
G01 X49.1262 Y11.9886 F150.00
G01 X49.1328 Y11.9411 F150.00
G01 X49.1345 Y11.9233 F150.00
G01 X49.1368 Y11.8697 F150.00
G01 X49.1368 Y11.4346 F150.00
G01 X49.1345 Y11.3810 F150.00
G01 X49.1328 Y11.3632 F150.00
G01 X49.1262 Y11.3157 F150.00
G01 X49.1229 Y11.2981 F150.00
G01 X49.1119 Y11.2514 F150.00
G01 X49.1070 Y11.2343 F150.00
G01 X49.0916 Y11.1888 F150.00
G01 X49.0852 Y11.1721 F150.00
G01 X49.0633 Y11.1232 F150.00
G01 X48.9172 Y10.8311 F150.00
G01 X48.8868 Y10.7771 F150.00
G01 X48.8756 Y10.7597 F150.00
G01 X48.8432 Y10.7147 F150.00
G01 X48.8302 Y10.6986 F150.00
G01 X48.7957 Y10.6602 F150.00
G01 X48.7649 Y10.6286 F150.00
G01 X48.7571 Y10.6200 F150.00
G01 X48.7475 Y10.6084 F150.00
G01 X48.7362 Y10.5932 F150.00
G01 X48.7260 Y10.5774 F150.00
G01 X48.7188 Y10.5649 F150.00
G01 X48.7129 Y10.5535 F150.00
G01 X48.7067 Y10.5404 F150.00
G01 X48.6992 Y10.5219 F150.00
G01 X48.6918 Y10.4984 F150.00
G01 X48.6870 Y10.4793 F150.00
G01 X48.6839 Y10.4628 F150.00
G01 X48.6815 Y10.4444 F150.00
G01 X48.6803 Y10.4253 F150.00
G01 X48.6803 Y10.4018 F150.00
G01 X48.6816 Y10.3824 F150.00
G01 X48.6830 Y10.3705 F150.00
G01 X48.6863 Y10.3513 F150.00
G01 X48.6902 Y10.3345 F150.00
G01 X48.6973 Y10.3106 F150.00
G01 X48.7023 Y10.2971 F150.00
G01 X48.7087 Y10.2823 F150.00
G01 X48.7177 Y10.2642 F150.00
G01 X48.7267 Y10.2486 F150.00
G01 X48.7369 Y10.2329 F150.00
G01 X49.0104 Y9.8423 F150.00
G01 X49.0408 Y9.7943 F150.00
G01 X49.0501 Y9.7779 F150.00
G01 X49.0728 Y9.7324 F150.00
G01 X49.0804 Y9.7151 F150.00
G01 X49.0986 Y9.6677 F150.00
G01 X49.1044 Y9.6497 F150.00
G01 X49.1178 Y9.6007 F150.00
G01 X49.1219 Y9.5822 F150.00
G01 X49.1305 Y9.5321 F150.00
G01 X49.1327 Y9.5134 F150.00
G01 X49.1363 Y9.4627 F150.00
G01 X49.1367 Y9.4438 F150.00
G01 X49.1353 Y9.3930 F150.00
G01 X49.1339 Y9.3742 F150.00
G01 X49.1275 Y9.3238 F150.00
G01 X49.1243 Y9.3051 F150.00
G01 X49.1130 Y9.2556 F150.00
G01 X49.1079 Y9.2374 F150.00
G01 X49.0918 Y9.1892 F150.00
G01 X49.0850 Y9.1716 F150.00
G01 X49.0642 Y9.1252 F150.00
G01 X49.0557 Y9.1083 F150.00
G01 X49.0305 Y9.0642 F150.00
G01 X49.0204 Y9.0483 F150.00
G01 X48.9910 Y9.0068 F150.00
G01 X48.9793 Y8.9919 F150.00
G01 X48.9460 Y8.9535 F150.00
G01 X48.9329 Y8.9399 F150.00
G01 X48.8960 Y8.9050 F150.00
G01 X48.8817 Y8.8927 F150.00
G01 X48.8415 Y8.8615 F150.00
G01 X48.8261 Y8.8507 F150.00
G01 X48.7831 Y8.8236 F150.00
G01 X48.7666 Y8.8144 F150.00
G01 X48.7211 Y8.7916 F150.00
G01 X48.7038 Y8.7840 F150.00
G01 X48.6564 Y8.7659 F150.00
G01 X48.6384 Y8.7600 F150.00
G01 X48.5894 Y8.7466 F150.00
G01 X48.5709 Y8.7425 F150.00
G01 X48.5209 Y8.7340 F150.00
G01 X48.5021 Y8.7317 F150.00
G01 X48.4514 Y8.7281 F150.00
G01 X48.4325 Y8.7277 F150.00
G01 X48.3817 Y8.7291 F150.00
G01 X48.3629 Y8.7305 F150.00
G01 X48.3125 Y8.7369 F150.00
G01 X48.2939 Y8.7402 F150.00
G01 X48.2443 Y8.7515 F150.00
G01 X48.2261 Y8.7565 F150.00
