(G-CODE GENERATED BY FLATCAM v8.991 - www.flatcam.org - Version Date: 2019/12/27)

(Name: [7] DRV-Based Balun-B_Cu_iso)
(Type: G-code from Geometry)
(Units: MM)

(Created on Sunday, 19 April 2020 at 21:31)

(TOOL DIAMETER: 0.1201 mm)

(Feedrate: 150.0 mm/min)
(Feedrate_Z: 60.0 mm/min)
(Feedrate rapids 1500.0 mm/min)

(Z_Cut: -0.1149 mm)
(Z_Move: 2.0 mm)
(Z Toolchange: 15.0 mm)
(X,Y Toolchange: 0.0000, 0.0000 mm)
(Z Start: None mm)
(Z End: 5.0 mm)
(Steps per circle: 64)
(Preprocessor Geometry: grbl_11)

(X range:    1.5518 ...   52.4717  mm)
(Y range:    0.6730 ...   60.3176  mm)

(Spindle Speed: 20000 RPM)

G21
G90
G17
G94




G01 F150.00
G00 Z2.0000

M03 S20000
G4 P1.0
G00 X7.3581 Y15.9850
G01 F60.00
G01 Z-0.1149
G01 F150.00
G01 X5.6459 Y15.9850 F150.00
G01 X5.6216 Y15.9861 F150.00
G01 X5.5915 Y15.9906 F150.00
G01 X5.5619 Y15.9980 F150.00
G01 X5.5332 Y16.0083 F150.00
G01 X5.5057 Y16.0213 F150.00
G01 X5.4796 Y16.0370 F150.00
G01 X5.4551 Y16.0551 F150.00
G01 X5.4325 Y16.0755 F150.00
G01 X5.4121 Y16.0981 F150.00
G01 X5.3940 Y16.1226 F150.00
G01 X5.3783 Y16.1487 F150.00
G01 X5.3653 Y16.1762 F150.00
G01 X5.3550 Y16.2049 F150.00
G01 X5.3476 Y16.2345 F150.00
G01 X5.3431 Y16.2646 F150.00
G01 X5.3420 Y16.2889 F150.00
G01 X5.3420 Y18.0011 F150.00
G01 X5.3431 Y18.0254 F150.00
G01 X5.3476 Y18.0555 F150.00
G01 X5.3550 Y18.0851 F150.00
G01 X5.3653 Y18.1138 F150.00
G01 X5.3783 Y18.1413 F150.00
G01 X5.3940 Y18.1674 F150.00
G01 X5.4121 Y18.1919 F150.00
G01 X5.4325 Y18.2145 F150.00
G01 X5.4551 Y18.2349 F150.00
G01 X5.4796 Y18.2530 F150.00
G01 X5.5057 Y18.2687 F150.00
G01 X5.5332 Y18.2817 F150.00
G01 X5.5619 Y18.2920 F150.00
G01 X5.5915 Y18.2994 F150.00
G01 X5.6216 Y18.3039 F150.00
G01 X5.6459 Y18.3050 F150.00
G01 X7.3581 Y18.3050 F150.00
G01 X7.3824 Y18.3039 F150.00
G01 X7.4125 Y18.2994 F150.00
G01 X7.4421 Y18.2920 F150.00
G01 X7.4708 Y18.2817 F150.00
G01 X7.4983 Y18.2687 F150.00
G01 X7.5244 Y18.2530 F150.00
G01 X7.5489 Y18.2349 F150.00
G01 X7.5715 Y18.2145 F150.00
G01 X7.5919 Y18.1919 F150.00
G01 X7.6100 Y18.1674 F150.00
G01 X7.6257 Y18.1413 F150.00
G01 X7.6387 Y18.1138 F150.00
G01 X7.6490 Y18.0851 F150.00
G01 X7.6564 Y18.0555 F150.00
G01 X7.6609 Y18.0254 F150.00
G01 X7.6620 Y18.0011 F150.00
G01 X7.6620 Y16.2889 F150.00
G01 X7.6609 Y16.2646 F150.00
G01 X7.6564 Y16.2345 F150.00
G01 X7.6490 Y16.2049 F150.00
G01 X7.6387 Y16.1762 F150.00
G01 X7.6257 Y16.1487 F150.00
G01 X7.6100 Y16.1226 F150.00
G01 X7.5919 Y16.0981 F150.00
G01 X7.5715 Y16.0755 F150.00
G01 X7.5489 Y16.0551 F150.00
G01 X7.5244 Y16.0370 F150.00
G01 X7.4983 Y16.0213 F150.00
G01 X7.4708 Y16.0083 F150.00
G01 X7.4421 Y15.9980 F150.00
G01 X7.4125 Y15.9906 F150.00
G01 X7.3824 Y15.9861 F150.00
G01 X7.3581 Y15.9850 F150.00
G00 Z2.0000
G00 X6.4929 Y18.5250
G01 F60.00
G01 Z-0.1149
G01 F150.00
G01 X6.3973 Y18.5297 F150.00
G01 X6.3793 Y18.5315 F150.00
G01 X6.2846 Y18.5455 F150.00
G01 X6.2668 Y18.5491 F150.00
G01 X6.1740 Y18.5723 F150.00
G01 X6.1566 Y18.5776 F150.00
G01 X6.0665 Y18.6098 F150.00
G01 X6.0497 Y18.6168 F150.00
G01 X5.9632 Y18.6577 F150.00
G01 X5.9472 Y18.6663 F150.00
G01 X5.8651 Y18.7155 F150.00
G01 X5.8500 Y18.7256 F150.00
G01 X5.7731 Y18.7826 F150.00
G01 X5.7591 Y18.7941 F150.00
G01 X5.6882 Y18.8583 F150.00
G01 X5.6753 Y18.8712 F150.00
G01 X5.6111 Y18.9421 F150.00
G01 X5.5996 Y18.9561 F150.00
G01 X5.5426 Y19.0330 F150.00
G01 X5.5325 Y19.0481 F150.00
G01 X5.4833 Y19.1302 F150.00
G01 X5.4747 Y19.1462 F150.00
G01 X5.4338 Y19.2327 F150.00
G01 X5.4268 Y19.2495 F150.00
G01 X5.3946 Y19.3396 F150.00
G01 X5.3893 Y19.3570 F150.00
G01 X5.3661 Y19.4498 F150.00
G01 X5.3625 Y19.4676 F150.00
G01 X5.3485 Y19.5623 F150.00
G01 X5.3467 Y19.5803 F150.00
G01 X5.3420 Y19.6759 F150.00
G01 X5.3420 Y19.6941 F150.00
G01 X5.3467 Y19.7897 F150.00
G01 X5.3485 Y19.8077 F150.00
G01 X5.3625 Y19.9024 F150.00
G01 X5.3661 Y19.9202 F150.00
G01 X5.3893 Y20.0130 F150.00
G01 X5.3946 Y20.0304 F150.00
G01 X5.4268 Y20.1205 F150.00
G01 X5.4338 Y20.1373 F150.00
G01 X5.4747 Y20.2238 F150.00
G01 X5.4833 Y20.2398 F150.00
G01 X5.5325 Y20.3219 F150.00
G01 X5.5426 Y20.3370 F150.00
G01 X5.5996 Y20.4139 F150.00
G01 X5.6111 Y20.4279 F150.00
G01 X5.6753 Y20.4988 F150.00
G01 X5.6882 Y20.5117 F150.00
G01 X5.7591 Y20.5759 F150.00
G01 X5.7731 Y20.5874 F150.00
G01 X5.8500 Y20.6444 F150.00
G01 X5.8651 Y20.6545 F150.00
G01 X5.9472 Y20.7037 F150.00
G01 X5.9632 Y20.7123 F150.00
G01 X6.0497 Y20.7532 F150.00
G01 X6.0665 Y20.7602 F150.00
G01 X6.1566 Y20.7924 F150.00
G01 X6.1740 Y20.7977 F150.00
G01 X6.2668 Y20.8209 F150.00
G01 X6.2846 Y20.8245 F150.00
G01 X6.3793 Y20.8385 F150.00
G01 X6.3973 Y20.8403 F150.00
G01 X6.4929 Y20.8450 F150.00
G01 X6.5111 Y20.8450 F150.00
G01 X6.6067 Y20.8403 F150.00
G01 X6.6247 Y20.8385 F150.00
G01 X6.7194 Y20.8245 F150.00
G01 X6.7372 Y20.8209 F150.00
G01 X6.8300 Y20.7977 F150.00
G01 X6.8474 Y20.7924 F150.00
G01 X6.9375 Y20.7602 F150.00
G01 X6.9543 Y20.7532 F150.00
G01 X7.0408 Y20.7123 F150.00
G01 X7.0568 Y20.7037 F150.00
G01 X7.1389 Y20.6545 F150.00
G01 X7.1540 Y20.6444 F150.00
G01 X7.2309 Y20.5874 F150.00
G01 X7.2449 Y20.5759 F150.00
G01 X7.3158 Y20.5117 F150.00
G01 X7.3287 Y20.4988 F150.00
G01 X7.3929 Y20.4279 F150.00
G01 X7.4044 Y20.4139 F150.00
G01 X7.4614 Y20.3370 F150.00
G01 X7.4715 Y20.3219 F150.00
G01 X7.5207 Y20.2398 F150.00
G01 X7.5293 Y20.2238 F150.00
G01 X7.5702 Y20.1373 F150.00
G01 X7.5772 Y20.1205 F150.00
G01 X7.6094 Y20.0304 F150.00
G01 X7.6147 Y20.0130 F150.00
G01 X7.6379 Y19.9202 F150.00
G01 X7.6415 Y19.9024 F150.00
G01 X7.6555 Y19.8077 F150.00
G01 X7.6573 Y19.7897 F150.00
G01 X7.6620 Y19.6941 F150.00
G01 X7.6620 Y19.6759 F150.00
G01 X7.6573 Y19.5803 F150.00
G01 X7.6555 Y19.5623 F150.00
G01 X7.6415 Y19.4676 F150.00
G01 X7.6379 Y19.4498 F150.00
G01 X7.6147 Y19.3570 F150.00
G01 X7.6094 Y19.3396 F150.00
G01 X7.5772 Y19.2495 F150.00
G01 X7.5702 Y19.2327 F150.00
G01 X7.5293 Y19.1462 F150.00
G01 X7.5207 Y19.1302 F150.00
G01 X7.4715 Y19.0481 F150.00
G01 X7.4614 Y19.0330 F150.00
G01 X7.4044 Y18.9561 F150.00
G01 X7.3929 Y18.9421 F150.00
G01 X7.3287 Y18.8712 F150.00
G01 X7.3158 Y18.8583 F150.00
G01 X7.2449 Y18.7941 F150.00
G01 X7.2309 Y18.7826 F150.00
G01 X7.1540 Y18.7256 F150.00
G01 X7.1389 Y18.7155 F150.00
G01 X7.0568 Y18.6663 F150.00
G01 X7.0408 Y18.6577 F150.00
G01 X6.9543 Y18.6168 F150.00
G01 X6.9375 Y18.6098 F150.00
G01 X6.8474 Y18.5776 F150.00
G01 X6.8300 Y18.5723 F150.00
G01 X6.7372 Y18.5491 F150.00
G01 X6.7194 Y18.5455 F150.00
G01 X6.6247 Y18.5315 F150.00
G01 X6.6067 Y18.5297 F150.00
G01 X6.5111 Y18.5250 F150.00
G01 X6.4929 Y18.5250 F150.00
G00 Z2.0000
G00 X5.3327 Y21.5898
G01 F60.00
G01 Z-0.1149
G01 F150.00
G01 X5.4105 Y21.4532 F150.00
G01 X5.4913 Y21.3598 F150.00
G01 X5.5215 Y21.3216 F150.00
G01 X5.5321 Y21.3065 F150.00
G01 X5.5549 Y21.2705 F150.00
G01 X5.5640 Y21.2544 F150.00
G01 X5.5830 Y21.2163 F150.00
G01 X5.5904 Y21.1994 F150.00
G01 X5.6055 Y21.1596 F150.00
G01 X5.6112 Y21.1420 F150.00
G01 X5.6223 Y21.1009 F150.00
G01 X5.6262 Y21.0829 F150.00
G01 X5.6332 Y21.0409 F150.00
G01 X5.6352 Y21.0225 F150.00
G01 X5.6379 Y20.9800 F150.00
G01 X5.6382 Y20.9615 F150.00
G01 X5.6366 Y20.9190 F150.00
G01 X5.6350 Y20.9006 F150.00
G01 X5.6292 Y20.8584 F150.00
G01 X5.6258 Y20.8402 F150.00
G01 X5.6158 Y20.7989 F150.00
G01 X5.6105 Y20.7811 F150.00
G01 X5.5965 Y20.7410 F150.00
G01 X5.5895 Y20.7239 F150.00
G01 X5.5715 Y20.6853 F150.00
G01 X5.5628 Y20.6690 F150.00
G01 X5.5411 Y20.6324 F150.00
G01 X5.5308 Y20.6170 F150.00
G01 X5.5074 Y20.5853 F150.00
G01 X5.3826 Y20.4330 F150.00
G01 X5.2582 Y20.2002 F150.00
G01 X5.1816 Y19.9476 F150.00
G01 X5.1557 Y19.6850 F150.00
G01 X5.1816 Y19.4224 F150.00
G01 X5.2582 Y19.1698 F150.00
G01 X5.3572 Y18.9841 F150.00
G01 X5.3737 Y18.9491 F150.00
G01 X5.3807 Y18.9324 F150.00
G01 X5.3947 Y18.8931 F150.00
G01 X5.4000 Y18.8757 F150.00
G01 X5.4102 Y18.8352 F150.00
G01 X5.4137 Y18.8174 F150.00
G01 X5.4198 Y18.7761 F150.00
G01 X5.4216 Y18.7580 F150.00
G01 X5.4237 Y18.7163 F150.00
G01 X5.4237 Y18.6982 F150.00
G01 X5.4216 Y18.6565 F150.00
G01 X5.4198 Y18.6384 F150.00
G01 X5.4137 Y18.5971 F150.00
G01 X5.4102 Y18.5793 F150.00
G01 X5.4000 Y18.5388 F150.00
G01 X5.3947 Y18.5215 F150.00
G01 X5.3807 Y18.4822 F150.00
G01 X5.3737 Y18.4654 F150.00
G01 X5.3559 Y18.4277 F150.00
G01 X5.3473 Y18.4116 F150.00
G01 X5.3259 Y18.3758 F150.00
G01 X5.3158 Y18.3607 F150.00
G01 X5.2872 Y18.3225 F150.00
G01 X5.2428 Y18.2684 F150.00
G01 X5.1973 Y18.1833 F150.00
G01 X5.1693 Y18.0910 F150.00
G01 X5.1569 Y17.9650 F150.00
G01 X5.1569 Y16.3250 F150.00
G01 X5.1693 Y16.1990 F150.00
G01 X5.1973 Y16.1067 F150.00
G01 X5.2428 Y16.0216 F150.00
G01 X5.3040 Y15.9470 F150.00
G01 X5.3786 Y15.8858 F150.00
G01 X5.4637 Y15.8403 F150.00
G01 X5.5560 Y15.8123 F150.00
G01 X5.6820 Y15.7999 F150.00
G01 X7.3220 Y15.7999 F150.00
G01 X7.4480 Y15.8123 F150.00
G01 X7.5403 Y15.8403 F150.00
G01 X7.6254 Y15.8858 F150.00
G01 X7.7000 Y15.9470 F150.00
G01 X7.7612 Y16.0216 F150.00
G01 X7.8067 Y16.1067 F150.00
G01 X7.8347 Y16.1990 F150.00
G01 X7.8471 Y16.3250 F150.00
G01 X7.8471 Y17.9650 F150.00
G01 X7.8347 Y18.0910 F150.00
G01 X7.8067 Y18.1833 F150.00
G01 X7.7612 Y18.2684 F150.00
G01 X7.7112 Y18.3297 F150.00
G01 X7.6882 Y18.3607 F150.00
G01 X7.6781 Y18.3758 F150.00
G01 X7.6567 Y18.4116 F150.00
G01 X7.6481 Y18.4277 F150.00
G01 X7.6303 Y18.4654 F150.00
G01 X7.6233 Y18.4822 F150.00
G01 X7.6093 Y18.5215 F150.00
G01 X7.6040 Y18.5388 F150.00
G01 X7.5938 Y18.5793 F150.00
G01 X7.5903 Y18.5971 F150.00
G01 X7.5842 Y18.6384 F150.00
G01 X7.5824 Y18.6565 F150.00
G01 X7.5803 Y18.6982 F150.00
G01 X7.5803 Y18.7163 F150.00
G01 X7.5824 Y18.7580 F150.00
G01 X7.5842 Y18.7761 F150.00
G01 X7.5903 Y18.8174 F150.00
G01 X7.5938 Y18.8352 F150.00
G01 X7.6040 Y18.8757 F150.00
G01 X7.6093 Y18.8931 F150.00
G01 X7.6233 Y18.9324 F150.00
G01 X7.6303 Y18.9491 F150.00
G01 X7.6468 Y18.9841 F150.00
G01 X7.7458 Y19.1698 F150.00
G01 X7.8224 Y19.4224 F150.00
G01 X7.8483 Y19.6850 F150.00
G01 X7.8224 Y19.9476 F150.00
G01 X7.7458 Y20.2002 F150.00
G01 X7.6214 Y20.4330 F150.00
G01 X7.5023 Y20.5780 F150.00
G01 X7.4732 Y20.6170 F150.00
G01 X7.4629 Y20.6324 F150.00
G01 X7.4412 Y20.6690 F150.00
G01 X7.4325 Y20.6853 F150.00
G01 X7.4145 Y20.7239 F150.00
G01 X7.4075 Y20.7410 F150.00
G01 X7.3935 Y20.7811 F150.00
G01 X7.3882 Y20.7989 F150.00
G01 X7.3782 Y20.8402 F150.00
G01 X7.3748 Y20.8584 F150.00
G01 X7.3690 Y20.9006 F150.00
G01 X7.3674 Y20.9190 F150.00
G01 X7.3658 Y20.9615 F150.00
G01 X7.3661 Y20.9800 F150.00
G01 X7.3688 Y21.0225 F150.00
G01 X7.3708 Y21.0409 F150.00
G01 X7.3778 Y21.0829 F150.00
G01 X7.3817 Y21.1009 F150.00
G01 X7.3928 Y21.1420 F150.00
G01 X7.3985 Y21.1596 F150.00
G01 X7.4136 Y21.1994 F150.00
G01 X7.4210 Y21.2163 F150.00
G01 X7.4400 Y21.2544 F150.00
G01 X7.4491 Y21.2705 F150.00
G01 X7.4719 Y21.3065 F150.00
G01 X7.4825 Y21.3216 F150.00
G01 X7.5127 Y21.3598 F150.00
G01 X7.5935 Y21.4532 F150.00
G01 X7.6712 Y21.5897 F150.00
G01 X7.4725 Y21.5897 F150.00
G01 X7.4614 Y21.5730 F150.00
G01 X7.4044 Y21.4961 F150.00
G01 X7.3929 Y21.4821 F150.00
G01 X7.3287 Y21.4112 F150.00
G01 X7.3158 Y21.3983 F150.00
G01 X7.2449 Y21.3341 F150.00
G01 X7.2309 Y21.3226 F150.00
G01 X7.1540 Y21.2656 F150.00
G01 X7.1389 Y21.2555 F150.00
G01 X7.0568 Y21.2063 F150.00
G01 X7.0408 Y21.1977 F150.00
G01 X6.9543 Y21.1568 F150.00
G01 X6.9375 Y21.1498 F150.00
G01 X6.8474 Y21.1176 F150.00
G01 X6.8300 Y21.1123 F150.00
G01 X6.7372 Y21.0891 F150.00
G01 X6.7194 Y21.0855 F150.00
G01 X6.6247 Y21.0715 F150.00
G01 X6.6067 Y21.0697 F150.00
G01 X6.5111 Y21.0650 F150.00
G01 X6.4929 Y21.0650 F150.00
G01 X6.3973 Y21.0697 F150.00
G01 X6.3793 Y21.0715 F150.00
G01 X6.2846 Y21.0855 F150.00
G01 X6.2668 Y21.0891 F150.00
G01 X6.1740 Y21.1123 F150.00
G01 X6.1566 Y21.1176 F150.00
G01 X6.0665 Y21.1498 F150.00
G01 X6.0497 Y21.1568 F150.00
G01 X5.9632 Y21.1977 F150.00
G01 X5.9472 Y21.2063 F150.00
G01 X5.8651 Y21.2555 F150.00
G01 X5.8500 Y21.2656 F150.00
G01 X5.7731 Y21.3226 F150.00
G01 X5.7591 Y21.3341 F150.00
G01 X5.6882 Y21.3983 F150.00
G01 X5.6753 Y21.4112 F150.00
G01 X5.6111 Y21.4821 F150.00
G01 X5.5996 Y21.4961 F150.00
G01 X5.5426 Y21.5730 F150.00
G01 X5.5315 Y21.5898 F150.00
G01 X5.3327 Y21.5898 F150.00
G00 Z2.0000
G00 X5.3328 Y22.8603
G01 F60.00
G01 Z-0.1149
G01 F150.00
G01 X5.5315 Y22.8603 F150.00
G01 X5.5426 Y22.8770 F150.00
G01 X5.5996 Y22.9539 F150.00
G01 X5.6111 Y22.9679 F150.00
G01 X5.6753 Y23.0388 F150.00
G01 X5.6882 Y23.0517 F150.00
G01 X5.7591 Y23.1159 F150.00
G01 X5.7731 Y23.1274 F150.00
G01 X5.8500 Y23.1844 F150.00
G01 X5.8668 Y23.1955 F150.00
G01 X5.8668 Y23.3948 F150.00
G01 X5.7889 Y23.3558 F150.00
G01 X5.5820 Y23.1950 F150.00
G01 X5.4105 Y22.9968 F150.00
G01 X5.3328 Y22.8603 F150.00
G00 Z2.0000
G00 X7.1372 Y23.3948
G01 F60.00
G01 Z-0.1149
G01 F150.00
G01 X7.1372 Y23.1955 F150.00
G01 X7.1540 Y23.1844 F150.00
G01 X7.2309 Y23.1274 F150.00
G01 X7.2449 Y23.1159 F150.00
G01 X7.3158 Y23.0517 F150.00
G01 X7.3287 Y23.0388 F150.00
G01 X7.3929 Y22.9679 F150.00
G01 X7.4044 Y22.9539 F150.00
G01 X7.4614 Y22.8770 F150.00
G01 X7.4725 Y22.8602 F150.00
G01 X7.6713 Y22.8602 F150.00
G01 X7.5935 Y22.9968 F150.00
G01 X7.4220 Y23.1950 F150.00
G01 X7.2151 Y23.3558 F150.00
G01 X7.1372 Y23.3948 F150.00
G00 Z2.0000
G00 X14.5853 Y21.9658
G01 F60.00
G01 Z-0.1149
G01 F150.00
G01 X12.8967 Y21.9658 F150.00
G01 X12.8724 Y21.9669 F150.00
G01 X12.8423 Y21.9714 F150.00
G01 X12.8127 Y21.9788 F150.00
G01 X12.7840 Y21.9891 F150.00
G01 X12.7565 Y22.0021 F150.00
G01 X12.7304 Y22.0178 F150.00
G01 X12.7059 Y22.0359 F150.00
G01 X12.6833 Y22.0563 F150.00
G01 X12.6629 Y22.0789 F150.00
G01 X12.6448 Y22.1034 F150.00
G01 X12.6291 Y22.1295 F150.00
G01 X12.6161 Y22.1570 F150.00
G01 X12.6058 Y22.1857 F150.00
G01 X12.5984 Y22.2153 F150.00
G01 X12.5939 Y22.2454 F150.00
G01 X12.5928 Y22.2697 F150.00
G01 X12.5928 Y23.9583 F150.00
G01 X12.5939 Y23.9826 F150.00
G01 X12.5984 Y24.0127 F150.00
G01 X12.6058 Y24.0423 F150.00
G01 X12.6161 Y24.0710 F150.00
G01 X12.6291 Y24.0985 F150.00
G01 X12.6448 Y24.1246 F150.00
G01 X12.6629 Y24.1491 F150.00
G01 X12.6833 Y24.1717 F150.00
G01 X12.7059 Y24.1921 F150.00
G01 X12.7304 Y24.2102 F150.00
G01 X12.7565 Y24.2259 F150.00
G01 X12.7840 Y24.2389 F150.00
G01 X12.8127 Y24.2492 F150.00
G01 X12.8423 Y24.2566 F150.00
G01 X12.8724 Y24.2611 F150.00
G01 X12.8967 Y24.2622 F150.00
G01 X14.5853 Y24.2622 F150.00
G01 X14.6096 Y24.2611 F150.00
G01 X14.6397 Y24.2566 F150.00
G01 X14.6693 Y24.2492 F150.00
G01 X14.6980 Y24.2389 F150.00
G01 X14.7255 Y24.2259 F150.00
G01 X14.7516 Y24.2102 F150.00
G01 X14.7761 Y24.1921 F150.00
G01 X14.7987 Y24.1717 F150.00
G01 X14.8191 Y24.1491 F150.00
G01 X14.8372 Y24.1246 F150.00
G01 X14.8529 Y24.0985 F150.00
G01 X14.8659 Y24.0710 F150.00
G01 X14.8762 Y24.0423 F150.00
G01 X14.8836 Y24.0127 F150.00
G01 X14.8881 Y23.9826 F150.00
G01 X14.8892 Y23.9583 F150.00
G01 X14.8892 Y22.2697 F150.00
G01 X14.8881 Y22.2454 F150.00
G01 X14.8836 Y22.2153 F150.00
G01 X14.8762 Y22.1857 F150.00
G01 X14.8659 Y22.1570 F150.00
G01 X14.8529 Y22.1295 F150.00
G01 X14.8372 Y22.1034 F150.00
G01 X14.8191 Y22.0789 F150.00
G01 X14.7987 Y22.0563 F150.00
G01 X14.7761 Y22.0359 F150.00
G01 X14.7516 Y22.0178 F150.00
G01 X14.7255 Y22.0021 F150.00
G01 X14.6980 Y21.9891 F150.00
G01 X14.6693 Y21.9788 F150.00
G01 X14.6397 Y21.9714 F150.00
G01 X14.6096 Y21.9669 F150.00
G01 X14.5853 Y21.9658 F150.00
G00 Z2.0000
G00 X15.1328 Y23.1231
G01 F60.00
G01 Z-0.1149
G01 F150.00
G01 X15.1375 Y23.2175 F150.00
G01 X15.1392 Y23.2356 F150.00
G01 X15.1531 Y23.3291 F150.00
G01 X15.1567 Y23.3469 F150.00
G01 X15.1796 Y23.4386 F150.00
G01 X15.1849 Y23.4560 F150.00
G01 X15.2167 Y23.5450 F150.00
G01 X15.2237 Y23.5618 F150.00
G01 X15.2641 Y23.6472 F150.00
G01 X15.2727 Y23.6633 F150.00
G01 X15.3213 Y23.7443 F150.00
G01 X15.3314 Y23.7594 F150.00
G01 X15.3877 Y23.8354 F150.00
G01 X15.3992 Y23.8494 F150.00
G01 X15.4627 Y23.9195 F150.00
G01 X15.4755 Y23.9323 F150.00
G01 X15.5456 Y23.9958 F150.00
G01 X15.5596 Y24.0073 F150.00
G01 X15.6356 Y24.0636 F150.00
G01 X15.6507 Y24.0737 F150.00
G01 X15.7317 Y24.1223 F150.00
G01 X15.7478 Y24.1309 F150.00
G01 X15.8332 Y24.1713 F150.00
G01 X15.8500 Y24.1783 F150.00
G01 X15.9390 Y24.2101 F150.00
G01 X15.9564 Y24.2154 F150.00
G01 X16.0481 Y24.2383 F150.00
G01 X16.0659 Y24.2419 F150.00
G01 X16.1594 Y24.2558 F150.00
G01 X16.1775 Y24.2575 F150.00
G01 X16.2719 Y24.2622 F150.00
G01 X16.2901 Y24.2622 F150.00
G01 X16.3845 Y24.2575 F150.00
G01 X16.4026 Y24.2558 F150.00
G01 X16.4961 Y24.2419 F150.00
G01 X16.5139 Y24.2383 F150.00
G01 X16.6056 Y24.2154 F150.00
G01 X16.6230 Y24.2101 F150.00
G01 X16.7120 Y24.1783 F150.00
G01 X16.7288 Y24.1713 F150.00
G01 X16.8142 Y24.1309 F150.00
G01 X16.8303 Y24.1223 F150.00
G01 X16.9113 Y24.0737 F150.00
G01 X16.9264 Y24.0636 F150.00
G01 X17.0024 Y24.0073 F150.00
G01 X17.0164 Y23.9958 F150.00
G01 X17.0865 Y23.9323 F150.00
G01 X17.0993 Y23.9195 F150.00
G01 X17.1628 Y23.8494 F150.00
G01 X17.1743 Y23.8354 F150.00
G01 X17.2306 Y23.7594 F150.00
G01 X17.2407 Y23.7443 F150.00
G01 X17.2893 Y23.6633 F150.00
G01 X17.2979 Y23.6472 F150.00
G01 X17.3383 Y23.5618 F150.00
G01 X17.3453 Y23.5450 F150.00
G01 X17.3771 Y23.4560 F150.00
G01 X17.3824 Y23.4386 F150.00
G01 X17.4053 Y23.3469 F150.00
G01 X17.4089 Y23.3291 F150.00
G01 X17.4228 Y23.2356 F150.00
G01 X17.4245 Y23.2175 F150.00
G01 X17.4292 Y23.1231 F150.00
G01 X17.4292 Y23.1049 F150.00
G01 X17.4245 Y23.0105 F150.00
G01 X17.4228 Y22.9924 F150.00
G01 X17.4089 Y22.8989 F150.00
G01 X17.4053 Y22.8811 F150.00
G01 X17.3824 Y22.7894 F150.00
G01 X17.3771 Y22.7720 F150.00
G01 X17.3453 Y22.6830 F150.00
G01 X17.3383 Y22.6662 F150.00
G01 X17.2979 Y22.5808 F150.00
G01 X17.2893 Y22.5647 F150.00
G01 X17.2407 Y22.4837 F150.00
G01 X17.2306 Y22.4686 F150.00
G01 X17.1743 Y22.3926 F150.00
G01 X17.1628 Y22.3786 F150.00
G01 X17.0993 Y22.3085 F150.00
G01 X17.0865 Y22.2957 F150.00
G01 X17.0164 Y22.2322 F150.00
G01 X17.0024 Y22.2207 F150.00
G01 X16.9264 Y22.1644 F150.00
G01 X16.9113 Y22.1543 F150.00
G01 X16.8303 Y22.1057 F150.00
G01 X16.8142 Y22.0971 F150.00
G01 X16.7288 Y22.0567 F150.00
G01 X16.7120 Y22.0497 F150.00
G01 X16.6230 Y22.0179 F150.00
G01 X16.6056 Y22.0126 F150.00
G01 X16.5139 Y21.9897 F150.00
G01 X16.4961 Y21.9861 F150.00
G01 X16.4026 Y21.9722 F150.00
G01 X16.3845 Y21.9705 F150.00
G01 X16.2901 Y21.9658 F150.00
G01 X16.2719 Y21.9658 F150.00
G01 X16.1775 Y21.9705 F150.00
G01 X16.1594 Y21.9722 F150.00
G01 X16.0659 Y21.9861 F150.00
G01 X16.0481 Y21.9897 F150.00
G01 X15.9564 Y22.0126 F150.00
G01 X15.9390 Y22.0179 F150.00
G01 X15.8500 Y22.0497 F150.00
G01 X15.8332 Y22.0567 F150.00
G01 X15.7478 Y22.0971 F150.00
G01 X15.7317 Y22.1057 F150.00
G01 X15.6507 Y22.1543 F150.00
G01 X15.6356 Y22.1644 F150.00
G01 X15.5596 Y22.2207 F150.00
G01 X15.5456 Y22.2322 F150.00
G01 X15.4755 Y22.2957 F150.00
G01 X15.4627 Y22.3085 F150.00
G01 X15.3992 Y22.3786 F150.00
G01 X15.3877 Y22.3926 F150.00
G01 X15.3314 Y22.4686 F150.00
G01 X15.3213 Y22.4837 F150.00
G01 X15.2727 Y22.5647 F150.00
G01 X15.2641 Y22.5808 F150.00
G01 X15.2237 Y22.6662 F150.00
G01 X15.2167 Y22.6830 F150.00
G01 X15.1849 Y22.7720 F150.00
G01 X15.1796 Y22.7894 F150.00
G01 X15.1567 Y22.8811 F150.00
G01 X15.1531 Y22.8989 F150.00
G01 X15.1392 Y22.9924 F150.00
G01 X15.1375 Y23.0105 F150.00
G01 X15.1328 Y23.1049 F150.00
G01 X15.1328 Y23.1231 F150.00
G00 Z2.0000
G00 X17.6728 Y23.1231
G01 F60.00
G01 Z-0.1149
G01 F150.00
G01 X17.6775 Y23.2175 F150.00
G01 X17.6792 Y23.2356 F150.00
G01 X17.6931 Y23.3291 F150.00
G01 X17.6967 Y23.3469 F150.00
G01 X17.7196 Y23.4386 F150.00
G01 X17.7249 Y23.4560 F150.00
G01 X17.7567 Y23.5450 F150.00
G01 X17.7637 Y23.5618 F150.00
G01 X17.8041 Y23.6472 F150.00
G01 X17.8127 Y23.6633 F150.00
G01 X17.8613 Y23.7443 F150.00
G01 X17.8714 Y23.7594 F150.00
G01 X17.9277 Y23.8354 F150.00
G01 X17.9392 Y23.8494 F150.00
G01 X18.0027 Y23.9195 F150.00
G01 X18.0155 Y23.9323 F150.00
G01 X18.0856 Y23.9958 F150.00
G01 X18.0996 Y24.0073 F150.00
G01 X18.1756 Y24.0636 F150.00
G01 X18.1907 Y24.0737 F150.00
G01 X18.2717 Y24.1223 F150.00
G01 X18.2878 Y24.1309 F150.00
G01 X18.3732 Y24.1713 F150.00
G01 X18.3900 Y24.1783 F150.00
G01 X18.4790 Y24.2101 F150.00
G01 X18.4964 Y24.2154 F150.00
G01 X18.5881 Y24.2383 F150.00
G01 X18.6059 Y24.2419 F150.00
G01 X18.6994 Y24.2558 F150.00
G01 X18.7175 Y24.2575 F150.00
G01 X18.8119 Y24.2622 F150.00
G01 X18.8301 Y24.2622 F150.00
G01 X18.9245 Y24.2575 F150.00
G01 X18.9426 Y24.2558 F150.00
G01 X19.0361 Y24.2419 F150.00
G01 X19.0539 Y24.2383 F150.00
G01 X19.1456 Y24.2154 F150.00
G01 X19.1630 Y24.2101 F150.00
G01 X19.2520 Y24.1783 F150.00
G01 X19.2688 Y24.1713 F150.00
G01 X19.3542 Y24.1309 F150.00
G01 X19.3703 Y24.1223 F150.00
G01 X19.4513 Y24.0737 F150.00
G01 X19.4664 Y24.0636 F150.00
G01 X19.5424 Y24.0073 F150.00
G01 X19.5564 Y23.9958 F150.00
G01 X19.6265 Y23.9323 F150.00
G01 X19.6393 Y23.9195 F150.00
G01 X19.7028 Y23.8494 F150.00
G01 X19.7143 Y23.8354 F150.00
G01 X19.7706 Y23.7594 F150.00
G01 X19.7807 Y23.7443 F150.00
G01 X19.8293 Y23.6633 F150.00
G01 X19.8379 Y23.6472 F150.00
G01 X19.8783 Y23.5618 F150.00
G01 X19.8853 Y23.5450 F150.00
G01 X19.9171 Y23.4560 F150.00
G01 X19.9224 Y23.4386 F150.00
G01 X19.9453 Y23.3469 F150.00
G01 X19.9489 Y23.3291 F150.00
G01 X19.9628 Y23.2356 F150.00
G01 X19.9645 Y23.2175 F150.00
G01 X19.9692 Y23.1231 F150.00
G01 X19.9692 Y23.1049 F150.00
G01 X19.9645 Y23.0105 F150.00
G01 X19.9628 Y22.9924 F150.00
G01 X19.9489 Y22.8989 F150.00
G01 X19.9453 Y22.8811 F150.00
G01 X19.9224 Y22.7894 F150.00
G01 X19.9171 Y22.7720 F150.00
G01 X19.8853 Y22.6830 F150.00
G01 X19.8783 Y22.6662 F150.00
G01 X19.8379 Y22.5808 F150.00
G01 X19.8293 Y22.5647 F150.00
G01 X19.7807 Y22.4837 F150.00
G01 X19.7706 Y22.4686 F150.00
G01 X19.7143 Y22.3926 F150.00
G01 X19.7028 Y22.3786 F150.00
G01 X19.6393 Y22.3085 F150.00
G01 X19.6265 Y22.2957 F150.00
G01 X19.5564 Y22.2322 F150.00
G01 X19.5424 Y22.2207 F150.00
G01 X19.4664 Y22.1644 F150.00
G01 X19.4513 Y22.1543 F150.00
G01 X19.3703 Y22.1057 F150.00
G01 X19.3542 Y22.0971 F150.00
G01 X19.2688 Y22.0567 F150.00
G01 X19.2520 Y22.0497 F150.00
G01 X19.1630 Y22.0179 F150.00
G01 X19.1456 Y22.0126 F150.00
G01 X19.0539 Y21.9897 F150.00
G01 X19.0361 Y21.9861 F150.00
G01 X18.9426 Y21.9722 F150.00
G01 X18.9245 Y21.9705 F150.00
G01 X18.8301 Y21.9658 F150.00
G01 X18.8119 Y21.9658 F150.00
G01 X18.7175 Y21.9705 F150.00
G01 X18.6994 Y21.9722 F150.00
G01 X18.6059 Y21.9861 F150.00
G01 X18.5881 Y21.9897 F150.00
G01 X18.4964 Y22.0126 F150.00
G01 X18.4790 Y22.0179 F150.00
G01 X18.3900 Y22.0497 F150.00
G01 X18.3732 Y22.0567 F150.00
G01 X18.2878 Y22.0971 F150.00
G01 X18.2717 Y22.1057 F150.00
G01 X18.1907 Y22.1543 F150.00
G01 X18.1756 Y22.1644 F150.00
G01 X18.0996 Y22.2207 F150.00
G01 X18.0856 Y22.2322 F150.00
G01 X18.0155 Y22.2957 F150.00
G01 X18.0027 Y22.3085 F150.00
G01 X17.9392 Y22.3786 F150.00
G01 X17.9277 Y22.3926 F150.00
G01 X17.8714 Y22.4686 F150.00
G01 X17.8613 Y22.4837 F150.00
G01 X17.8127 Y22.5647 F150.00
G01 X17.8041 Y22.5808 F150.00
G01 X17.7637 Y22.6662 F150.00
G01 X17.7567 Y22.6830 F150.00
G01 X17.7249 Y22.7720 F150.00
G01 X17.7196 Y22.7894 F150.00
G01 X17.6967 Y22.8811 F150.00
G01 X17.6931 Y22.8989 F150.00
G01 X17.6792 Y22.9924 F150.00
G01 X17.6775 Y23.0105 F150.00
G01 X17.6728 Y23.1049 F150.00
G01 X17.6728 Y23.1231 F150.00
G00 Z2.0000
G00 X18.2644 Y21.9075
G01 F60.00
G01 Z-0.1149
G01 F150.00
G01 X18.3431 Y21.8681 F150.00
G01 X18.5953 Y21.7988 F150.00
G01 X18.8563 Y21.7800 F150.00
G01 X19.1158 Y21.8126 F150.00
G01 X19.3641 Y21.8951 F150.00
G01 X19.3762 Y21.9020 F150.00
G01 X19.3846 Y21.9349 F150.00
G01 X19.3900 Y21.9522 F150.00
G01 X19.4042 Y21.9913 F150.00
G01 X19.4112 Y22.0080 F150.00
G01 X19.4292 Y22.0456 F150.00
G01 X19.4378 Y22.0615 F150.00
G01 X19.4593 Y22.0972 F150.00
G01 X19.4695 Y22.1122 F150.00
G01 X19.4944 Y22.1455 F150.00
G01 X19.5059 Y22.1595 F150.00
G01 X19.5340 Y22.1902 F150.00
G01 X19.5469 Y22.2030 F150.00
G01 X19.5778 Y22.2309 F150.00
G01 X19.5919 Y22.2423 F150.00
G01 X19.6254 Y22.2670 F150.00
G01 X19.6405 Y22.2770 F150.00
G01 X19.6763 Y22.2983 F150.00
G01 X19.6923 Y22.3068 F150.00
G01 X19.7300 Y22.3245 F150.00
G01 X19.7467 Y22.3314 F150.00
G01 X19.7860 Y22.3453 F150.00
G01 X19.8033 Y22.3506 F150.00
G01 X19.8437 Y22.3606 F150.00
G01 X19.8615 Y22.3641 F150.00
G01 X19.9027 Y22.3701 F150.00
G01 X19.9208 Y22.3718 F150.00
G01 X19.9623 Y22.3738 F150.00
G01 X19.9805 Y22.3738 F150.00
G01 X20.0221 Y22.3717 F150.00
G01 X20.0401 Y22.3699 F150.00
G01 X20.0813 Y22.3637 F150.00
G01 X20.0990 Y22.3601 F150.00
G01 X20.1394 Y22.3500 F150.00
G01 X20.1567 Y22.3447 F150.00
G01 X20.1959 Y22.3306 F150.00
G01 X20.2127 Y22.3237 F150.00
G01 X20.2503 Y22.3058 F150.00
G01 X20.2663 Y22.2973 F150.00
G01 X20.3020 Y22.2758 F150.00
G01 X20.3170 Y22.2658 F150.00
G01 X20.3505 Y22.2410 F150.00
G01 X20.3645 Y22.2295 F150.00
G01 X20.3996 Y22.1973 F150.00
G01 X20.5144 Y22.0825 F150.00
G01 X20.7320 Y21.9371 F150.00
G01 X20.9736 Y21.8370 F150.00
G01 X21.2302 Y21.7860 F150.00
G01 X21.4918 Y21.7860 F150.00
G01 X21.7484 Y21.8370 F150.00
G01 X21.9900 Y21.9371 F150.00
G01 X22.2076 Y22.0825 F150.00
G01 X22.3925 Y22.2674 F150.00
G01 X22.5379 Y22.4850 F150.00
G01 X22.6380 Y22.7266 F150.00
G01 X22.6890 Y22.9832 F150.00
G01 X22.6890 Y23.2448 F150.00
G01 X22.6380 Y23.5014 F150.00
G01 X22.5379 Y23.7430 F150.00
G01 X22.3925 Y23.9606 F150.00
G01 X22.2076 Y24.1455 F150.00
G01 X21.9900 Y24.2909 F150.00
G01 X21.7484 Y24.3910 F150.00
G01 X21.4918 Y24.4420 F150.00
G01 X21.2302 Y24.4420 F150.00
G01 X20.9736 Y24.3910 F150.00
G01 X20.7320 Y24.2909 F150.00
G01 X20.5144 Y24.1455 F150.00
G01 X20.3996 Y24.0307 F150.00
G01 X20.3645 Y23.9985 F150.00
G01 X20.3505 Y23.9870 F150.00
G01 X20.3170 Y23.9622 F150.00
G01 X20.3020 Y23.9522 F150.00
G01 X20.2663 Y23.9307 F150.00
G01 X20.2503 Y23.9222 F150.00
G01 X20.2127 Y23.9043 F150.00
G01 X20.1959 Y23.8974 F150.00
G01 X20.1567 Y23.8833 F150.00
G01 X20.1394 Y23.8780 F150.00
G01 X20.0990 Y23.8679 F150.00
G01 X20.0813 Y23.8643 F150.00
G01 X20.0401 Y23.8581 F150.00
G01 X20.0221 Y23.8563 F150.00
G01 X19.9805 Y23.8542 F150.00
G01 X19.9623 Y23.8542 F150.00
G01 X19.9208 Y23.8562 F150.00
G01 X19.9027 Y23.8579 F150.00
G01 X19.8615 Y23.8639 F150.00
G01 X19.8437 Y23.8674 F150.00
G01 X19.8033 Y23.8774 F150.00
G01 X19.7860 Y23.8827 F150.00
G01 X19.7467 Y23.8966 F150.00
G01 X19.7300 Y23.9035 F150.00
G01 X19.6923 Y23.9212 F150.00
G01 X19.6763 Y23.9297 F150.00
G01 X19.6405 Y23.9510 F150.00
G01 X19.6254 Y23.9610 F150.00
G01 X19.5919 Y23.9857 F150.00
G01 X19.5778 Y23.9971 F150.00
G01 X19.5469 Y24.0250 F150.00
G01 X19.5340 Y24.0378 F150.00
G01 X19.5059 Y24.0685 F150.00
G01 X19.4944 Y24.0825 F150.00
G01 X19.4695 Y24.1158 F150.00
G01 X19.4593 Y24.1308 F150.00
G01 X19.4378 Y24.1665 F150.00
G01 X19.4292 Y24.1824 F150.00
G01 X19.4112 Y24.2200 F150.00
G01 X19.4042 Y24.2367 F150.00
G01 X19.3900 Y24.2758 F150.00
G01 X19.3846 Y24.2931 F150.00
G01 X19.3776 Y24.3205 F150.00
G01 X19.2989 Y24.3599 F150.00
G01 X19.0467 Y24.4292 F150.00
G01 X18.7857 Y24.4480 F150.00
G01 X18.5262 Y24.4154 F150.00
G01 X18.2779 Y24.3329 F150.00
G01 X18.2658 Y24.3260 F150.00
G01 X18.2574 Y24.2931 F150.00
G01 X18.2520 Y24.2758 F150.00
G01 X18.2378 Y24.2367 F150.00
G01 X18.2308 Y24.2200 F150.00
G01 X18.2128 Y24.1824 F150.00
G01 X18.2042 Y24.1665 F150.00
G01 X18.1827 Y24.1308 F150.00
G01 X18.1725 Y24.1158 F150.00
G01 X18.1476 Y24.0825 F150.00
G01 X18.1361 Y24.0685 F150.00
G01 X18.1080 Y24.0378 F150.00
G01 X18.0951 Y24.0250 F150.00
G01 X18.0642 Y23.9971 F150.00
G01 X18.0501 Y23.9857 F150.00
G01 X18.0166 Y23.9610 F150.00
G01 X18.0015 Y23.9510 F150.00
G01 X17.9657 Y23.9297 F150.00
G01 X17.9497 Y23.9212 F150.00
G01 X17.9120 Y23.9035 F150.00
G01 X17.8953 Y23.8966 F150.00
G01 X17.8560 Y23.8827 F150.00
G01 X17.8387 Y23.8774 F150.00
G01 X17.7983 Y23.8674 F150.00
G01 X17.7805 Y23.8639 F150.00
G01 X17.7393 Y23.8579 F150.00
G01 X17.7212 Y23.8562 F150.00
G01 X17.6797 Y23.8542 F150.00
G01 X17.6615 Y23.8542 F150.00
G01 X17.6199 Y23.8563 F150.00
G01 X17.6019 Y23.8581 F150.00
G01 X17.5607 Y23.8643 F150.00
G01 X17.5430 Y23.8679 F150.00
G01 X17.5026 Y23.8780 F150.00
G01 X17.4853 Y23.8833 F150.00
G01 X17.4461 Y23.8974 F150.00
G01 X17.4293 Y23.9043 F150.00
G01 X17.3917 Y23.9222 F150.00
G01 X17.3757 Y23.9307 F150.00
G01 X17.3400 Y23.9522 F150.00
G01 X17.3250 Y23.9622 F150.00
G01 X17.2915 Y23.9870 F150.00
G01 X17.2775 Y23.9985 F150.00
G01 X17.2424 Y24.0307 F150.00
G01 X17.1276 Y24.1455 F150.00
G01 X16.9100 Y24.2909 F150.00
G01 X16.6684 Y24.3910 F150.00
G01 X16.4118 Y24.4420 F150.00
G01 X16.1502 Y24.4420 F150.00
G01 X15.8936 Y24.3910 F150.00
G01 X15.6520 Y24.2909 F150.00
G01 X15.6248 Y24.2730 F150.00
G01 X15.5917 Y24.2531 F150.00
G01 X15.5756 Y24.2446 F150.00
G01 X15.5379 Y24.2267 F150.00
G01 X15.5211 Y24.2198 F150.00
G01 X15.4818 Y24.2057 F150.00
G01 X15.4645 Y24.2004 F150.00
G01 X15.4240 Y24.1903 F150.00
G01 X15.4062 Y24.1867 F150.00
G01 X15.3649 Y24.1806 F150.00
G01 X15.3468 Y24.1788 F150.00
G01 X15.3051 Y24.1768 F150.00
G01 X15.2870 Y24.1768 F150.00
G01 X15.2453 Y24.1788 F150.00
G01 X15.2272 Y24.1806 F150.00
G01 X15.1859 Y24.1867 F150.00
G01 X15.1681 Y24.1903 F150.00
G01 X15.1276 Y24.2004 F150.00
G01 X15.1102 Y24.2057 F150.00
G01 X15.0709 Y24.2198 F150.00
G01 X15.0542 Y24.2267 F150.00
G01 X15.0164 Y24.2446 F150.00
G01 X15.0004 Y24.2531 F150.00
G01 X14.9646 Y24.2746 F150.00
G01 X14.9495 Y24.2847 F150.00
G01 X14.9113 Y24.3133 F150.00
G01 X14.8526 Y24.3614 F150.00
G01 X14.7675 Y24.4069 F150.00
G01 X14.6752 Y24.4349 F150.00
G01 X14.5492 Y24.4473 F150.00
G01 X12.9328 Y24.4473 F150.00
G01 X12.8068 Y24.4349 F150.00
G01 X12.7145 Y24.4069 F150.00
G01 X12.6294 Y24.3614 F150.00
G01 X12.5548 Y24.3002 F150.00
G01 X12.4936 Y24.2256 F150.00
G01 X12.4481 Y24.1405 F150.00
G01 X12.4201 Y24.0482 F150.00
G01 X12.4077 Y23.9222 F150.00
G01 X12.4077 Y22.3058 F150.00
G01 X12.4201 Y22.1798 F150.00
G01 X12.4481 Y22.0875 F150.00
G01 X12.4936 Y22.0024 F150.00
G01 X12.5548 Y21.9278 F150.00
G01 X12.6294 Y21.8666 F150.00
G01 X12.7145 Y21.8211 F150.00
G01 X12.8068 Y21.7931 F150.00
G01 X12.9328 Y21.7807 F150.00
G01 X14.5492 Y21.7807 F150.00
G01 X14.6752 Y21.7931 F150.00
G01 X14.7675 Y21.8211 F150.00
G01 X14.8526 Y21.8666 F150.00
G01 X14.9185 Y21.9203 F150.00
G01 X14.9495 Y21.9433 F150.00
G01 X14.9646 Y21.9534 F150.00
G01 X15.0004 Y21.9749 F150.00
G01 X15.0164 Y21.9834 F150.00
G01 X15.0542 Y22.0013 F150.00
G01 X15.0709 Y22.0082 F150.00
G01 X15.1102 Y22.0223 F150.00
G01 X15.1276 Y22.0276 F150.00
G01 X15.1681 Y22.0377 F150.00
G01 X15.1859 Y22.0413 F150.00
G01 X15.2272 Y22.0474 F150.00
G01 X15.2453 Y22.0492 F150.00
G01 X15.2870 Y22.0512 F150.00
G01 X15.3051 Y22.0512 F150.00
G01 X15.3468 Y22.0492 F150.00
G01 X15.3649 Y22.0474 F150.00
G01 X15.4062 Y22.0413 F150.00
G01 X15.4240 Y22.0377 F150.00
G01 X15.4645 Y22.0276 F150.00
G01 X15.4818 Y22.0223 F150.00
G01 X15.5211 Y22.0082 F150.00
G01 X15.5379 Y22.0013 F150.00
G01 X15.5756 Y21.9834 F150.00
G01 X15.5917 Y21.9749 F150.00
G01 X15.6248 Y21.9550 F150.00
G01 X15.6520 Y21.9371 F150.00
G01 X15.8936 Y21.8370 F150.00
G01 X16.1502 Y21.7860 F150.00
G01 X16.4118 Y21.7860 F150.00
G01 X16.6684 Y21.8370 F150.00
G01 X16.9100 Y21.9371 F150.00
G01 X17.1276 Y22.0825 F150.00
G01 X17.2424 Y22.1973 F150.00
G01 X17.2775 Y22.2295 F150.00
G01 X17.2915 Y22.2410 F150.00
G01 X17.3250 Y22.2658 F150.00
G01 X17.3400 Y22.2758 F150.00
G01 X17.3757 Y22.2973 F150.00
G01 X17.3917 Y22.3058 F150.00
G01 X17.4293 Y22.3237 F150.00
G01 X17.4461 Y22.3306 F150.00
G01 X17.4853 Y22.3447 F150.00
G01 X17.5026 Y22.3500 F150.00
G01 X17.5430 Y22.3601 F150.00
G01 X17.5607 Y22.3637 F150.00
G01 X17.6019 Y22.3699 F150.00
G01 X17.6199 Y22.3717 F150.00
G01 X17.6615 Y22.3738 F150.00
G01 X17.6797 Y22.3738 F150.00
G01 X17.7212 Y22.3718 F150.00
G01 X17.7393 Y22.3701 F150.00
G01 X17.7805 Y22.3641 F150.00
G01 X17.7983 Y22.3606 F150.00
G01 X17.8387 Y22.3506 F150.00
G01 X17.8560 Y22.3453 F150.00
G01 X17.8953 Y22.3314 F150.00
G01 X17.9120 Y22.3245 F150.00
G01 X17.9497 Y22.3068 F150.00
G01 X17.9657 Y22.2983 F150.00
G01 X18.0015 Y22.2770 F150.00
G01 X18.0166 Y22.2670 F150.00
G01 X18.0501 Y22.2423 F150.00
G01 X18.0642 Y22.2309 F150.00
G01 X18.0951 Y22.2030 F150.00
G01 X18.1080 Y22.1902 F150.00
G01 X18.1361 Y22.1595 F150.00
G01 X18.1476 Y22.1455 F150.00
G01 X18.1725 Y22.1122 F150.00
G01 X18.1827 Y22.0972 F150.00
G01 X18.2042 Y22.0615 F150.00
G01 X18.2128 Y22.0456 F150.00
G01 X18.2308 Y22.0080 F150.00
G01 X18.2378 Y21.9913 F150.00
G01 X18.2520 Y21.9522 F150.00
G01 X18.2574 Y21.9349 F150.00
G01 X18.2644 Y21.9075 F150.00
G00 Z2.0000
G00 X20.2128 Y23.1231
G01 F60.00
G01 Z-0.1149
G01 F150.00
G01 X20.2175 Y23.2175 F150.00
G01 X20.2192 Y23.2356 F150.00
G01 X20.2331 Y23.3291 F150.00
G01 X20.2367 Y23.3469 F150.00
G01 X20.2596 Y23.4386 F150.00
G01 X20.2649 Y23.4560 F150.00
G01 X20.2967 Y23.5450 F150.00
G01 X20.3037 Y23.5618 F150.00
G01 X20.3441 Y23.6472 F150.00
G01 X20.3527 Y23.6633 F150.00
G01 X20.4013 Y23.7443 F150.00
G01 X20.4114 Y23.7594 F150.00
G01 X20.4677 Y23.8354 F150.00
G01 X20.4792 Y23.8494 F150.00
G01 X20.5427 Y23.9195 F150.00
G01 X20.5555 Y23.9323 F150.00
G01 X20.6256 Y23.9958 F150.00
G01 X20.6396 Y24.0073 F150.00
G01 X20.7156 Y24.0636 F150.00
G01 X20.7307 Y24.0737 F150.00
G01 X20.8117 Y24.1223 F150.00
G01 X20.8278 Y24.1309 F150.00
G01 X20.9132 Y24.1713 F150.00
G01 X20.9300 Y24.1783 F150.00
G01 X21.0190 Y24.2101 F150.00
G01 X21.0364 Y24.2154 F150.00
G01 X21.1281 Y24.2383 F150.00
G01 X21.1459 Y24.2419 F150.00
G01 X21.2394 Y24.2558 F150.00
G01 X21.2575 Y24.2575 F150.00
G01 X21.3519 Y24.2622 F150.00
G01 X21.3701 Y24.2622 F150.00
G01 X21.4645 Y24.2575 F150.00
G01 X21.4826 Y24.2558 F150.00
G01 X21.5761 Y24.2419 F150.00
G01 X21.5939 Y24.2383 F150.00
G01 X21.6856 Y24.2154 F150.00
G01 X21.7030 Y24.2101 F150.00
G01 X21.7920 Y24.1783 F150.00
G01 X21.8088 Y24.1713 F150.00
G01 X21.8942 Y24.1309 F150.00
G01 X21.9103 Y24.1223 F150.00
G01 X21.9913 Y24.0737 F150.00
G01 X22.0064 Y24.0636 F150.00
G01 X22.0824 Y24.0073 F150.00
G01 X22.0964 Y23.9958 F150.00
G01 X22.1665 Y23.9323 F150.00
G01 X22.1793 Y23.9195 F150.00
G01 X22.2428 Y23.8494 F150.00
G01 X22.2543 Y23.8354 F150.00
G01 X22.3106 Y23.7594 F150.00
G01 X22.3207 Y23.7443 F150.00
G01 X22.3693 Y23.6633 F150.00
G01 X22.3779 Y23.6472 F150.00
G01 X22.4183 Y23.5618 F150.00
G01 X22.4253 Y23.5450 F150.00
G01 X22.4571 Y23.4560 F150.00
G01 X22.4624 Y23.4386 F150.00
G01 X22.4853 Y23.3469 F150.00
G01 X22.4889 Y23.3291 F150.00
G01 X22.5028 Y23.2356 F150.00
G01 X22.5045 Y23.2175 F150.00
G01 X22.5092 Y23.1231 F150.00
G01 X22.5092 Y23.1049 F150.00
G01 X22.5045 Y23.0105 F150.00
G01 X22.5028 Y22.9924 F150.00
G01 X22.4889 Y22.8989 F150.00
G01 X22.4853 Y22.8811 F150.00
G01 X22.4624 Y22.7894 F150.00
G01 X22.4571 Y22.7720 F150.00
G01 X22.4253 Y22.6830 F150.00
G01 X22.4183 Y22.6662 F150.00
G01 X22.3779 Y22.5808 F150.00
G01 X22.3693 Y22.5647 F150.00
G01 X22.3207 Y22.4837 F150.00
G01 X22.3106 Y22.4686 F150.00
G01 X22.2543 Y22.3926 F150.00
G01 X22.2428 Y22.3786 F150.00
G01 X22.1793 Y22.3085 F150.00
G01 X22.1665 Y22.2957 F150.00
G01 X22.0964 Y22.2322 F150.00
G01 X22.0824 Y22.2207 F150.00
G01 X22.0064 Y22.1644 F150.00
G01 X21.9913 Y22.1543 F150.00
G01 X21.9103 Y22.1057 F150.00
G01 X21.8942 Y22.0971 F150.00
G01 X21.8088 Y22.0567 F150.00
G01 X21.7920 Y22.0497 F150.00
G01 X21.7030 Y22.0179 F150.00
G01 X21.6856 Y22.0126 F150.00
G01 X21.5939 Y21.9897 F150.00
G01 X21.5761 Y21.9861 F150.00
G01 X21.4826 Y21.9722 F150.00
G01 X21.4645 Y21.9705 F150.00
G01 X21.3701 Y21.9658 F150.00
G01 X21.3519 Y21.9658 F150.00
G01 X21.2575 Y21.9705 F150.00
G01 X21.2394 Y21.9722 F150.00
G01 X21.1459 Y21.9861 F150.00
G01 X21.1281 Y21.9897 F150.00
G01 X21.0364 Y22.0126 F150.00
G01 X21.0190 Y22.0179 F150.00
G01 X20.9300 Y22.0497 F150.00
G01 X20.9132 Y22.0567 F150.00
G01 X20.8278 Y22.0971 F150.00
G01 X20.8117 Y22.1057 F150.00
G01 X20.7307 Y22.1543 F150.00
G01 X20.7156 Y22.1644 F150.00
G01 X20.6396 Y22.2207 F150.00
G01 X20.6256 Y22.2322 F150.00
G01 X20.5555 Y22.2957 F150.00
G01 X20.5427 Y22.3085 F150.00
G01 X20.4792 Y22.3786 F150.00
G01 X20.4677 Y22.3926 F150.00
G01 X20.4114 Y22.4686 F150.00
G01 X20.4013 Y22.4837 F150.00
G01 X20.3527 Y22.5647 F150.00
G01 X20.3441 Y22.5808 F150.00
G01 X20.3037 Y22.6662 F150.00
G01 X20.2967 Y22.6830 F150.00
G01 X20.2649 Y22.7720 F150.00
G01 X20.2596 Y22.7894 F150.00
G01 X20.2367 Y22.8811 F150.00
G01 X20.2331 Y22.8989 F150.00
G01 X20.2192 Y22.9924 F150.00
G01 X20.2175 Y23.0105 F150.00
G01 X20.2128 Y23.1049 F150.00
G01 X20.2128 Y23.1231 F150.00
G00 Z2.0000
G00 X19.5832 Y26.1357
G01 F60.00
G01 Z-0.1149
G01 F150.00
G01 X19.6262 Y26.1599 F150.00
G01 X19.6615 Y26.1777 F150.00
G01 X19.6785 Y26.1853 F150.00
G01 X19.7183 Y26.2006 F150.00
G01 X19.7360 Y26.2063 F150.00
G01 X19.7771 Y26.2176 F150.00
G01 X19.7953 Y26.2216 F150.00
G01 X19.8374 Y26.2286 F150.00
G01 X19.8558 Y26.2308 F150.00
G01 X19.8984 Y26.2335 F150.00
G01 X19.9170 Y26.2338 F150.00
G01 X19.9596 Y26.2324 F150.00
G01 X19.9781 Y26.2308 F150.00
G01 X20.0204 Y26.2250 F150.00
G01 X20.0386 Y26.2216 F150.00
G01 X20.0801 Y26.2116 F150.00
G01 X20.0979 Y26.2064 F150.00
G01 X20.1382 Y26.1923 F150.00
G01 X20.1554 Y26.1854 F150.00
G01 X20.1941 Y26.1673 F150.00
G01 X20.2105 Y26.1586 F150.00
G01 X20.2472 Y26.1368 F150.00
G01 X20.2627 Y26.1265 F150.00
G01 X20.3018 Y26.0973 F150.00
G01 X20.3646 Y26.0458 F150.00
G01 X20.4497 Y26.0003 F150.00
G01 X20.5420 Y25.9723 F150.00
G01 X20.6680 Y25.9599 F150.00
G01 X22.3080 Y25.9599 F150.00
G01 X22.4340 Y25.9723 F150.00
G01 X22.5263 Y26.0003 F150.00
G01 X22.6114 Y26.0458 F150.00
G01 X22.6860 Y26.1070 F150.00
G01 X22.7472 Y26.1816 F150.00
G01 X22.7927 Y26.2667 F150.00
G01 X22.8207 Y26.3590 F150.00
G01 X22.8331 Y26.4850 F150.00
G01 X22.8331 Y28.1250 F150.00
G01 X22.8207 Y28.2510 F150.00
G01 X22.7927 Y28.3433 F150.00
G01 X22.7472 Y28.4284 F150.00
G01 X22.6860 Y28.5030 F150.00
G01 X22.6114 Y28.5642 F150.00
G01 X22.5263 Y28.6097 F150.00
G01 X22.4340 Y28.6377 F150.00
G01 X22.3080 Y28.6501 F150.00
G01 X20.6680 Y28.6501 F150.00
G01 X20.5420 Y28.6377 F150.00
G01 X20.4497 Y28.6097 F150.00
G01 X20.3646 Y28.5642 F150.00
G01 X20.3018 Y28.5127 F150.00
G01 X20.2627 Y28.4835 F150.00
G01 X20.2472 Y28.4732 F150.00
G01 X20.2105 Y28.4514 F150.00
G01 X20.1941 Y28.4427 F150.00
G01 X20.1554 Y28.4246 F150.00
G01 X20.1382 Y28.4177 F150.00
G01 X20.0979 Y28.4036 F150.00
G01 X20.0801 Y28.3984 F150.00
G01 X20.0386 Y28.3884 F150.00
G01 X20.0204 Y28.3850 F150.00
G01 X19.9781 Y28.3792 F150.00
G01 X19.9596 Y28.3776 F150.00
G01 X19.9170 Y28.3762 F150.00
G01 X19.8984 Y28.3765 F150.00
G01 X19.8558 Y28.3792 F150.00
G01 X19.8374 Y28.3814 F150.00
G01 X19.7953 Y28.3884 F150.00
G01 X19.7771 Y28.3924 F150.00
G01 X19.7360 Y28.4037 F150.00
G01 X19.7183 Y28.4094 F150.00
G01 X19.6785 Y28.4247 F150.00
G01 X19.6615 Y28.4323 F150.00
G01 X19.6262 Y28.4501 F150.00
G01 X19.5832 Y28.4743 F150.00
G01 X19.5832 Y28.2755 F150.00
G01 X19.6000 Y28.2644 F150.00
G01 X19.6769 Y28.2074 F150.00
G01 X19.6909 Y28.1959 F150.00
G01 X19.7618 Y28.1317 F150.00
G01 X19.7747 Y28.1188 F150.00
G01 X19.8389 Y28.0479 F150.00
G01 X19.8504 Y28.0339 F150.00
G01 X19.9074 Y27.9570 F150.00
G01 X19.9175 Y27.9419 F150.00
G01 X19.9667 Y27.8598 F150.00
G01 X19.9753 Y27.8438 F150.00
G01 X20.0162 Y27.7573 F150.00
G01 X20.0232 Y27.7405 F150.00
G01 X20.0554 Y27.6504 F150.00
G01 X20.0607 Y27.6330 F150.00
G01 X20.0839 Y27.5402 F150.00
G01 X20.0875 Y27.5224 F150.00
G01 X20.1015 Y27.4277 F150.00
G01 X20.1033 Y27.4097 F150.00
G01 X20.1080 Y27.3141 F150.00
G01 X20.1080 Y27.2959 F150.00
G01 X20.1033 Y27.2003 F150.00
G01 X20.1015 Y27.1823 F150.00
G01 X20.0875 Y27.0876 F150.00
G01 X20.0839 Y27.0698 F150.00
G01 X20.0607 Y26.9770 F150.00
G01 X20.0554 Y26.9596 F150.00
G01 X20.0232 Y26.8695 F150.00
G01 X20.0162 Y26.8527 F150.00
G01 X19.9753 Y26.7662 F150.00
G01 X19.9667 Y26.7502 F150.00
G01 X19.9175 Y26.6681 F150.00
G01 X19.9074 Y26.6530 F150.00
G01 X19.8504 Y26.5761 F150.00
G01 X19.8389 Y26.5621 F150.00
G01 X19.7747 Y26.4912 F150.00
G01 X19.7618 Y26.4783 F150.00
G01 X19.6909 Y26.4141 F150.00
G01 X19.6769 Y26.4026 F150.00
G01 X19.6000 Y26.3456 F150.00
G01 X19.5832 Y26.3345 F150.00
G01 X19.5832 Y26.1357 F150.00
G00 Z2.0000
G00 X17.7782 Y26.6698
G01 F60.00
G01 Z-0.1149
G01 F150.00
G01 X17.8172 Y26.5919 F150.00
G01 X17.9780 Y26.3850 F150.00
G01 X18.1762 Y26.2135 F150.00
G01 X18.3127 Y26.1358 F150.00
G01 X18.3127 Y26.3345 F150.00
G01 X18.2960 Y26.3456 F150.00
G01 X18.2191 Y26.4026 F150.00
G01 X18.2051 Y26.4141 F150.00
G01 X18.1342 Y26.4783 F150.00
G01 X18.1213 Y26.4912 F150.00
G01 X18.0571 Y26.5621 F150.00
G01 X18.0456 Y26.5761 F150.00
G01 X17.9886 Y26.6530 F150.00
G01 X17.9775 Y26.6698 F150.00
G01 X17.7782 Y26.6698 F150.00
G00 Z2.0000
G00 X17.7782 Y27.9403
G01 F60.00
G01 Z-0.1149
G01 F150.00
G01 X17.9775 Y27.9403 F150.00
G01 X17.9886 Y27.9570 F150.00
G01 X18.0456 Y28.0339 F150.00
G01 X18.0571 Y28.0479 F150.00
G01 X18.1213 Y28.1188 F150.00
G01 X18.1342 Y28.1317 F150.00
G01 X18.2051 Y28.1959 F150.00
G01 X18.2191 Y28.2074 F150.00
G01 X18.2960 Y28.2644 F150.00
G01 X18.3128 Y28.2755 F150.00
G01 X18.3128 Y28.4743 F150.00
G01 X18.1762 Y28.3965 F150.00
G01 X17.9780 Y28.2250 F150.00
G01 X17.8172 Y28.0181 F150.00
G01 X17.7782 Y27.9403 F150.00
G00 Z2.0000
G00 X17.9684 Y31.6031
G01 F60.00
G01 Z-0.1149
G01 F150.00
G01 X18.0935 Y31.5687 F150.00
G01 X18.3469 Y31.5504 F150.00
G01 X18.5990 Y31.5819 F150.00
G01 X18.6589 Y31.6018 F150.00
G01 X18.5071 Y31.7536 F150.00
G01 X18.4308 Y31.7423 F150.00
G01 X18.4128 Y31.7405 F150.00
G01 X18.3221 Y31.7360 F150.00
G01 X18.3039 Y31.7360 F150.00
G01 X18.2132 Y31.7405 F150.00
G01 X18.1952 Y31.7423 F150.00
G01 X18.1189 Y31.7536 F150.00
G01 X17.9684 Y31.6031 F150.00
G00 Z2.0000
G00 X17.0701 Y33.1906
G01 F60.00
G01 Z-0.1149
G01 F150.00
G01 X17.0357 Y33.0655 F150.00
G01 X17.0174 Y32.8121 F150.00
G01 X17.0489 Y32.5600 F150.00
G01 X17.0688 Y32.5001 F150.00
G01 X17.2206 Y32.6519 F150.00
G01 X17.2093 Y32.7282 F150.00
G01 X17.2075 Y32.7462 F150.00
G01 X17.2030 Y32.8369 F150.00
G01 X17.2030 Y32.8551 F150.00
G01 X17.2075 Y32.9458 F150.00
G01 X17.2093 Y32.9638 F150.00
G01 X17.2206 Y33.0401 F150.00
G01 X17.0701 Y33.1906 F150.00
G00 Z2.0000
G00 X17.9671 Y34.0902
G01 F60.00
G01 Z-0.1149
G01 F150.00
G01 X18.1189 Y33.9384 F150.00
G01 X18.1952 Y33.9497 F150.00
G01 X18.2132 Y33.9515 F150.00
G01 X18.3039 Y33.9560 F150.00
G01 X18.3221 Y33.9560 F150.00
G01 X18.4128 Y33.9515 F150.00
G01 X18.4308 Y33.9497 F150.00
G01 X18.5071 Y33.9384 F150.00
G01 X18.6576 Y34.0889 F150.00
G01 X18.5325 Y34.1233 F150.00
G01 X18.2791 Y34.1416 F150.00
G01 X18.0270 Y34.1101 F150.00
G01 X17.9671 Y34.0902 F150.00
G00 Z2.0000
G00 X19.4054 Y33.0401
G01 F60.00
G01 Z-0.1149
G01 F150.00
G01 X19.4167 Y32.9638 F150.00
G01 X19.4185 Y32.9458 F150.00
G01 X19.4230 Y32.8551 F150.00
G01 X19.4230 Y32.8369 F150.00
G01 X19.4185 Y32.7462 F150.00
G01 X19.4167 Y32.7282 F150.00
G01 X19.4054 Y32.6519 F150.00
G01 X19.5559 Y32.5014 F150.00
G01 X19.5903 Y32.6265 F150.00
G01 X19.6086 Y32.8799 F150.00
G01 X19.5771 Y33.1320 F150.00
G01 X19.5572 Y33.1919 F150.00
G01 X19.4054 Y33.0401 F150.00
G00 Z2.0000
G00 X17.2030 Y37.8551
G01 F60.00
G01 Z-0.1149
G01 F150.00
G01 X17.2075 Y37.9458 F150.00
G01 X17.2093 Y37.9638 F150.00
G01 X17.2226 Y38.0536 F150.00
G01 X17.2261 Y38.0715 F150.00
G01 X17.2482 Y38.1595 F150.00
G01 X17.2535 Y38.1769 F150.00
G01 X17.2840 Y38.2624 F150.00
G01 X17.2910 Y38.2792 F150.00
G01 X17.3298 Y38.3612 F150.00
G01 X17.3384 Y38.3773 F150.00
G01 X17.3850 Y38.4551 F150.00
G01 X17.3951 Y38.4702 F150.00
G01 X17.4492 Y38.5431 F150.00
G01 X17.4607 Y38.5572 F150.00
G01 X17.5217 Y38.6244 F150.00
G01 X17.5346 Y38.6373 F150.00
G01 X17.6018 Y38.6983 F150.00
G01 X17.6159 Y38.7098 F150.00
G01 X17.6888 Y38.7639 F150.00
G01 X17.7039 Y38.7740 F150.00
G01 X17.7817 Y38.8206 F150.00
G01 X17.7978 Y38.8292 F150.00
G01 X17.8798 Y38.8680 F150.00
G01 X17.8966 Y38.8750 F150.00
G01 X17.9821 Y38.9055 F150.00
G01 X17.9995 Y38.9108 F150.00
G01 X18.0875 Y38.9329 F150.00
G01 X18.1054 Y38.9364 F150.00
G01 X18.1952 Y38.9497 F150.00
G01 X18.2132 Y38.9515 F150.00
G01 X18.3039 Y38.9560 F150.00
G01 X18.3221 Y38.9560 F150.00
G01 X18.4128 Y38.9515 F150.00
G01 X18.4308 Y38.9497 F150.00
G01 X18.5206 Y38.9364 F150.00
G01 X18.5385 Y38.9329 F150.00
G01 X18.6265 Y38.9108 F150.00
G01 X18.6439 Y38.9055 F150.00
G01 X18.7294 Y38.8750 F150.00
G01 X18.7462 Y38.8680 F150.00
G01 X18.8282 Y38.8292 F150.00
G01 X18.8443 Y38.8206 F150.00
G01 X18.9221 Y38.7740 F150.00
G01 X18.9372 Y38.7639 F150.00
G01 X19.0101 Y38.7098 F150.00
G01 X19.0242 Y38.6983 F150.00
G01 X19.0914 Y38.6373 F150.00
G01 X19.1043 Y38.6244 F150.00
G01 X19.1653 Y38.5572 F150.00
G01 X19.1768 Y38.5431 F150.00
G01 X19.2309 Y38.4702 F150.00
G01 X19.2410 Y38.4551 F150.00
G01 X19.2876 Y38.3773 F150.00
G01 X19.2962 Y38.3612 F150.00
G01 X19.3350 Y38.2792 F150.00
G01 X19.3420 Y38.2624 F150.00
G01 X19.3725 Y38.1769 F150.00
G01 X19.3778 Y38.1595 F150.00
G01 X19.3999 Y38.0715 F150.00
G01 X19.4034 Y38.0536 F150.00
G01 X19.4167 Y37.9638 F150.00
G01 X19.4185 Y37.9458 F150.00
G01 X19.4230 Y37.8551 F150.00
G01 X19.4230 Y37.8369 F150.00
G01 X19.4185 Y37.7462 F150.00
G01 X19.4167 Y37.7282 F150.00
G01 X19.4034 Y37.6384 F150.00
G01 X19.3999 Y37.6205 F150.00
G01 X19.3778 Y37.5325 F150.00
G01 X19.3725 Y37.5151 F150.00
G01 X19.3420 Y37.4296 F150.00
G01 X19.3350 Y37.4128 F150.00
G01 X19.2962 Y37.3308 F150.00
G01 X19.2876 Y37.3147 F150.00
G01 X19.2410 Y37.2369 F150.00
G01 X19.2309 Y37.2218 F150.00
G01 X19.1768 Y37.1489 F150.00
G01 X19.1653 Y37.1348 F150.00
G01 X19.1043 Y37.0676 F150.00
G01 X19.0914 Y37.0547 F150.00
G01 X19.0242 Y36.9937 F150.00
G01 X19.0101 Y36.9822 F150.00
G01 X18.9372 Y36.9281 F150.00
G01 X18.9221 Y36.9180 F150.00
G01 X18.8443 Y36.8714 F150.00
G01 X18.8282 Y36.8628 F150.00
G01 X18.7462 Y36.8240 F150.00
G01 X18.7294 Y36.8170 F150.00
G01 X18.6439 Y36.7865 F150.00
G01 X18.6265 Y36.7812 F150.00
G01 X18.5385 Y36.7591 F150.00
G01 X18.5206 Y36.7556 F150.00
G01 X18.4308 Y36.7423 F150.00
G01 X18.4128 Y36.7405 F150.00
G01 X18.3221 Y36.7360 F150.00
G01 X18.3039 Y36.7360 F150.00
G01 X18.2132 Y36.7405 F150.00
G01 X18.1952 Y36.7423 F150.00
G01 X18.1054 Y36.7556 F150.00
G01 X18.0875 Y36.7591 F150.00
G01 X17.9995 Y36.7812 F150.00
G01 X17.9821 Y36.7865 F150.00
G01 X17.8966 Y36.8170 F150.00
G01 X17.8798 Y36.8240 F150.00
G01 X17.7978 Y36.8628 F150.00
G01 X17.7817 Y36.8714 F150.00
G01 X17.7039 Y36.9180 F150.00
G01 X17.6888 Y36.9281 F150.00
G01 X17.6159 Y36.9822 F150.00
G01 X17.6018 Y36.9937 F150.00
G01 X17.5346 Y37.0547 F150.00
G01 X17.5217 Y37.0676 F150.00
G01 X17.4607 Y37.1348 F150.00
G01 X17.4492 Y37.1489 F150.00
G01 X17.3951 Y37.2218 F150.00
G01 X17.3850 Y37.2369 F150.00
G01 X17.3384 Y37.3147 F150.00
G01 X17.3298 Y37.3308 F150.00
G01 X17.2910 Y37.4128 F150.00
G01 X17.2840 Y37.4296 F150.00
G01 X17.2535 Y37.5151 F150.00
G01 X17.2482 Y37.5325 F150.00
G01 X17.2261 Y37.6205 F150.00
G01 X17.2226 Y37.6384 F150.00
G01 X17.2093 Y37.7282 F150.00
G01 X17.2075 Y37.7462 F150.00
G01 X17.2030 Y37.8369 F150.00
G01 X17.2030 Y37.8551 F150.00
G00 Z2.0000
G00 X17.1648 Y40.5221
G01 F60.00
G01 Z-0.1149
G01 F150.00
G01 X17.1695 Y40.6165 F150.00
G01 X17.1712 Y40.6346 F150.00
G01 X17.1851 Y40.7281 F150.00
G01 X17.1887 Y40.7459 F150.00
G01 X17.2116 Y40.8376 F150.00
G01 X17.2169 Y40.8550 F150.00
G01 X17.2487 Y40.9440 F150.00
G01 X17.2557 Y40.9608 F150.00
G01 X17.2961 Y41.0462 F150.00
G01 X17.3047 Y41.0623 F150.00
G01 X17.3533 Y41.1433 F150.00
G01 X17.3634 Y41.1584 F150.00
G01 X17.4197 Y41.2344 F150.00
G01 X17.4312 Y41.2484 F150.00
G01 X17.4947 Y41.3185 F150.00
G01 X17.5075 Y41.3313 F150.00
G01 X17.5776 Y41.3948 F150.00
G01 X17.5916 Y41.4063 F150.00
G01 X17.6676 Y41.4626 F150.00
G01 X17.6827 Y41.4727 F150.00
G01 X17.7637 Y41.5213 F150.00
G01 X17.7798 Y41.5299 F150.00
G01 X17.8652 Y41.5703 F150.00
G01 X17.8820 Y41.5773 F150.00
G01 X17.9710 Y41.6091 F150.00
G01 X17.9884 Y41.6144 F150.00
G01 X18.0801 Y41.6373 F150.00
G01 X18.0979 Y41.6409 F150.00
G01 X18.1914 Y41.6548 F150.00
G01 X18.2095 Y41.6565 F150.00
G01 X18.3039 Y41.6612 F150.00
G01 X18.3221 Y41.6612 F150.00
G01 X18.4165 Y41.6565 F150.00
G01 X18.4346 Y41.6548 F150.00
G01 X18.5281 Y41.6409 F150.00
G01 X18.5459 Y41.6373 F150.00
G01 X18.6376 Y41.6144 F150.00
G01 X18.6550 Y41.6091 F150.00
G01 X18.7440 Y41.5773 F150.00
G01 X18.7608 Y41.5703 F150.00
G01 X18.8462 Y41.5299 F150.00
G01 X18.8623 Y41.5213 F150.00
G01 X18.9433 Y41.4727 F150.00
G01 X18.9584 Y41.4626 F150.00
G01 X19.0344 Y41.4063 F150.00
G01 X19.0484 Y41.3948 F150.00
G01 X19.1185 Y41.3313 F150.00
G01 X19.1313 Y41.3185 F150.00
G01 X19.1948 Y41.2484 F150.00
G01 X19.2063 Y41.2344 F150.00
G01 X19.2626 Y41.1584 F150.00
G01 X19.2727 Y41.1433 F150.00
G01 X19.3213 Y41.0623 F150.00
G01 X19.3299 Y41.0462 F150.00
G01 X19.3703 Y40.9608 F150.00
G01 X19.3773 Y40.9440 F150.00
G01 X19.4091 Y40.8550 F150.00
G01 X19.4144 Y40.8376 F150.00
G01 X19.4373 Y40.7459 F150.00
G01 X19.4409 Y40.7281 F150.00
G01 X19.4548 Y40.6346 F150.00
G01 X19.4565 Y40.6165 F150.00
G01 X19.4612 Y40.5221 F150.00
G01 X19.4612 Y40.5039 F150.00
G01 X19.4565 Y40.4095 F150.00
G01 X19.4548 Y40.3914 F150.00
G01 X19.4409 Y40.2979 F150.00
G01 X19.4373 Y40.2801 F150.00
G01 X19.4144 Y40.1884 F150.00
G01 X19.4091 Y40.1710 F150.00
G01 X19.3773 Y40.0820 F150.00
G01 X19.3703 Y40.0652 F150.00
G01 X19.3299 Y39.9798 F150.00
G01 X19.3213 Y39.9637 F150.00
G01 X19.2727 Y39.8827 F150.00
G01 X19.2626 Y39.8676 F150.00
G01 X19.2063 Y39.7916 F150.00
G01 X19.1948 Y39.7776 F150.00
G01 X19.1313 Y39.7075 F150.00
G01 X19.1185 Y39.6947 F150.00
G01 X19.0484 Y39.6312 F150.00
G01 X19.0344 Y39.6197 F150.00
G01 X18.9584 Y39.5634 F150.00
G01 X18.9433 Y39.5533 F150.00
G01 X18.8623 Y39.5047 F150.00
G01 X18.8462 Y39.4961 F150.00
G01 X18.7608 Y39.4557 F150.00
G01 X18.7440 Y39.4487 F150.00
G01 X18.6550 Y39.4169 F150.00
G01 X18.6376 Y39.4116 F150.00
G01 X18.5459 Y39.3887 F150.00
G01 X18.5281 Y39.3851 F150.00
G01 X18.4346 Y39.3712 F150.00
G01 X18.4165 Y39.3695 F150.00
G01 X18.3221 Y39.3648 F150.00
G01 X18.3039 Y39.3648 F150.00
G01 X18.2095 Y39.3695 F150.00
G01 X18.1914 Y39.3712 F150.00
G01 X18.0979 Y39.3851 F150.00
G01 X18.0801 Y39.3887 F150.00
G01 X17.9884 Y39.4116 F150.00
G01 X17.9710 Y39.4169 F150.00
G01 X17.8820 Y39.4487 F150.00
G01 X17.8652 Y39.4557 F150.00
G01 X17.7798 Y39.4961 F150.00
G01 X17.7637 Y39.5047 F150.00
G01 X17.6827 Y39.5533 F150.00
G01 X17.6676 Y39.5634 F150.00
G01 X17.5916 Y39.6197 F150.00
G01 X17.5776 Y39.6312 F150.00
G01 X17.5075 Y39.6947 F150.00
G01 X17.4947 Y39.7075 F150.00
G01 X17.4312 Y39.7776 F150.00
G01 X17.4197 Y39.7916 F150.00
G01 X17.3634 Y39.8676 F150.00
G01 X17.3533 Y39.8827 F150.00
G01 X17.3047 Y39.9637 F150.00
G01 X17.2961 Y39.9798 F150.00
G01 X17.2557 Y40.0652 F150.00
G01 X17.2487 Y40.0820 F150.00
G01 X17.2169 Y40.1710 F150.00
G01 X17.2116 Y40.1884 F150.00
G01 X17.1887 Y40.2801 F150.00
G01 X17.1851 Y40.2979 F150.00
G01 X17.1712 Y40.3914 F150.00
G01 X17.1695 Y40.4095 F150.00
G01 X17.1648 Y40.5039 F150.00
G01 X17.1648 Y40.5221 F150.00
G00 Z2.0000
G00 X19.7048 Y40.5221
G01 F60.00
G01 Z-0.1149
G01 F150.00
G01 X19.7095 Y40.6165 F150.00
G01 X19.7112 Y40.6346 F150.00
G01 X19.7251 Y40.7281 F150.00
G01 X19.7287 Y40.7459 F150.00
G01 X19.7516 Y40.8376 F150.00
G01 X19.7569 Y40.8550 F150.00
G01 X19.7887 Y40.9440 F150.00
G01 X19.7957 Y40.9608 F150.00
G01 X19.8361 Y41.0462 F150.00
G01 X19.8447 Y41.0623 F150.00
G01 X19.8933 Y41.1433 F150.00
G01 X19.9034 Y41.1584 F150.00
G01 X19.9597 Y41.2344 F150.00
G01 X19.9712 Y41.2484 F150.00
G01 X20.0347 Y41.3185 F150.00
G01 X20.0475 Y41.3313 F150.00
G01 X20.1176 Y41.3948 F150.00
G01 X20.1316 Y41.4063 F150.00
G01 X20.2076 Y41.4626 F150.00
G01 X20.2227 Y41.4727 F150.00
G01 X20.3037 Y41.5213 F150.00
G01 X20.3198 Y41.5299 F150.00
G01 X20.4052 Y41.5703 F150.00
G01 X20.4220 Y41.5773 F150.00
G01 X20.5110 Y41.6091 F150.00
G01 X20.5284 Y41.6144 F150.00
G01 X20.6201 Y41.6373 F150.00
G01 X20.6379 Y41.6409 F150.00
G01 X20.7314 Y41.6548 F150.00
G01 X20.7495 Y41.6565 F150.00
G01 X20.8439 Y41.6612 F150.00
G01 X20.8621 Y41.6612 F150.00
G01 X20.9565 Y41.6565 F150.00
G01 X20.9746 Y41.6548 F150.00
G01 X21.0681 Y41.6409 F150.00
G01 X21.0859 Y41.6373 F150.00
G01 X21.1776 Y41.6144 F150.00
G01 X21.1950 Y41.6091 F150.00
G01 X21.2840 Y41.5773 F150.00
G01 X21.3008 Y41.5703 F150.00
G01 X21.3862 Y41.5299 F150.00
G01 X21.4023 Y41.5213 F150.00
G01 X21.4833 Y41.4727 F150.00
G01 X21.4984 Y41.4626 F150.00
G01 X21.5744 Y41.4063 F150.00
G01 X21.5884 Y41.3948 F150.00
G01 X21.6585 Y41.3313 F150.00
G01 X21.6713 Y41.3185 F150.00
G01 X21.7348 Y41.2484 F150.00
G01 X21.7463 Y41.2344 F150.00
G01 X21.8026 Y41.1584 F150.00
G01 X21.8127 Y41.1433 F150.00
G01 X21.8613 Y41.0623 F150.00
G01 X21.8699 Y41.0462 F150.00
G01 X21.9103 Y40.9608 F150.00
G01 X21.9173 Y40.9440 F150.00
G01 X21.9491 Y40.8550 F150.00
G01 X21.9544 Y40.8376 F150.00
G01 X21.9773 Y40.7459 F150.00
G01 X21.9809 Y40.7281 F150.00
G01 X21.9948 Y40.6346 F150.00
G01 X21.9965 Y40.6165 F150.00
G01 X22.0012 Y40.5221 F150.00
G01 X22.0012 Y40.5039 F150.00
G01 X21.9965 Y40.4095 F150.00
G01 X21.9948 Y40.3914 F150.00
G01 X21.9809 Y40.2979 F150.00
G01 X21.9773 Y40.2801 F150.00
G01 X21.9544 Y40.1884 F150.00
G01 X21.9491 Y40.1710 F150.00
G01 X21.9173 Y40.0820 F150.00
G01 X21.9103 Y40.0652 F150.00
G01 X21.8699 Y39.9798 F150.00
G01 X21.8613 Y39.9637 F150.00
G01 X21.8127 Y39.8827 F150.00
G01 X21.8026 Y39.8676 F150.00
G01 X21.7463 Y39.7916 F150.00
G01 X21.7348 Y39.7776 F150.00
G01 X21.6713 Y39.7075 F150.00
G01 X21.6585 Y39.6947 F150.00
G01 X21.5884 Y39.6312 F150.00
G01 X21.5744 Y39.6197 F150.00
G01 X21.4984 Y39.5634 F150.00
G01 X21.4833 Y39.5533 F150.00
G01 X21.4023 Y39.5047 F150.00
G01 X21.3862 Y39.4961 F150.00
G01 X21.3008 Y39.4557 F150.00
G01 X21.2840 Y39.4487 F150.00
G01 X21.1950 Y39.4169 F150.00
G01 X21.1776 Y39.4116 F150.00
G01 X21.0859 Y39.3887 F150.00
G01 X21.0681 Y39.3851 F150.00
G01 X20.9746 Y39.3712 F150.00
G01 X20.9565 Y39.3695 F150.00
G01 X20.8621 Y39.3648 F150.00
G01 X20.8439 Y39.3648 F150.00
G01 X20.7495 Y39.3695 F150.00
G01 X20.7314 Y39.3712 F150.00
G01 X20.6379 Y39.3851 F150.00
G01 X20.6201 Y39.3887 F150.00
G01 X20.5284 Y39.4116 F150.00
G01 X20.5110 Y39.4169 F150.00
G01 X20.4220 Y39.4487 F150.00
G01 X20.4052 Y39.4557 F150.00
G01 X20.3198 Y39.4961 F150.00
G01 X20.3037 Y39.5047 F150.00
G01 X20.2227 Y39.5533 F150.00
G01 X20.2076 Y39.5634 F150.00
G01 X20.1316 Y39.6197 F150.00
G01 X20.1176 Y39.6312 F150.00
G01 X20.0475 Y39.6947 F150.00
G01 X20.0347 Y39.7075 F150.00
G01 X19.9712 Y39.7776 F150.00
G01 X19.9597 Y39.7916 F150.00
G01 X19.9034 Y39.8676 F150.00
G01 X19.8933 Y39.8827 F150.00
G01 X19.8447 Y39.9637 F150.00
G01 X19.8361 Y39.9798 F150.00
G01 X19.7957 Y40.0652 F150.00
G01 X19.7887 Y40.0820 F150.00
G01 X19.7569 Y40.1710 F150.00
G01 X19.7516 Y40.1884 F150.00
G01 X19.7287 Y40.2801 F150.00
G01 X19.7251 Y40.2979 F150.00
G01 X19.7112 Y40.3914 F150.00
G01 X19.7095 Y40.4095 F150.00
G01 X19.7048 Y40.5039 F150.00
G01 X19.7048 Y40.5221 F150.00
G00 Z2.0000
G00 X23.2931 Y39.2866
G01 F60.00
G01 Z-0.1149
G01 F150.00
G01 X23.2587 Y39.1615 F150.00
G01 X23.2404 Y38.9081 F150.00
G01 X23.2719 Y38.6560 F150.00
G01 X23.2918 Y38.5961 F150.00
G01 X23.4436 Y38.7479 F150.00
G01 X23.4323 Y38.8242 F150.00
G01 X23.4305 Y38.8422 F150.00
G01 X23.4260 Y38.9329 F150.00
G01 X23.4260 Y38.9511 F150.00
G01 X23.4305 Y39.0418 F150.00
G01 X23.4323 Y39.0598 F150.00
G01 X23.4436 Y39.1361 F150.00
G01 X23.2931 Y39.2866 F150.00
G00 Z2.0000
G00 X24.1901 Y40.1862
G01 F60.00
G01 Z-0.1149
G01 F150.00
G01 X24.3419 Y40.0344 F150.00
G01 X24.4182 Y40.0457 F150.00
G01 X24.4362 Y40.0475 F150.00
G01 X24.5269 Y40.0520 F150.00
G01 X24.5451 Y40.0520 F150.00
G01 X24.6358 Y40.0475 F150.00
G01 X24.6538 Y40.0457 F150.00
G01 X24.7301 Y40.0344 F150.00
G01 X24.8806 Y40.1849 F150.00
G01 X24.7555 Y40.2193 F150.00
G01 X24.5021 Y40.2376 F150.00
G01 X24.2500 Y40.2061 F150.00
G01 X24.1901 Y40.1862 F150.00
G00 Z2.0000
G00 X25.6284 Y39.1361
G01 F60.00
G01 Z-0.1149
G01 F150.00
G01 X25.6397 Y39.0598 F150.00
G01 X25.6415 Y39.0418 F150.00
G01 X25.6460 Y38.9511 F150.00
G01 X25.6460 Y38.9329 F150.00
G01 X25.6415 Y38.8422 F150.00
G01 X25.6397 Y38.8242 F150.00
G01 X25.6284 Y38.7479 F150.00
G01 X25.7789 Y38.5974 F150.00
G01 X25.8133 Y38.7225 F150.00
G01 X25.8316 Y38.9759 F150.00
G01 X25.8001 Y39.2280 F150.00
G01 X25.7802 Y39.2879 F150.00
G01 X25.6284 Y39.1361 F150.00
G00 Z2.0000
G00 X24.1914 Y37.6991
G01 F60.00
G01 Z-0.1149
G01 F150.00
G01 X24.3165 Y37.6647 F150.00
G01 X24.5699 Y37.6464 F150.00
G01 X24.8220 Y37.6779 F150.00
G01 X24.8819 Y37.6978 F150.00
G01 X24.7301 Y37.8496 F150.00
G01 X24.6538 Y37.8383 F150.00
G01 X24.6358 Y37.8365 F150.00
G01 X24.5451 Y37.8320 F150.00
G01 X24.5269 Y37.8320 F150.00
G01 X24.4362 Y37.8365 F150.00
G01 X24.4182 Y37.8383 F150.00
G01 X24.3419 Y37.8496 F150.00
G01 X24.1914 Y37.6991 F150.00
G00 Z2.0000
G00 X23.4260 Y43.9511
G01 F60.00
G01 Z-0.1149
G01 F150.00
G01 X23.4305 Y44.0418 F150.00
G01 X23.4323 Y44.0598 F150.00
G01 X23.4456 Y44.1496 F150.00
G01 X23.4491 Y44.1675 F150.00
G01 X23.4712 Y44.2555 F150.00
G01 X23.4765 Y44.2729 F150.00
G01 X23.5070 Y44.3584 F150.00
G01 X23.5140 Y44.3752 F150.00
G01 X23.5528 Y44.4572 F150.00
G01 X23.5614 Y44.4733 F150.00
G01 X23.6080 Y44.5511 F150.00
G01 X23.6181 Y44.5662 F150.00
G01 X23.6722 Y44.6391 F150.00
G01 X23.6837 Y44.6532 F150.00
G01 X23.7447 Y44.7204 F150.00
G01 X23.7576 Y44.7333 F150.00
G01 X23.8248 Y44.7943 F150.00
G01 X23.8389 Y44.8058 F150.00
G01 X23.9118 Y44.8599 F150.00
G01 X23.9269 Y44.8700 F150.00
G01 X24.0047 Y44.9166 F150.00
G01 X24.0208 Y44.9252 F150.00
G01 X24.1028 Y44.9640 F150.00
G01 X24.1196 Y44.9710 F150.00
G01 X24.2051 Y45.0015 F150.00
G01 X24.2225 Y45.0068 F150.00
G01 X24.3105 Y45.0289 F150.00
G01 X24.3284 Y45.0324 F150.00
G01 X24.4182 Y45.0457 F150.00
G01 X24.4362 Y45.0475 F150.00
G01 X24.5269 Y45.0520 F150.00
G01 X24.5451 Y45.0520 F150.00
G01 X24.6358 Y45.0475 F150.00
G01 X24.6538 Y45.0457 F150.00
G01 X24.7436 Y45.0324 F150.00
G01 X24.7615 Y45.0289 F150.00
G01 X24.8495 Y45.0068 F150.00
G01 X24.8669 Y45.0015 F150.00
G01 X24.9524 Y44.9710 F150.00
G01 X24.9692 Y44.9640 F150.00
G01 X25.0512 Y44.9252 F150.00
G01 X25.0673 Y44.9166 F150.00
G01 X25.1451 Y44.8700 F150.00
G01 X25.1602 Y44.8599 F150.00
G01 X25.2331 Y44.8058 F150.00
G01 X25.2472 Y44.7943 F150.00
G01 X25.3144 Y44.7333 F150.00
G01 X25.3273 Y44.7204 F150.00
G01 X25.3883 Y44.6532 F150.00
G01 X25.3998 Y44.6391 F150.00
G01 X25.4539 Y44.5662 F150.00
G01 X25.4640 Y44.5511 F150.00
G01 X25.5106 Y44.4733 F150.00
G01 X25.5192 Y44.4572 F150.00
G01 X25.5580 Y44.3752 F150.00
G01 X25.5650 Y44.3584 F150.00
G01 X25.5955 Y44.2729 F150.00
G01 X25.6008 Y44.2555 F150.00
G01 X25.6229 Y44.1675 F150.00
G01 X25.6264 Y44.1496 F150.00
G01 X25.6397 Y44.0598 F150.00
G01 X25.6415 Y44.0418 F150.00
G01 X25.6460 Y43.9511 F150.00
G01 X25.6460 Y43.9329 F150.00
G01 X25.6415 Y43.8422 F150.00
G01 X25.6397 Y43.8242 F150.00
G01 X25.6264 Y43.7344 F150.00
G01 X25.6229 Y43.7165 F150.00
G01 X25.6008 Y43.6285 F150.00
G01 X25.5955 Y43.6111 F150.00
G01 X25.5650 Y43.5256 F150.00
G01 X25.5580 Y43.5088 F150.00
G01 X25.5192 Y43.4268 F150.00
G01 X25.5106 Y43.4107 F150.00
G01 X25.4640 Y43.3329 F150.00
G01 X25.4539 Y43.3178 F150.00
G01 X25.3998 Y43.2449 F150.00
G01 X25.3883 Y43.2308 F150.00
G01 X25.3273 Y43.1636 F150.00
G01 X25.3144 Y43.1507 F150.00
G01 X25.2472 Y43.0897 F150.00
G01 X25.2331 Y43.0782 F150.00
G01 X25.1602 Y43.0241 F150.00
G01 X25.1451 Y43.0140 F150.00
G01 X25.0673 Y42.9674 F150.00
G01 X25.0512 Y42.9588 F150.00
G01 X24.9692 Y42.9200 F150.00
G01 X24.9524 Y42.9130 F150.00
G01 X24.8669 Y42.8825 F150.00
G01 X24.8495 Y42.8772 F150.00
G01 X24.7615 Y42.8551 F150.00
G01 X24.7436 Y42.8516 F150.00
G01 X24.6538 Y42.8383 F150.00
G01 X24.6358 Y42.8365 F150.00
G01 X24.5451 Y42.8320 F150.00
G01 X24.5269 Y42.8320 F150.00
G01 X24.4362 Y42.8365 F150.00
G01 X24.4182 Y42.8383 F150.00
G01 X24.3284 Y42.8516 F150.00
G01 X24.3105 Y42.8551 F150.00
G01 X24.2225 Y42.8772 F150.00
G01 X24.2051 Y42.8825 F150.00
G01 X24.1196 Y42.9130 F150.00
G01 X24.1028 Y42.9200 F150.00
G01 X24.0208 Y42.9588 F150.00
G01 X24.0047 Y42.9674 F150.00
G01 X23.9269 Y43.0140 F150.00
G01 X23.9118 Y43.0241 F150.00
G01 X23.8389 Y43.0782 F150.00
G01 X23.8248 Y43.0897 F150.00
G01 X23.7576 Y43.1507 F150.00
G01 X23.7447 Y43.1636 F150.00
G01 X23.6837 Y43.2308 F150.00
G01 X23.6722 Y43.2449 F150.00
G01 X23.6181 Y43.3178 F150.00
G01 X23.6080 Y43.3329 F150.00
G01 X23.5614 Y43.4107 F150.00
G01 X23.5528 Y43.4268 F150.00
G01 X23.5140 Y43.5088 F150.00
G01 X23.5070 Y43.5256 F150.00
G01 X23.4765 Y43.6111 F150.00
G01 X23.4712 Y43.6285 F150.00
G01 X23.4491 Y43.7165 F150.00
G01 X23.4456 Y43.7344 F150.00
G01 X23.4323 Y43.8242 F150.00
G01 X23.4305 Y43.8422 F150.00
G01 X23.4260 Y43.9329 F150.00
G01 X23.4260 Y43.9511 F150.00
G00 Z2.0000
G00 X23.2478 Y44.0770
G01 F60.00
G01 Z-0.1149
G01 F150.00
G01 X23.2462 Y44.0690 F150.00
G01 X23.2462 Y43.8150 F150.00
G01 X23.2958 Y43.5658 F150.00
G01 X23.3930 Y43.3311 F150.00
G01 X23.5341 Y43.1198 F150.00
G01 X23.7138 Y42.9401 F150.00
G01 X23.9251 Y42.7990 F150.00
G01 X24.1598 Y42.7018 F150.00
G01 X24.4090 Y42.6522 F150.00
G01 X24.6630 Y42.6522 F150.00
G01 X24.9122 Y42.7018 F150.00
G01 X25.1469 Y42.7990 F150.00
G01 X25.3582 Y42.9401 F150.00
G01 X25.5379 Y43.1198 F150.00
G01 X25.6790 Y43.3311 F150.00
G01 X25.7762 Y43.5658 F150.00
G01 X25.8258 Y43.8150 F150.00
G01 X25.8258 Y44.0690 F150.00
G01 X25.7762 Y44.3182 F150.00
G01 X25.6790 Y44.5529 F150.00
G01 X25.5379 Y44.7642 F150.00
G01 X25.3582 Y44.9439 F150.00
G01 X25.1469 Y45.0850 F150.00
G01 X24.9122 Y45.1822 F150.00
G01 X24.6630 Y45.2318 F150.00
G01 X24.4090 Y45.2318 F150.00
G01 X24.1598 Y45.1822 F150.00
G01 X23.9251 Y45.0850 F150.00
G01 X23.7138 Y44.9439 F150.00
G01 X23.5341 Y44.7642 F150.00
G01 X23.3930 Y44.5529 F150.00
G01 X23.2958 Y44.3182 F150.00
G01 X23.2478 Y44.0770 F150.00
G00 Z2.0000
G00 X19.7048 Y48.1421
G01 F60.00
G01 Z-0.1149
G01 F150.00
G01 X19.7095 Y48.2365 F150.00
G01 X19.7112 Y48.2546 F150.00
G01 X19.7251 Y48.3481 F150.00
G01 X19.7287 Y48.3659 F150.00
G01 X19.7516 Y48.4576 F150.00
G01 X19.7569 Y48.4750 F150.00
G01 X19.7887 Y48.5640 F150.00
G01 X19.7957 Y48.5808 F150.00
G01 X19.8361 Y48.6662 F150.00
G01 X19.8447 Y48.6823 F150.00
G01 X19.8933 Y48.7633 F150.00
G01 X19.9034 Y48.7784 F150.00
G01 X19.9597 Y48.8544 F150.00
G01 X19.9712 Y48.8684 F150.00
G01 X20.0347 Y48.9385 F150.00
G01 X20.0475 Y48.9513 F150.00
G01 X20.1176 Y49.0148 F150.00
G01 X20.1316 Y49.0263 F150.00
G01 X20.2076 Y49.0826 F150.00
G01 X20.2227 Y49.0927 F150.00
G01 X20.3037 Y49.1413 F150.00
G01 X20.3198 Y49.1499 F150.00
G01 X20.4052 Y49.1903 F150.00
G01 X20.4220 Y49.1973 F150.00
G01 X20.5110 Y49.2291 F150.00
G01 X20.5284 Y49.2344 F150.00
G01 X20.6201 Y49.2573 F150.00
G01 X20.6379 Y49.2609 F150.00
G01 X20.7314 Y49.2748 F150.00
G01 X20.7495 Y49.2765 F150.00
G01 X20.8439 Y49.2812 F150.00
G01 X20.8621 Y49.2812 F150.00
G01 X20.9565 Y49.2765 F150.00
G01 X20.9746 Y49.2748 F150.00
G01 X21.0681 Y49.2609 F150.00
G01 X21.0859 Y49.2573 F150.00
G01 X21.1776 Y49.2344 F150.00
G01 X21.1950 Y49.2291 F150.00
G01 X21.2840 Y49.1973 F150.00
G01 X21.3008 Y49.1903 F150.00
G01 X21.3862 Y49.1499 F150.00
G01 X21.4023 Y49.1413 F150.00
G01 X21.4833 Y49.0927 F150.00
G01 X21.4984 Y49.0826 F150.00
G01 X21.5744 Y49.0263 F150.00
G01 X21.5884 Y49.0148 F150.00
G01 X21.6585 Y48.9513 F150.00
G01 X21.6713 Y48.9385 F150.00
G01 X21.7348 Y48.8684 F150.00
G01 X21.7463 Y48.8544 F150.00
G01 X21.8026 Y48.7784 F150.00
G01 X21.8127 Y48.7633 F150.00
G01 X21.8613 Y48.6823 F150.00
G01 X21.8699 Y48.6662 F150.00
G01 X21.9103 Y48.5808 F150.00
G01 X21.9173 Y48.5640 F150.00
G01 X21.9491 Y48.4750 F150.00
G01 X21.9544 Y48.4576 F150.00
G01 X21.9773 Y48.3659 F150.00
G01 X21.9809 Y48.3481 F150.00
G01 X21.9948 Y48.2546 F150.00
G01 X21.9965 Y48.2365 F150.00
G01 X22.0012 Y48.1421 F150.00
G01 X22.0012 Y48.1239 F150.00
G01 X21.9965 Y48.0295 F150.00
G01 X21.9948 Y48.0114 F150.00
G01 X21.9809 Y47.9179 F150.00
G01 X21.9773 Y47.9001 F150.00
G01 X21.9544 Y47.8084 F150.00
G01 X21.9491 Y47.7910 F150.00
G01 X21.9173 Y47.7020 F150.00
G01 X21.9103 Y47.6852 F150.00
G01 X21.8699 Y47.5998 F150.00
G01 X21.8613 Y47.5837 F150.00
G01 X21.8127 Y47.5027 F150.00
G01 X21.8026 Y47.4876 F150.00
G01 X21.7463 Y47.4116 F150.00
G01 X21.7348 Y47.3976 F150.00
G01 X21.6713 Y47.3275 F150.00
G01 X21.6585 Y47.3147 F150.00
G01 X21.5884 Y47.2512 F150.00
G01 X21.5744 Y47.2397 F150.00
G01 X21.4984 Y47.1834 F150.00
G01 X21.4833 Y47.1733 F150.00
G01 X21.4023 Y47.1247 F150.00
G01 X21.3862 Y47.1161 F150.00
G01 X21.3008 Y47.0757 F150.00
G01 X21.2840 Y47.0687 F150.00
G01 X21.1950 Y47.0369 F150.00
G01 X21.1776 Y47.0316 F150.00
G01 X21.0859 Y47.0087 F150.00
G01 X21.0681 Y47.0051 F150.00
G01 X20.9746 Y46.9912 F150.00
G01 X20.9565 Y46.9895 F150.00
G01 X20.8621 Y46.9848 F150.00
G01 X20.8439 Y46.9848 F150.00
G01 X20.7495 Y46.9895 F150.00
G01 X20.7314 Y46.9912 F150.00
G01 X20.6379 Y47.0051 F150.00
G01 X20.6201 Y47.0087 F150.00
G01 X20.5284 Y47.0316 F150.00
G01 X20.5110 Y47.0369 F150.00
G01 X20.4220 Y47.0687 F150.00
G01 X20.4052 Y47.0757 F150.00
G01 X20.3198 Y47.1161 F150.00
G01 X20.3037 Y47.1247 F150.00
G01 X20.2227 Y47.1733 F150.00
G01 X20.2076 Y47.1834 F150.00
G01 X20.1316 Y47.2397 F150.00
G01 X20.1176 Y47.2512 F150.00
G01 X20.0475 Y47.3147 F150.00
G01 X20.0347 Y47.3275 F150.00
G01 X19.9712 Y47.3976 F150.00
G01 X19.9597 Y47.4116 F150.00
G01 X19.9034 Y47.4876 F150.00
G01 X19.8933 Y47.5027 F150.00
G01 X19.8447 Y47.5837 F150.00
G01 X19.8361 Y47.5998 F150.00
G01 X19.7957 Y47.6852 F150.00
G01 X19.7887 Y47.7020 F150.00
G01 X19.7569 Y47.7910 F150.00
G01 X19.7516 Y47.8084 F150.00
G01 X19.7287 Y47.9001 F150.00
G01 X19.7251 Y47.9179 F150.00
G01 X19.7112 Y48.0114 F150.00
G01 X19.7095 Y48.0295 F150.00
G01 X19.7048 Y48.1239 F150.00
G01 X19.7048 Y48.1421 F150.00
G00 Z2.0000
G00 X17.7564 Y46.9265
G01 F60.00
G01 Z-0.1149
G01 F150.00
G01 X17.8351 Y46.8871 F150.00
G01 X18.0873 Y46.8178 F150.00
G01 X18.3483 Y46.7990 F150.00
G01 X18.6078 Y46.8316 F150.00
G01 X18.8561 Y46.9141 F150.00
G01 X18.8682 Y46.9210 F150.00
G01 X18.8766 Y46.9539 F150.00
G01 X18.8820 Y46.9712 F150.00
G01 X18.8962 Y47.0103 F150.00
G01 X18.9032 Y47.0270 F150.00
G01 X18.9212 Y47.0646 F150.00
G01 X18.9298 Y47.0805 F150.00
G01 X18.9513 Y47.1162 F150.00
G01 X18.9615 Y47.1312 F150.00
G01 X18.9864 Y47.1645 F150.00
G01 X18.9979 Y47.1785 F150.00
G01 X19.0260 Y47.2092 F150.00
G01 X19.0389 Y47.2220 F150.00
G01 X19.0698 Y47.2499 F150.00
G01 X19.0839 Y47.2613 F150.00
G01 X19.1174 Y47.2860 F150.00
G01 X19.1325 Y47.2960 F150.00
G01 X19.1683 Y47.3173 F150.00
G01 X19.1843 Y47.3258 F150.00
G01 X19.2220 Y47.3435 F150.00
G01 X19.2387 Y47.3504 F150.00
G01 X19.2780 Y47.3643 F150.00
G01 X19.2953 Y47.3696 F150.00
G01 X19.3357 Y47.3796 F150.00
G01 X19.3535 Y47.3831 F150.00
G01 X19.3947 Y47.3891 F150.00
G01 X19.4128 Y47.3908 F150.00
G01 X19.4543 Y47.3928 F150.00
G01 X19.4725 Y47.3928 F150.00
G01 X19.5141 Y47.3907 F150.00
G01 X19.5321 Y47.3889 F150.00
G01 X19.5733 Y47.3827 F150.00
G01 X19.5910 Y47.3791 F150.00
G01 X19.6314 Y47.3690 F150.00
G01 X19.6487 Y47.3637 F150.00
G01 X19.6879 Y47.3496 F150.00
G01 X19.7047 Y47.3427 F150.00
G01 X19.7423 Y47.3248 F150.00
G01 X19.7583 Y47.3163 F150.00
G01 X19.7940 Y47.2948 F150.00
G01 X19.8090 Y47.2848 F150.00
G01 X19.8425 Y47.2600 F150.00
G01 X19.8565 Y47.2485 F150.00
G01 X19.8916 Y47.2163 F150.00
G01 X20.0064 Y47.1015 F150.00
G01 X20.2240 Y46.9561 F150.00
G01 X20.4656 Y46.8560 F150.00
G01 X20.7222 Y46.8050 F150.00
G01 X20.9838 Y46.8050 F150.00
G01 X21.2404 Y46.8560 F150.00
G01 X21.4820 Y46.9561 F150.00
G01 X21.6996 Y47.1015 F150.00
G01 X21.8845 Y47.2864 F150.00
G01 X22.0299 Y47.5040 F150.00
G01 X22.1300 Y47.7456 F150.00
G01 X22.1810 Y48.0022 F150.00
G01 X22.1810 Y48.2638 F150.00
G01 X22.1300 Y48.5204 F150.00
G01 X22.0299 Y48.7620 F150.00
G01 X21.8845 Y48.9796 F150.00
G01 X21.6996 Y49.1645 F150.00
G01 X21.4820 Y49.3099 F150.00
G01 X21.2404 Y49.4100 F150.00
G01 X20.9838 Y49.4610 F150.00
G01 X20.7222 Y49.4610 F150.00
G01 X20.4656 Y49.4100 F150.00
G01 X20.2240 Y49.3099 F150.00
G01 X20.0064 Y49.1645 F150.00
G01 X19.8916 Y49.0497 F150.00
G01 X19.8565 Y49.0175 F150.00
G01 X19.8425 Y49.0060 F150.00
G01 X19.8090 Y48.9812 F150.00
G01 X19.7940 Y48.9712 F150.00
G01 X19.7583 Y48.9497 F150.00
G01 X19.7423 Y48.9412 F150.00
G01 X19.7047 Y48.9233 F150.00
G01 X19.6879 Y48.9164 F150.00
G01 X19.6487 Y48.9023 F150.00
G01 X19.6314 Y48.8970 F150.00
G01 X19.5910 Y48.8869 F150.00
G01 X19.5733 Y48.8833 F150.00
G01 X19.5321 Y48.8771 F150.00
G01 X19.5141 Y48.8753 F150.00
G01 X19.4725 Y48.8732 F150.00
G01 X19.4543 Y48.8732 F150.00
G01 X19.4128 Y48.8752 F150.00
G01 X19.3947 Y48.8769 F150.00
G01 X19.3535 Y48.8829 F150.00
G01 X19.3357 Y48.8864 F150.00
G01 X19.2953 Y48.8964 F150.00
G01 X19.2780 Y48.9017 F150.00
G01 X19.2387 Y48.9156 F150.00
G01 X19.2220 Y48.9225 F150.00
G01 X19.1843 Y48.9402 F150.00
G01 X19.1683 Y48.9487 F150.00
G01 X19.1325 Y48.9700 F150.00
G01 X19.1174 Y48.9800 F150.00
G01 X19.0839 Y49.0047 F150.00
G01 X19.0698 Y49.0161 F150.00
G01 X19.0389 Y49.0440 F150.00
G01 X19.0260 Y49.0568 F150.00
G01 X18.9979 Y49.0875 F150.00
G01 X18.9864 Y49.1015 F150.00
G01 X18.9615 Y49.1348 F150.00
G01 X18.9513 Y49.1498 F150.00
G01 X18.9298 Y49.1855 F150.00
G01 X18.9212 Y49.2014 F150.00
G01 X18.9032 Y49.2390 F150.00
G01 X18.8962 Y49.2557 F150.00
G01 X18.8820 Y49.2948 F150.00
G01 X18.8766 Y49.3121 F150.00
G01 X18.8696 Y49.3395 F150.00
G01 X18.7909 Y49.3789 F150.00
G01 X18.5387 Y49.4482 F150.00
G01 X18.2777 Y49.4670 F150.00
G01 X18.0182 Y49.4344 F150.00
G01 X17.7699 Y49.3519 F150.00
G01 X17.7578 Y49.3450 F150.00
G01 X17.7494 Y49.3121 F150.00
G01 X17.7440 Y49.2948 F150.00
G01 X17.7298 Y49.2557 F150.00
G01 X17.7228 Y49.2390 F150.00
G01 X17.7048 Y49.2014 F150.00
G01 X17.6962 Y49.1855 F150.00
G01 X17.6747 Y49.1498 F150.00
G01 X17.6645 Y49.1348 F150.00
G01 X17.6396 Y49.1015 F150.00
G01 X17.6281 Y49.0875 F150.00
G01 X17.6000 Y49.0568 F150.00
G01 X17.5871 Y49.0440 F150.00
G01 X17.5562 Y49.0161 F150.00
G01 X17.5421 Y49.0047 F150.00
G01 X17.5086 Y48.9800 F150.00
G01 X17.4935 Y48.9700 F150.00
G01 X17.4577 Y48.9487 F150.00
G01 X17.4417 Y48.9402 F150.00
G01 X17.4040 Y48.9225 F150.00
G01 X17.3873 Y48.9156 F150.00
G01 X17.3480 Y48.9017 F150.00
G01 X17.3307 Y48.8964 F150.00
G01 X17.2903 Y48.8864 F150.00
G01 X17.2725 Y48.8829 F150.00
G01 X17.2313 Y48.8769 F150.00
G01 X17.2132 Y48.8752 F150.00
G01 X17.1717 Y48.8732 F150.00
G01 X17.1535 Y48.8732 F150.00
G01 X17.1119 Y48.8753 F150.00
G01 X17.0939 Y48.8771 F150.00
G01 X17.0527 Y48.8833 F150.00
G01 X17.0350 Y48.8869 F150.00
G01 X16.9946 Y48.8970 F150.00
G01 X16.9773 Y48.9023 F150.00
G01 X16.9381 Y48.9164 F150.00
G01 X16.9213 Y48.9233 F150.00
G01 X16.8837 Y48.9412 F150.00
G01 X16.8677 Y48.9497 F150.00
G01 X16.8320 Y48.9712 F150.00
G01 X16.8170 Y48.9812 F150.00
G01 X16.7835 Y49.0060 F150.00
G01 X16.7695 Y49.0175 F150.00
G01 X16.7344 Y49.0497 F150.00
G01 X16.6196 Y49.1645 F150.00
G01 X16.4020 Y49.3099 F150.00
G01 X16.1604 Y49.4100 F150.00
G01 X15.9038 Y49.4610 F150.00
G01 X15.6422 Y49.4610 F150.00
G01 X15.3856 Y49.4100 F150.00
G01 X15.1440 Y49.3099 F150.00
G01 X15.1168 Y49.2920 F150.00
G01 X15.0837 Y49.2721 F150.00
G01 X15.0676 Y49.2636 F150.00
G01 X15.0299 Y49.2457 F150.00
G01 X15.0131 Y49.2388 F150.00
G01 X14.9738 Y49.2247 F150.00
G01 X14.9565 Y49.2194 F150.00
G01 X14.9160 Y49.2093 F150.00
G01 X14.8982 Y49.2057 F150.00
G01 X14.8569 Y49.1996 F150.00
G01 X14.8388 Y49.1978 F150.00
G01 X14.7971 Y49.1958 F150.00
G01 X14.7790 Y49.1958 F150.00
G01 X14.7373 Y49.1978 F150.00
G01 X14.7192 Y49.1996 F150.00
G01 X14.6779 Y49.2057 F150.00
G01 X14.6601 Y49.2093 F150.00
G01 X14.6196 Y49.2194 F150.00
G01 X14.6022 Y49.2247 F150.00
G01 X14.5629 Y49.2388 F150.00
G01 X14.5462 Y49.2457 F150.00
G01 X14.5084 Y49.2636 F150.00
G01 X14.4924 Y49.2721 F150.00
G01 X14.4566 Y49.2936 F150.00
G01 X14.4415 Y49.3037 F150.00
G01 X14.4033 Y49.3323 F150.00
G01 X14.3446 Y49.3804 F150.00
G01 X14.2595 Y49.4259 F150.00
G01 X14.1672 Y49.4539 F150.00
G01 X14.0412 Y49.4663 F150.00
G01 X12.4248 Y49.4663 F150.00
G01 X12.2988 Y49.4539 F150.00
G01 X12.2065 Y49.4259 F150.00
G01 X12.1214 Y49.3804 F150.00
G01 X12.0468 Y49.3192 F150.00
G01 X11.9856 Y49.2446 F150.00
G01 X11.9401 Y49.1595 F150.00
G01 X11.9121 Y49.0672 F150.00
G01 X11.8997 Y48.9412 F150.00
G01 X11.8997 Y47.3248 F150.00
G01 X11.9121 Y47.1988 F150.00
G01 X11.9401 Y47.1065 F150.00
G01 X11.9856 Y47.0214 F150.00
G01 X12.0468 Y46.9468 F150.00
G01 X12.1214 Y46.8856 F150.00
G01 X12.2065 Y46.8401 F150.00
G01 X12.2988 Y46.8121 F150.00
G01 X12.4248 Y46.7997 F150.00
G01 X14.0412 Y46.7997 F150.00
G01 X14.1672 Y46.8121 F150.00
G01 X14.2595 Y46.8401 F150.00
G01 X14.3446 Y46.8856 F150.00
G01 X14.4105 Y46.9393 F150.00
G01 X14.4415 Y46.9623 F150.00
G01 X14.4566 Y46.9724 F150.00
G01 X14.4924 Y46.9939 F150.00
G01 X14.5084 Y47.0024 F150.00
G01 X14.5462 Y47.0203 F150.00
G01 X14.5629 Y47.0272 F150.00
G01 X14.6022 Y47.0413 F150.00
G01 X14.6196 Y47.0466 F150.00
G01 X14.6601 Y47.0567 F150.00
G01 X14.6779 Y47.0603 F150.00
G01 X14.7192 Y47.0664 F150.00
G01 X14.7373 Y47.0682 F150.00
G01 X14.7790 Y47.0702 F150.00
G01 X14.7971 Y47.0702 F150.00
G01 X14.8388 Y47.0682 F150.00
G01 X14.8569 Y47.0664 F150.00
G01 X14.8982 Y47.0603 F150.00
G01 X14.9160 Y47.0567 F150.00
G01 X14.9565 Y47.0466 F150.00
G01 X14.9738 Y47.0413 F150.00
G01 X15.0131 Y47.0272 F150.00
G01 X15.0299 Y47.0203 F150.00
G01 X15.0676 Y47.0024 F150.00
G01 X15.0837 Y46.9939 F150.00
G01 X15.1168 Y46.9740 F150.00
G01 X15.1440 Y46.9561 F150.00
G01 X15.3856 Y46.8560 F150.00
G01 X15.6422 Y46.8050 F150.00
G01 X15.9038 Y46.8050 F150.00
G01 X16.1604 Y46.8560 F150.00
G01 X16.4020 Y46.9561 F150.00
G01 X16.6196 Y47.1015 F150.00
G01 X16.7344 Y47.2163 F150.00
G01 X16.7695 Y47.2485 F150.00
G01 X16.7835 Y47.2600 F150.00
G01 X16.8170 Y47.2848 F150.00
G01 X16.8320 Y47.2948 F150.00
G01 X16.8677 Y47.3163 F150.00
G01 X16.8837 Y47.3248 F150.00
G01 X16.9213 Y47.3427 F150.00
G01 X16.9381 Y47.3496 F150.00
G01 X16.9773 Y47.3637 F150.00
G01 X16.9946 Y47.3690 F150.00
G01 X17.0350 Y47.3791 F150.00
G01 X17.0527 Y47.3827 F150.00
G01 X17.0939 Y47.3889 F150.00
G01 X17.1119 Y47.3907 F150.00
G01 X17.1535 Y47.3928 F150.00
G01 X17.1717 Y47.3928 F150.00
G01 X17.2132 Y47.3908 F150.00
G01 X17.2313 Y47.3891 F150.00
G01 X17.2725 Y47.3831 F150.00
G01 X17.2903 Y47.3796 F150.00
G01 X17.3307 Y47.3696 F150.00
G01 X17.3480 Y47.3643 F150.00
G01 X17.3873 Y47.3504 F150.00
G01 X17.4040 Y47.3435 F150.00
G01 X17.4417 Y47.3258 F150.00
G01 X17.4577 Y47.3173 F150.00
G01 X17.4935 Y47.2960 F150.00
G01 X17.5086 Y47.2860 F150.00
G01 X17.5421 Y47.2613 F150.00
G01 X17.5562 Y47.2499 F150.00
G01 X17.5871 Y47.2220 F150.00
G01 X17.6000 Y47.2092 F150.00
G01 X17.6281 Y47.1785 F150.00
G01 X17.6396 Y47.1645 F150.00
G01 X17.6645 Y47.1312 F150.00
G01 X17.6747 Y47.1162 F150.00
G01 X17.6962 Y47.0805 F150.00
G01 X17.7048 Y47.0646 F150.00
G01 X17.7228 Y47.0270 F150.00
G01 X17.7298 Y47.0103 F150.00
G01 X17.7440 Y46.9712 F150.00
G01 X17.7494 Y46.9539 F150.00
G01 X17.7564 Y46.9265 F150.00
G00 Z2.0000
G00 X17.1648 Y48.1421
G01 F60.00
G01 Z-0.1149
G01 F150.00
G01 X17.1695 Y48.2365 F150.00
G01 X17.1712 Y48.2546 F150.00
G01 X17.1851 Y48.3481 F150.00
G01 X17.1887 Y48.3659 F150.00
G01 X17.2116 Y48.4576 F150.00
G01 X17.2169 Y48.4750 F150.00
G01 X17.2487 Y48.5640 F150.00
G01 X17.2557 Y48.5808 F150.00
G01 X17.2961 Y48.6662 F150.00
G01 X17.3047 Y48.6823 F150.00
G01 X17.3533 Y48.7633 F150.00
G01 X17.3634 Y48.7784 F150.00
G01 X17.4197 Y48.8544 F150.00
G01 X17.4312 Y48.8684 F150.00
G01 X17.4947 Y48.9385 F150.00
G01 X17.5075 Y48.9513 F150.00
G01 X17.5776 Y49.0148 F150.00
G01 X17.5916 Y49.0263 F150.00
G01 X17.6676 Y49.0826 F150.00
G01 X17.6827 Y49.0927 F150.00
G01 X17.7637 Y49.1413 F150.00
G01 X17.7798 Y49.1499 F150.00
G01 X17.8652 Y49.1903 F150.00
G01 X17.8820 Y49.1973 F150.00
G01 X17.9710 Y49.2291 F150.00
G01 X17.9884 Y49.2344 F150.00
G01 X18.0801 Y49.2573 F150.00
G01 X18.0979 Y49.2609 F150.00
G01 X18.1914 Y49.2748 F150.00
G01 X18.2095 Y49.2765 F150.00
G01 X18.3039 Y49.2812 F150.00
G01 X18.3221 Y49.2812 F150.00
G01 X18.4165 Y49.2765 F150.00
G01 X18.4346 Y49.2748 F150.00
G01 X18.5281 Y49.2609 F150.00
G01 X18.5459 Y49.2573 F150.00
G01 X18.6376 Y49.2344 F150.00
G01 X18.6550 Y49.2291 F150.00
G01 X18.7440 Y49.1973 F150.00
G01 X18.7608 Y49.1903 F150.00
G01 X18.8462 Y49.1499 F150.00
G01 X18.8623 Y49.1413 F150.00
G01 X18.9433 Y49.0927 F150.00
G01 X18.9584 Y49.0826 F150.00
G01 X19.0344 Y49.0263 F150.00
G01 X19.0484 Y49.0148 F150.00
G01 X19.1185 Y48.9513 F150.00
G01 X19.1313 Y48.9385 F150.00
G01 X19.1948 Y48.8684 F150.00
G01 X19.2063 Y48.8544 F150.00
G01 X19.2626 Y48.7784 F150.00
G01 X19.2727 Y48.7633 F150.00
G01 X19.3213 Y48.6823 F150.00
G01 X19.3299 Y48.6662 F150.00
G01 X19.3703 Y48.5808 F150.00
G01 X19.3773 Y48.5640 F150.00
G01 X19.4091 Y48.4750 F150.00
G01 X19.4144 Y48.4576 F150.00
G01 X19.4373 Y48.3659 F150.00
G01 X19.4409 Y48.3481 F150.00
G01 X19.4548 Y48.2546 F150.00
G01 X19.4565 Y48.2365 F150.00
G01 X19.4612 Y48.1421 F150.00
G01 X19.4612 Y48.1239 F150.00
G01 X19.4565 Y48.0295 F150.00
G01 X19.4548 Y48.0114 F150.00
G01 X19.4409 Y47.9179 F150.00
G01 X19.4373 Y47.9001 F150.00
G01 X19.4144 Y47.8084 F150.00
G01 X19.4091 Y47.7910 F150.00
G01 X19.3773 Y47.7020 F150.00
G01 X19.3703 Y47.6852 F150.00
G01 X19.3299 Y47.5998 F150.00
G01 X19.3213 Y47.5837 F150.00
G01 X19.2727 Y47.5027 F150.00
G01 X19.2626 Y47.4876 F150.00
G01 X19.2063 Y47.4116 F150.00
G01 X19.1948 Y47.3976 F150.00
G01 X19.1313 Y47.3275 F150.00
G01 X19.1185 Y47.3147 F150.00
G01 X19.0484 Y47.2512 F150.00
G01 X19.0344 Y47.2397 F150.00
G01 X18.9584 Y47.1834 F150.00
G01 X18.9433 Y47.1733 F150.00
G01 X18.8623 Y47.1247 F150.00
G01 X18.8462 Y47.1161 F150.00
G01 X18.7608 Y47.0757 F150.00
G01 X18.7440 Y47.0687 F150.00
G01 X18.6550 Y47.0369 F150.00
G01 X18.6376 Y47.0316 F150.00
G01 X18.5459 Y47.0087 F150.00
G01 X18.5281 Y47.0051 F150.00
G01 X18.4346 Y46.9912 F150.00
G01 X18.4165 Y46.9895 F150.00
G01 X18.3221 Y46.9848 F150.00
G01 X18.3039 Y46.9848 F150.00
G01 X18.2095 Y46.9895 F150.00
G01 X18.1914 Y46.9912 F150.00
G01 X18.0979 Y47.0051 F150.00
G01 X18.0801 Y47.0087 F150.00
G01 X17.9884 Y47.0316 F150.00
G01 X17.9710 Y47.0369 F150.00
G01 X17.8820 Y47.0687 F150.00
G01 X17.8652 Y47.0757 F150.00
G01 X17.7798 Y47.1161 F150.00
G01 X17.7637 Y47.1247 F150.00
G01 X17.6827 Y47.1733 F150.00
G01 X17.6676 Y47.1834 F150.00
G01 X17.5916 Y47.2397 F150.00
G01 X17.5776 Y47.2512 F150.00
G01 X17.5075 Y47.3147 F150.00
G01 X17.4947 Y47.3275 F150.00
G01 X17.4312 Y47.3976 F150.00
G01 X17.4197 Y47.4116 F150.00
G01 X17.3634 Y47.4876 F150.00
G01 X17.3533 Y47.5027 F150.00
G01 X17.3047 Y47.5837 F150.00
G01 X17.2961 Y47.5998 F150.00
G01 X17.2557 Y47.6852 F150.00
G01 X17.2487 Y47.7020 F150.00
G01 X17.2169 Y47.7910 F150.00
G01 X17.2116 Y47.8084 F150.00
G01 X17.1887 Y47.9001 F150.00
G01 X17.1851 Y47.9179 F150.00
G01 X17.1712 Y48.0114 F150.00
G01 X17.1695 Y48.0295 F150.00
G01 X17.1648 Y48.1239 F150.00
G01 X17.1648 Y48.1421 F150.00
G00 Z2.0000
G00 X14.6248 Y48.1421
G01 F60.00
G01 Z-0.1149
G01 F150.00
G01 X14.6295 Y48.2365 F150.00
G01 X14.6312 Y48.2546 F150.00
G01 X14.6451 Y48.3481 F150.00
G01 X14.6487 Y48.3659 F150.00
G01 X14.6716 Y48.4576 F150.00
G01 X14.6769 Y48.4750 F150.00
G01 X14.7087 Y48.5640 F150.00
G01 X14.7157 Y48.5808 F150.00
G01 X14.7561 Y48.6662 F150.00
G01 X14.7647 Y48.6823 F150.00
G01 X14.8133 Y48.7633 F150.00
G01 X14.8234 Y48.7784 F150.00
G01 X14.8797 Y48.8544 F150.00
G01 X14.8912 Y48.8684 F150.00
G01 X14.9547 Y48.9385 F150.00
G01 X14.9675 Y48.9513 F150.00
G01 X15.0376 Y49.0148 F150.00
G01 X15.0516 Y49.0263 F150.00
G01 X15.1276 Y49.0826 F150.00
G01 X15.1427 Y49.0927 F150.00
G01 X15.2237 Y49.1413 F150.00
G01 X15.2398 Y49.1499 F150.00
G01 X15.3252 Y49.1903 F150.00
G01 X15.3420 Y49.1973 F150.00
G01 X15.4310 Y49.2291 F150.00
G01 X15.4484 Y49.2344 F150.00
G01 X15.5401 Y49.2573 F150.00
G01 X15.5579 Y49.2609 F150.00
G01 X15.6514 Y49.2748 F150.00
G01 X15.6695 Y49.2765 F150.00
G01 X15.7639 Y49.2812 F150.00
G01 X15.7821 Y49.2812 F150.00
G01 X15.8765 Y49.2765 F150.00
G01 X15.8946 Y49.2748 F150.00
G01 X15.9881 Y49.2609 F150.00
G01 X16.0059 Y49.2573 F150.00
G01 X16.0976 Y49.2344 F150.00
G01 X16.1150 Y49.2291 F150.00
G01 X16.2040 Y49.1973 F150.00
G01 X16.2208 Y49.1903 F150.00
G01 X16.3062 Y49.1499 F150.00
G01 X16.3223 Y49.1413 F150.00
G01 X16.4033 Y49.0927 F150.00
G01 X16.4184 Y49.0826 F150.00
G01 X16.4944 Y49.0263 F150.00
G01 X16.5084 Y49.0148 F150.00
G01 X16.5785 Y48.9513 F150.00
G01 X16.5913 Y48.9385 F150.00
G01 X16.6548 Y48.8684 F150.00
G01 X16.6663 Y48.8544 F150.00
G01 X16.7226 Y48.7784 F150.00
G01 X16.7327 Y48.7633 F150.00
G01 X16.7813 Y48.6823 F150.00
G01 X16.7899 Y48.6662 F150.00
G01 X16.8303 Y48.5808 F150.00
G01 X16.8373 Y48.5640 F150.00
G01 X16.8691 Y48.4750 F150.00
G01 X16.8744 Y48.4576 F150.00
G01 X16.8973 Y48.3659 F150.00
G01 X16.9009 Y48.3481 F150.00
G01 X16.9148 Y48.2546 F150.00
G01 X16.9165 Y48.2365 F150.00
G01 X16.9212 Y48.1421 F150.00
G01 X16.9212 Y48.1239 F150.00
G01 X16.9165 Y48.0295 F150.00
G01 X16.9148 Y48.0114 F150.00
G01 X16.9009 Y47.9179 F150.00
G01 X16.8973 Y47.9001 F150.00
G01 X16.8744 Y47.8084 F150.00
G01 X16.8691 Y47.7910 F150.00
G01 X16.8373 Y47.7020 F150.00
G01 X16.8303 Y47.6852 F150.00
G01 X16.7899 Y47.5998 F150.00
G01 X16.7813 Y47.5837 F150.00
G01 X16.7327 Y47.5027 F150.00
G01 X16.7226 Y47.4876 F150.00
G01 X16.6663 Y47.4116 F150.00
G01 X16.6548 Y47.3976 F150.00
G01 X16.5913 Y47.3275 F150.00
G01 X16.5785 Y47.3147 F150.00
G01 X16.5084 Y47.2512 F150.00
G01 X16.4944 Y47.2397 F150.00
G01 X16.4184 Y47.1834 F150.00
G01 X16.4033 Y47.1733 F150.00
G01 X16.3223 Y47.1247 F150.00
G01 X16.3062 Y47.1161 F150.00
G01 X16.2208 Y47.0757 F150.00
G01 X16.2040 Y47.0687 F150.00
G01 X16.1150 Y47.0369 F150.00
G01 X16.0976 Y47.0316 F150.00
G01 X16.0059 Y47.0087 F150.00
G01 X15.9881 Y47.0051 F150.00
G01 X15.8946 Y46.9912 F150.00
G01 X15.8765 Y46.9895 F150.00
G01 X15.7821 Y46.9848 F150.00
G01 X15.7639 Y46.9848 F150.00
G01 X15.6695 Y46.9895 F150.00
G01 X15.6514 Y46.9912 F150.00
G01 X15.5579 Y47.0051 F150.00
G01 X15.5401 Y47.0087 F150.00
G01 X15.4484 Y47.0316 F150.00
G01 X15.4310 Y47.0369 F150.00
G01 X15.3420 Y47.0687 F150.00
G01 X15.3252 Y47.0757 F150.00
G01 X15.2398 Y47.1161 F150.00
G01 X15.2237 Y47.1247 F150.00
G01 X15.1427 Y47.1733 F150.00
G01 X15.1276 Y47.1834 F150.00
G01 X15.0516 Y47.2397 F150.00
G01 X15.0376 Y47.2512 F150.00
G01 X14.9675 Y47.3147 F150.00
G01 X14.9547 Y47.3275 F150.00
G01 X14.8912 Y47.3976 F150.00
G01 X14.8797 Y47.4116 F150.00
G01 X14.8234 Y47.4876 F150.00
G01 X14.8133 Y47.5027 F150.00
G01 X14.7647 Y47.5837 F150.00
G01 X14.7561 Y47.5998 F150.00
G01 X14.7157 Y47.6852 F150.00
G01 X14.7087 Y47.7020 F150.00
G01 X14.6769 Y47.7910 F150.00
G01 X14.6716 Y47.8084 F150.00
G01 X14.6487 Y47.9001 F150.00
G01 X14.6451 Y47.9179 F150.00
G01 X14.6312 Y48.0114 F150.00
G01 X14.6295 Y48.0295 F150.00
G01 X14.6248 Y48.1239 F150.00
G01 X14.6248 Y48.1421 F150.00
G00 Z2.0000
G00 X14.0773 Y46.9848
G01 F60.00
G01 Z-0.1149
G01 F150.00
G01 X12.3887 Y46.9848 F150.00
G01 X12.3644 Y46.9859 F150.00
G01 X12.3343 Y46.9904 F150.00
G01 X12.3047 Y46.9978 F150.00
G01 X12.2760 Y47.0081 F150.00
G01 X12.2485 Y47.0211 F150.00
G01 X12.2224 Y47.0368 F150.00
G01 X12.1979 Y47.0549 F150.00
G01 X12.1753 Y47.0753 F150.00
G01 X12.1549 Y47.0979 F150.00
G01 X12.1368 Y47.1224 F150.00
G01 X12.1211 Y47.1485 F150.00
G01 X12.1081 Y47.1760 F150.00
G01 X12.0978 Y47.2047 F150.00
G01 X12.0904 Y47.2343 F150.00
G01 X12.0859 Y47.2644 F150.00
G01 X12.0848 Y47.2887 F150.00
G01 X12.0848 Y48.9773 F150.00
G01 X12.0859 Y49.0016 F150.00
G01 X12.0904 Y49.0317 F150.00
G01 X12.0978 Y49.0613 F150.00
G01 X12.1081 Y49.0900 F150.00
G01 X12.1211 Y49.1175 F150.00
G01 X12.1368 Y49.1436 F150.00
G01 X12.1549 Y49.1681 F150.00
G01 X12.1753 Y49.1907 F150.00
G01 X12.1979 Y49.2111 F150.00
G01 X12.2224 Y49.2292 F150.00
G01 X12.2485 Y49.2449 F150.00
G01 X12.2760 Y49.2579 F150.00
G01 X12.3047 Y49.2682 F150.00
G01 X12.3343 Y49.2756 F150.00
G01 X12.3644 Y49.2801 F150.00
G01 X12.3887 Y49.2812 F150.00
G01 X14.0773 Y49.2812 F150.00
G01 X14.1016 Y49.2801 F150.00
G01 X14.1317 Y49.2756 F150.00
G01 X14.1613 Y49.2682 F150.00
G01 X14.1900 Y49.2579 F150.00
G01 X14.2175 Y49.2449 F150.00
G01 X14.2436 Y49.2292 F150.00
G01 X14.2681 Y49.2111 F150.00
G01 X14.2907 Y49.1907 F150.00
G01 X14.3111 Y49.1681 F150.00
G01 X14.3292 Y49.1436 F150.00
G01 X14.3449 Y49.1175 F150.00
G01 X14.3579 Y49.0900 F150.00
G01 X14.3682 Y49.0613 F150.00
G01 X14.3756 Y49.0317 F150.00
G01 X14.3801 Y49.0016 F150.00
G01 X14.3812 Y48.9773 F150.00
G01 X14.3812 Y47.2887 F150.00
G01 X14.3801 Y47.2644 F150.00
G01 X14.3756 Y47.2343 F150.00
G01 X14.3682 Y47.2047 F150.00
G01 X14.3579 Y47.1760 F150.00
G01 X14.3449 Y47.1485 F150.00
G01 X14.3292 Y47.1224 F150.00
G01 X14.3111 Y47.0979 F150.00
G01 X14.2907 Y47.0753 F150.00
G01 X14.2681 Y47.0549 F150.00
G01 X14.2436 Y47.0368 F150.00
G01 X14.2175 Y47.0211 F150.00
G01 X14.1900 Y47.0081 F150.00
G01 X14.1613 Y46.9978 F150.00
G01 X14.1317 Y46.9904 F150.00
G01 X14.1016 Y46.9859 F150.00
G01 X14.0773 Y46.9848 F150.00
G00 Z2.0000
G00 X14.0806 Y41.5438
G01 F60.00
G01 Z-0.1149
G01 F150.00
G01 X13.8620 Y41.6899 F150.00
G01 X13.6204 Y41.7900 F150.00
G01 X13.3638 Y41.8410 F150.00
G01 X13.1022 Y41.8410 F150.00
G01 X12.8456 Y41.7900 F150.00
G01 X12.6040 Y41.6899 F150.00
G01 X12.3864 Y41.5445 F150.00
G01 X12.2015 Y41.3596 F150.00
G01 X12.0561 Y41.1420 F150.00
G01 X11.9560 Y40.9004 F150.00
G01 X11.9050 Y40.6438 F150.00
G01 X11.9050 Y40.3822 F150.00
G01 X11.9560 Y40.1256 F150.00
G01 X12.0561 Y39.8840 F150.00
G01 X12.2015 Y39.6664 F150.00
G01 X12.3864 Y39.4815 F150.00
G01 X12.6040 Y39.3361 F150.00
G01 X12.8456 Y39.2360 F150.00
G01 X13.1022 Y39.1850 F150.00
G01 X13.3638 Y39.1850 F150.00
G01 X13.6204 Y39.2360 F150.00
G01 X13.8620 Y39.3361 F150.00
G01 X14.0806 Y39.4822 F150.00
G01 X14.1089 Y39.5078 F150.00
G01 X14.1230 Y39.5194 F150.00
G01 X14.1565 Y39.5442 F150.00
G01 X14.1716 Y39.5543 F150.00
G01 X14.2074 Y39.5758 F150.00
G01 X14.2234 Y39.5843 F150.00
G01 X14.2611 Y39.6022 F150.00
G01 X14.2779 Y39.6091 F150.00
G01 X14.3172 Y39.6232 F150.00
G01 X14.3346 Y39.6285 F150.00
G01 X14.3751 Y39.6386 F150.00
G01 X14.3929 Y39.6421 F150.00
G01 X14.4342 Y39.6483 F150.00
G01 X14.4522 Y39.6501 F150.00
G01 X14.4939 Y39.6521 F150.00
G01 X14.5121 Y39.6521 F150.00
G01 X14.5538 Y39.6501 F150.00
G01 X14.5718 Y39.6483 F150.00
G01 X14.6131 Y39.6421 F150.00
G01 X14.6309 Y39.6386 F150.00
G01 X14.6714 Y39.6285 F150.00
G01 X14.6888 Y39.6232 F150.00
G01 X14.7281 Y39.6091 F150.00
G01 X14.7449 Y39.6022 F150.00
G01 X14.7826 Y39.5843 F150.00
G01 X14.7986 Y39.5758 F150.00
G01 X14.8344 Y39.5543 F150.00
G01 X14.8495 Y39.5442 F150.00
G01 X14.8830 Y39.5194 F150.00
G01 X14.8971 Y39.5078 F150.00
G01 X14.9254 Y39.4822 F150.00
G01 X15.1440 Y39.3361 F150.00
G01 X15.3856 Y39.2360 F150.00
G01 X15.6422 Y39.1850 F150.00
G01 X15.9038 Y39.1850 F150.00
G01 X16.1604 Y39.2360 F150.00
G01 X16.4205 Y39.3438 F150.00
G01 X16.4654 Y39.3601 F150.00
G01 X16.4828 Y39.3654 F150.00
G01 X16.5233 Y39.3755 F150.00
G01 X16.5411 Y39.3791 F150.00
G01 X16.5824 Y39.3852 F150.00
G01 X16.6005 Y39.3870 F150.00
G01 X16.6421 Y39.3890 F150.00
G01 X16.6603 Y39.3890 F150.00
G01 X16.7020 Y39.3870 F150.00
G01 X16.7201 Y39.3852 F150.00
G01 X16.7613 Y39.3791 F150.00
G01 X16.7792 Y39.3755 F150.00
G01 X16.8196 Y39.3654 F150.00
G01 X16.8370 Y39.3601 F150.00
G01 X16.8763 Y39.3460 F150.00
G01 X16.8931 Y39.3391 F150.00
G01 X16.9308 Y39.3212 F150.00
G01 X16.9468 Y39.3127 F150.00
G01 X16.9826 Y39.2912 F150.00
G01 X16.9977 Y39.2811 F150.00
G01 X17.0313 Y39.2563 F150.00
G01 X17.0453 Y39.2448 F150.00
G01 X17.0762 Y39.2167 F150.00
G01 X17.0891 Y39.2039 F150.00
G01 X17.1171 Y39.1730 F150.00
G01 X17.1286 Y39.1589 F150.00
G01 X17.1535 Y39.1254 F150.00
G01 X17.1636 Y39.1103 F150.00
G01 X17.1850 Y39.0745 F150.00
G01 X17.1936 Y39.0585 F150.00
G01 X17.2114 Y39.0208 F150.00
G01 X17.2184 Y39.0040 F150.00
G01 X17.2324 Y38.9647 F150.00
G01 X17.2377 Y38.9473 F150.00
G01 X17.2479 Y38.9068 F150.00
G01 X17.2514 Y38.8890 F150.00
G01 X17.2575 Y38.8477 F150.00
G01 X17.2593 Y38.8296 F150.00
G01 X17.2613 Y38.7880 F150.00
G01 X17.2613 Y38.7698 F150.00
G01 X17.2593 Y38.7281 F150.00
G01 X17.2575 Y38.7100 F150.00
G01 X17.2514 Y38.6688 F150.00
G01 X17.2479 Y38.6509 F150.00
G01 X17.2377 Y38.6105 F150.00
G01 X17.2324 Y38.5931 F150.00
G01 X17.2184 Y38.5538 F150.00
G01 X17.2114 Y38.5370 F150.00
G01 X17.1936 Y38.4993 F150.00
G01 X17.1850 Y38.4833 F150.00
G01 X17.1716 Y38.4609 F150.00
G01 X17.0728 Y38.2222 F150.00
G01 X17.0232 Y37.9730 F150.00
G01 X17.0232 Y37.7190 F150.00
G01 X17.0728 Y37.4698 F150.00
G01 X17.1700 Y37.2351 F150.00
G01 X17.3111 Y37.0238 F150.00
G01 X17.4908 Y36.8441 F150.00
G01 X17.7021 Y36.7030 F150.00
G01 X17.9368 Y36.6058 F150.00
G01 X18.1860 Y36.5562 F150.00
G01 X18.4400 Y36.5562 F150.00
G01 X18.6892 Y36.6058 F150.00
G01 X18.9239 Y36.7030 F150.00
G01 X19.1352 Y36.8441 F150.00
G01 X19.3149 Y37.0238 F150.00
G01 X19.4560 Y37.2351 F150.00
G01 X19.5532 Y37.4698 F150.00
G01 X19.6028 Y37.7190 F150.00
G01 X19.6028 Y37.9730 F150.00
G01 X19.5532 Y38.2222 F150.00
G01 X19.4544 Y38.4609 F150.00
G01 X19.4410 Y38.4833 F150.00
G01 X19.4324 Y38.4993 F150.00
G01 X19.4146 Y38.5370 F150.00
G01 X19.4076 Y38.5538 F150.00
G01 X19.3936 Y38.5931 F150.00
G01 X19.3883 Y38.6105 F150.00
G01 X19.3781 Y38.6509 F150.00
G01 X19.3746 Y38.6688 F150.00
G01 X19.3685 Y38.7100 F150.00
G01 X19.3667 Y38.7281 F150.00
G01 X19.3647 Y38.7698 F150.00
G01 X19.3647 Y38.7880 F150.00
G01 X19.3667 Y38.8296 F150.00
G01 X19.3685 Y38.8477 F150.00
G01 X19.3746 Y38.8890 F150.00
G01 X19.3781 Y38.9068 F150.00
G01 X19.3883 Y38.9473 F150.00
G01 X19.3936 Y38.9647 F150.00
G01 X19.4076 Y39.0040 F150.00
G01 X19.4146 Y39.0208 F150.00
G01 X19.4324 Y39.0585 F150.00
G01 X19.4410 Y39.0745 F150.00
G01 X19.4624 Y39.1103 F150.00
G01 X19.4725 Y39.1254 F150.00
G01 X19.4974 Y39.1589 F150.00
G01 X19.5089 Y39.1730 F150.00
G01 X19.5369 Y39.2039 F150.00
G01 X19.5498 Y39.2167 F150.00
G01 X19.5807 Y39.2448 F150.00
G01 X19.5947 Y39.2563 F150.00
G01 X19.6283 Y39.2811 F150.00
G01 X19.6434 Y39.2912 F150.00
G01 X19.6792 Y39.3127 F150.00
G01 X19.6952 Y39.3212 F150.00
G01 X19.7329 Y39.3391 F150.00
G01 X19.7497 Y39.3460 F150.00
G01 X19.7890 Y39.3601 F150.00
G01 X19.8064 Y39.3654 F150.00
G01 X19.8468 Y39.3755 F150.00
G01 X19.8647 Y39.3791 F150.00
G01 X19.9059 Y39.3852 F150.00
G01 X19.9240 Y39.3870 F150.00
G01 X19.9657 Y39.3890 F150.00
G01 X19.9839 Y39.3890 F150.00
G01 X20.0255 Y39.3870 F150.00
G01 X20.0436 Y39.3852 F150.00
G01 X20.0849 Y39.3791 F150.00
G01 X20.1027 Y39.3755 F150.00
G01 X20.1432 Y39.3654 F150.00
G01 X20.1606 Y39.3601 F150.00
G01 X20.2055 Y39.3438 F150.00
G01 X20.4656 Y39.2360 F150.00
G01 X20.7222 Y39.1850 F150.00
G01 X20.9838 Y39.1850 F150.00
G01 X21.2404 Y39.2360 F150.00
G01 X21.4820 Y39.3361 F150.00
G01 X21.6996 Y39.4815 F150.00
G01 X21.8845 Y39.6664 F150.00
G01 X22.0299 Y39.8840 F150.00
G01 X22.1300 Y40.1256 F150.00
G01 X22.1810 Y40.3822 F150.00
G01 X22.1810 Y40.6438 F150.00
G01 X22.1300 Y40.9004 F150.00
G01 X22.0299 Y41.1420 F150.00
G01 X21.8845 Y41.3596 F150.00
G01 X21.6996 Y41.5445 F150.00
G01 X21.4820 Y41.6899 F150.00
G01 X21.2404 Y41.7900 F150.00
G01 X20.9838 Y41.8410 F150.00
G01 X20.7222 Y41.8410 F150.00
G01 X20.4656 Y41.7900 F150.00
G01 X20.2240 Y41.6899 F150.00
G01 X20.0054 Y41.5438 F150.00
G01 X19.9771 Y41.5182 F150.00
G01 X19.9630 Y41.5066 F150.00
G01 X19.9295 Y41.4818 F150.00
G01 X19.9144 Y41.4717 F150.00
G01 X19.8786 Y41.4502 F150.00
G01 X19.8626 Y41.4417 F150.00
G01 X19.8249 Y41.4238 F150.00
G01 X19.8081 Y41.4169 F150.00
G01 X19.7688 Y41.4028 F150.00
G01 X19.7514 Y41.3975 F150.00
G01 X19.7109 Y41.3874 F150.00
G01 X19.6931 Y41.3839 F150.00
G01 X19.6518 Y41.3777 F150.00
G01 X19.6338 Y41.3759 F150.00
G01 X19.5921 Y41.3739 F150.00
G01 X19.5739 Y41.3739 F150.00
G01 X19.5322 Y41.3759 F150.00
G01 X19.5142 Y41.3777 F150.00
G01 X19.4729 Y41.3839 F150.00
G01 X19.4551 Y41.3874 F150.00
G01 X19.4146 Y41.3975 F150.00
G01 X19.3972 Y41.4028 F150.00
G01 X19.3579 Y41.4169 F150.00
G01 X19.3411 Y41.4238 F150.00
G01 X19.3034 Y41.4417 F150.00
G01 X19.2874 Y41.4502 F150.00
G01 X19.2516 Y41.4717 F150.00
G01 X19.2365 Y41.4818 F150.00
G01 X19.2030 Y41.5066 F150.00
G01 X19.1889 Y41.5182 F150.00
G01 X19.1606 Y41.5438 F150.00
G01 X18.9420 Y41.6899 F150.00
G01 X18.7004 Y41.7900 F150.00
G01 X18.4438 Y41.8410 F150.00
G01 X18.1822 Y41.8410 F150.00
G01 X17.9256 Y41.7900 F150.00
G01 X17.6840 Y41.6899 F150.00
G01 X17.4654 Y41.5438 F150.00
G01 X17.4371 Y41.5182 F150.00
G01 X17.4230 Y41.5066 F150.00
G01 X17.3895 Y41.4818 F150.00
G01 X17.3744 Y41.4717 F150.00
G01 X17.3386 Y41.4502 F150.00
G01 X17.3226 Y41.4417 F150.00
G01 X17.2849 Y41.4238 F150.00
G01 X17.2681 Y41.4169 F150.00
G01 X17.2288 Y41.4028 F150.00
G01 X17.2114 Y41.3975 F150.00
G01 X17.1709 Y41.3874 F150.00
G01 X17.1531 Y41.3839 F150.00
G01 X17.1118 Y41.3777 F150.00
G01 X17.0938 Y41.3759 F150.00
G01 X17.0521 Y41.3739 F150.00
G01 X17.0339 Y41.3739 F150.00
G01 X16.9922 Y41.3759 F150.00
G01 X16.9742 Y41.3777 F150.00
G01 X16.9329 Y41.3839 F150.00
G01 X16.9151 Y41.3874 F150.00
G01 X16.8746 Y41.3975 F150.00
G01 X16.8572 Y41.4028 F150.00
G01 X16.8179 Y41.4169 F150.00
G01 X16.8011 Y41.4238 F150.00
G01 X16.7634 Y41.4417 F150.00
G01 X16.7474 Y41.4502 F150.00
G01 X16.7116 Y41.4717 F150.00
G01 X16.6965 Y41.4818 F150.00
G01 X16.6630 Y41.5066 F150.00
G01 X16.6489 Y41.5182 F150.00
G01 X16.6206 Y41.5438 F150.00
G01 X16.4020 Y41.6899 F150.00
G01 X16.1604 Y41.7900 F150.00
G01 X15.9038 Y41.8410 F150.00
G01 X15.6422 Y41.8410 F150.00
G01 X15.3856 Y41.7900 F150.00
G01 X15.1440 Y41.6899 F150.00
G01 X14.9254 Y41.5438 F150.00
G01 X14.8971 Y41.5182 F150.00
G01 X14.8830 Y41.5066 F150.00
G01 X14.8495 Y41.4818 F150.00
G01 X14.8344 Y41.4717 F150.00
G01 X14.7986 Y41.4502 F150.00
G01 X14.7826 Y41.4417 F150.00
G01 X14.7449 Y41.4238 F150.00
G01 X14.7281 Y41.4169 F150.00
G01 X14.6888 Y41.4028 F150.00
G01 X14.6714 Y41.3975 F150.00
G01 X14.6309 Y41.3874 F150.00
G01 X14.6131 Y41.3839 F150.00
G01 X14.5718 Y41.3777 F150.00
G01 X14.5538 Y41.3759 F150.00
G01 X14.5121 Y41.3739 F150.00
G01 X14.4939 Y41.3739 F150.00
G01 X14.4522 Y41.3759 F150.00
G01 X14.4342 Y41.3777 F150.00
G01 X14.3929 Y41.3839 F150.00
G01 X14.3751 Y41.3874 F150.00
G01 X14.3346 Y41.3975 F150.00
G01 X14.3172 Y41.4028 F150.00
G01 X14.2779 Y41.4169 F150.00
G01 X14.2611 Y41.4238 F150.00
G01 X14.2234 Y41.4417 F150.00
G01 X14.2074 Y41.4502 F150.00
G01 X14.1716 Y41.4717 F150.00
G01 X14.1565 Y41.4818 F150.00
G01 X14.1230 Y41.5066 F150.00
G01 X14.1089 Y41.5182 F150.00
G01 X14.0806 Y41.5438 F150.00
G00 Z2.0000
G00 X14.6248 Y40.5221
G01 F60.00
G01 Z-0.1149
G01 F150.00
G01 X14.6295 Y40.6165 F150.00
G01 X14.6312 Y40.6346 F150.00
G01 X14.6451 Y40.7281 F150.00
G01 X14.6487 Y40.7459 F150.00
G01 X14.6716 Y40.8376 F150.00
G01 X14.6769 Y40.8550 F150.00
G01 X14.7087 Y40.9440 F150.00
G01 X14.7157 Y40.9608 F150.00
G01 X14.7561 Y41.0462 F150.00
G01 X14.7647 Y41.0623 F150.00
G01 X14.8133 Y41.1433 F150.00
G01 X14.8234 Y41.1584 F150.00
G01 X14.8797 Y41.2344 F150.00
G01 X14.8912 Y41.2484 F150.00
G01 X14.9547 Y41.3185 F150.00
G01 X14.9675 Y41.3313 F150.00
G01 X15.0376 Y41.3948 F150.00
G01 X15.0516 Y41.4063 F150.00
G01 X15.1276 Y41.4626 F150.00
G01 X15.1427 Y41.4727 F150.00
G01 X15.2237 Y41.5213 F150.00
G01 X15.2398 Y41.5299 F150.00
G01 X15.3252 Y41.5703 F150.00
G01 X15.3420 Y41.5773 F150.00
G01 X15.4310 Y41.6091 F150.00
G01 X15.4484 Y41.6144 F150.00
G01 X15.5401 Y41.6373 F150.00
G01 X15.5579 Y41.6409 F150.00
G01 X15.6514 Y41.6548 F150.00
G01 X15.6695 Y41.6565 F150.00
G01 X15.7639 Y41.6612 F150.00
G01 X15.7821 Y41.6612 F150.00
G01 X15.8765 Y41.6565 F150.00
G01 X15.8946 Y41.6548 F150.00
G01 X15.9881 Y41.6409 F150.00
G01 X16.0059 Y41.6373 F150.00
G01 X16.0976 Y41.6144 F150.00
G01 X16.1150 Y41.6091 F150.00
G01 X16.2040 Y41.5773 F150.00
G01 X16.2208 Y41.5703 F150.00
G01 X16.3062 Y41.5299 F150.00
G01 X16.3223 Y41.5213 F150.00
G01 X16.4033 Y41.4727 F150.00
G01 X16.4184 Y41.4626 F150.00
G01 X16.4944 Y41.4063 F150.00
G01 X16.5084 Y41.3948 F150.00
G01 X16.5785 Y41.3313 F150.00
G01 X16.5913 Y41.3185 F150.00
G01 X16.6548 Y41.2484 F150.00
G01 X16.6663 Y41.2344 F150.00
G01 X16.7226 Y41.1584 F150.00
G01 X16.7327 Y41.1433 F150.00
G01 X16.7813 Y41.0623 F150.00
G01 X16.7899 Y41.0462 F150.00
G01 X16.8303 Y40.9608 F150.00
G01 X16.8373 Y40.9440 F150.00
G01 X16.8691 Y40.8550 F150.00
G01 X16.8744 Y40.8376 F150.00
G01 X16.8973 Y40.7459 F150.00
G01 X16.9009 Y40.7281 F150.00
G01 X16.9148 Y40.6346 F150.00
G01 X16.9165 Y40.6165 F150.00
G01 X16.9212 Y40.5221 F150.00
G01 X16.9212 Y40.5039 F150.00
G01 X16.9165 Y40.4095 F150.00
G01 X16.9148 Y40.3914 F150.00
G01 X16.9009 Y40.2979 F150.00
G01 X16.8973 Y40.2801 F150.00
G01 X16.8744 Y40.1884 F150.00
G01 X16.8691 Y40.1710 F150.00
G01 X16.8373 Y40.0820 F150.00
G01 X16.8303 Y40.0652 F150.00
G01 X16.7899 Y39.9798 F150.00
G01 X16.7813 Y39.9637 F150.00
G01 X16.7327 Y39.8827 F150.00
G01 X16.7226 Y39.8676 F150.00
G01 X16.6663 Y39.7916 F150.00
G01 X16.6548 Y39.7776 F150.00
G01 X16.5913 Y39.7075 F150.00
G01 X16.5785 Y39.6947 F150.00
G01 X16.5084 Y39.6312 F150.00
G01 X16.4944 Y39.6197 F150.00
G01 X16.4184 Y39.5634 F150.00
G01 X16.4033 Y39.5533 F150.00
G01 X16.3223 Y39.5047 F150.00
G01 X16.3062 Y39.4961 F150.00
G01 X16.2208 Y39.4557 F150.00
G01 X16.2040 Y39.4487 F150.00
G01 X16.1150 Y39.4169 F150.00
G01 X16.0976 Y39.4116 F150.00
G01 X16.0059 Y39.3887 F150.00
G01 X15.9881 Y39.3851 F150.00
G01 X15.8946 Y39.3712 F150.00
G01 X15.8765 Y39.3695 F150.00
G01 X15.7821 Y39.3648 F150.00
G01 X15.7639 Y39.3648 F150.00
G01 X15.6695 Y39.3695 F150.00
G01 X15.6514 Y39.3712 F150.00
G01 X15.5579 Y39.3851 F150.00
G01 X15.5401 Y39.3887 F150.00
G01 X15.4484 Y39.4116 F150.00
G01 X15.4310 Y39.4169 F150.00
G01 X15.3420 Y39.4487 F150.00
G01 X15.3252 Y39.4557 F150.00
G01 X15.2398 Y39.4961 F150.00
G01 X15.2237 Y39.5047 F150.00
G01 X15.1427 Y39.5533 F150.00
G01 X15.1276 Y39.5634 F150.00
G01 X15.0516 Y39.6197 F150.00
G01 X15.0376 Y39.6312 F150.00
G01 X14.9675 Y39.6947 F150.00
G01 X14.9547 Y39.7075 F150.00
G01 X14.8912 Y39.7776 F150.00
G01 X14.8797 Y39.7916 F150.00
G01 X14.8234 Y39.8676 F150.00
G01 X14.8133 Y39.8827 F150.00
G01 X14.7647 Y39.9637 F150.00
G01 X14.7561 Y39.9798 F150.00
G01 X14.7157 Y40.0652 F150.00
G01 X14.7087 Y40.0820 F150.00
G01 X14.6769 Y40.1710 F150.00
G01 X14.6716 Y40.1884 F150.00
G01 X14.6487 Y40.2801 F150.00
G01 X14.6451 Y40.2979 F150.00
G01 X14.6312 Y40.3914 F150.00
G01 X14.6295 Y40.4095 F150.00
G01 X14.6248 Y40.5039 F150.00
G01 X14.6248 Y40.5221 F150.00
G00 Z2.0000
G00 X12.0848 Y40.5221
G01 F60.00
G01 Z-0.1149
G01 F150.00
G01 X12.0895 Y40.6165 F150.00
G01 X12.0912 Y40.6346 F150.00
G01 X12.1051 Y40.7281 F150.00
G01 X12.1087 Y40.7459 F150.00
G01 X12.1316 Y40.8376 F150.00
G01 X12.1369 Y40.8550 F150.00
G01 X12.1687 Y40.9440 F150.00
G01 X12.1757 Y40.9608 F150.00
G01 X12.2161 Y41.0462 F150.00
G01 X12.2247 Y41.0623 F150.00
G01 X12.2733 Y41.1433 F150.00
G01 X12.2834 Y41.1584 F150.00
G01 X12.3397 Y41.2344 F150.00
G01 X12.3512 Y41.2484 F150.00
G01 X12.4147 Y41.3185 F150.00
G01 X12.4275 Y41.3313 F150.00
G01 X12.4976 Y41.3948 F150.00
G01 X12.5116 Y41.4063 F150.00
G01 X12.5876 Y41.4626 F150.00
G01 X12.6027 Y41.4727 F150.00
G01 X12.6837 Y41.5213 F150.00
G01 X12.6998 Y41.5299 F150.00
G01 X12.7852 Y41.5703 F150.00
G01 X12.8020 Y41.5773 F150.00
G01 X12.8910 Y41.6091 F150.00
G01 X12.9084 Y41.6144 F150.00
G01 X13.0001 Y41.6373 F150.00
G01 X13.0179 Y41.6409 F150.00
G01 X13.1114 Y41.6548 F150.00
G01 X13.1295 Y41.6565 F150.00
G01 X13.2239 Y41.6612 F150.00
G01 X13.2421 Y41.6612 F150.00
G01 X13.3365 Y41.6565 F150.00
G01 X13.3546 Y41.6548 F150.00
G01 X13.4481 Y41.6409 F150.00
G01 X13.4659 Y41.6373 F150.00
G01 X13.5576 Y41.6144 F150.00
G01 X13.5750 Y41.6091 F150.00
G01 X13.6640 Y41.5773 F150.00
G01 X13.6808 Y41.5703 F150.00
G01 X13.7662 Y41.5299 F150.00
G01 X13.7823 Y41.5213 F150.00
G01 X13.8633 Y41.4727 F150.00
G01 X13.8784 Y41.4626 F150.00
G01 X13.9544 Y41.4063 F150.00
G01 X13.9684 Y41.3948 F150.00
G01 X14.0385 Y41.3313 F150.00
G01 X14.0513 Y41.3185 F150.00
G01 X14.1148 Y41.2484 F150.00
G01 X14.1263 Y41.2344 F150.00
G01 X14.1826 Y41.1584 F150.00
G01 X14.1927 Y41.1433 F150.00
G01 X14.2413 Y41.0623 F150.00
G01 X14.2499 Y41.0462 F150.00
G01 X14.2903 Y40.9608 F150.00
G01 X14.2973 Y40.9440 F150.00
G01 X14.3291 Y40.8550 F150.00
G01 X14.3344 Y40.8376 F150.00
G01 X14.3573 Y40.7459 F150.00
G01 X14.3609 Y40.7281 F150.00
G01 X14.3748 Y40.6346 F150.00
G01 X14.3765 Y40.6165 F150.00
G01 X14.3812 Y40.5221 F150.00
G01 X14.3812 Y40.5039 F150.00
G01 X14.3765 Y40.4095 F150.00
G01 X14.3748 Y40.3914 F150.00
G01 X14.3609 Y40.2979 F150.00
G01 X14.3573 Y40.2801 F150.00
G01 X14.3344 Y40.1884 F150.00
G01 X14.3291 Y40.1710 F150.00
G01 X14.2973 Y40.0820 F150.00
G01 X14.2903 Y40.0652 F150.00
G01 X14.2499 Y39.9798 F150.00
G01 X14.2413 Y39.9637 F150.00
G01 X14.1927 Y39.8827 F150.00
G01 X14.1826 Y39.8676 F150.00
G01 X14.1263 Y39.7916 F150.00
G01 X14.1148 Y39.7776 F150.00
G01 X14.0513 Y39.7075 F150.00
G01 X14.0385 Y39.6947 F150.00
G01 X13.9684 Y39.6312 F150.00
G01 X13.9544 Y39.6197 F150.00
G01 X13.8784 Y39.5634 F150.00
G01 X13.8633 Y39.5533 F150.00
G01 X13.7823 Y39.5047 F150.00
G01 X13.7662 Y39.4961 F150.00
