(G-CODE GENERATED BY FLATCAM v8.991 - www.flatcam.org - Version Date: 2019/12/27)

(Name: [8] DRV-Based Balun-B_Cu_ncc_3.175mm_endmill)
(Type: G-code from Geometry)
(Units: MM)

(Created on Friday, 17 April 2020 at 11:28)

(TOOL DIAMETER: 3.175 mm)

(Feedrate: 120.0 mm/min)
(Feedrate_Z: 60.0 mm/min)
(Feedrate rapids 1500.0 mm/min)

(Z_Cut: -0.3 mm)
(Z_Move: 2.0 mm)
(Z Toolchange: 15.0 mm)
(X,Y Toolchange: 0.0000, 0.0000 mm)
(Z Start: None mm)
(Z End: 15.0 mm)
(Steps per circle: 64)
(Preprocessor Geometry: grbl_11)

(X range:   -1.3032 ...   55.3266  mm)
(Y range:   -2.1820 ...   63.1727  mm)

(Spindle Speed: 15000 RPM)

G21
G90
G17
G94




G01 F120.00
G00 Z2.0000

M03 S15000
G4 P1.0
G00 X33.5475 Y0.2089
G01 F60.00
G01 Z-0.3000
G01 F120.00
G01 X33.5664 Y0.2778 F120.00
G01 X33.5734 Y0.3064 F120.00
G01 X33.5903 Y0.3825 F120.00
G01 X33.6203 Y0.5355 F120.00
G01 X33.6334 Y0.6123 F120.00
G01 X33.6377 Y0.6415 F120.00
G01 X33.6470 Y0.7189 F120.00
G01 X33.6619 Y0.8741 F120.00
G01 X33.6674 Y0.9518 F120.00
G01 X33.6700 Y1.0203 F120.00
G01 X33.6717 Y1.0982 F120.00
G01 X33.6721 Y1.1372 F120.00
G01 X33.6671 Y2.7733 F120.00
G01 X33.7283 Y2.7386 F120.00
G01 X33.8655 Y2.6653 F120.00
G01 X33.9349 Y2.6304 F120.00
G01 X33.9616 Y2.6178 F120.00
G01 X34.0327 Y2.5863 F120.00
G01 X34.1763 Y2.5268 F120.00
G01 X34.2489 Y2.4988 F120.00
G01 X34.2766 Y2.4889 F120.00
G01 X34.3504 Y2.4645 F120.00
G01 X34.4992 Y2.4194 F120.00
G01 X34.5742 Y2.3987 F120.00
G01 X34.6027 Y2.3915 F120.00
G01 X34.6786 Y2.3745 F120.00
G01 X34.8311 Y2.3442 F120.00
G01 X34.9077 Y2.3309 F120.00
G01 X34.9369 Y2.3266 F120.00
G01 X35.0140 Y2.3171 F120.00
G01 X35.1688 Y2.3018 F120.00
G01 X35.2463 Y2.2961 F120.00
G01 X35.3146 Y2.2932 F120.00
G01 X35.3923 Y2.2913 F120.00
G01 X35.4312 Y2.2908 F120.00
G01 X42.7957 Y2.2908 F120.00
G01 X33.5475 Y0.2089 F120.00
G00 Z2.0000
G00 X32.1930 Y53.0625
G01 F60.00
G01 Z-0.3000
G01 F120.00
G01 X32.1911 Y52.9847 F120.00
G01 X32.2140 Y17.5679 F120.00
G01 X32.2160 Y17.4894 F120.00
G01 X32.2175 Y17.4598 F120.00
G01 X32.2331 Y17.3036 F120.00
G01 X32.2376 Y17.2742 F120.00
G01 X32.2554 Y17.1858 F120.00
G01 X32.2369 Y17.0918 F120.00
G01 X32.2326 Y17.0629 F120.00
G01 X32.2178 Y16.9094 F120.00
G01 X32.2164 Y16.8802 F120.00
G01 X32.2145 Y16.8031 F120.00
G01 X32.2173 Y12.5610 F120.00
G01 X32.2192 Y12.4832 F120.00
G01 X32.2207 Y12.4538 F120.00
G01 X32.2360 Y12.2991 F120.00
G01 X32.2404 Y12.2699 F120.00
G01 X32.2564 Y12.1896 F120.00
G01 X32.2405 Y12.1094 F120.00
G01 X32.2362 Y12.0802 F120.00
G01 X32.2210 Y11.9254 F120.00
G01 X32.2196 Y11.8960 F120.00
G01 X32.2177 Y11.8182 F120.00
G01 X32.2208 Y7.0842 F120.00
G01 X32.2228 Y7.0064 F120.00
G01 X32.2242 Y6.9770 F120.00
G01 X32.2396 Y6.8223 F120.00
G01 X32.2439 Y6.7932 F120.00
G01 X32.2743 Y6.6407 F120.00
G01 X32.2815 Y6.6122 F120.00
G01 X32.3267 Y6.4634 F120.00
G01 X32.3366 Y6.4357 F120.00
G01 X32.3962 Y6.2921 F120.00
G01 X32.4088 Y6.2655 F120.00
G01 X32.4822 Y6.1284 F120.00
G01 X32.4973 Y6.1031 F120.00
G01 X32.5837 Y5.9739 F120.00
G01 X32.6013 Y5.9502 F120.00
G01 X32.7000 Y5.8301 F120.00
G01 X32.7197 Y5.8083 F120.00
G01 X32.7734 Y5.7520 F120.00
G01 X34.0986 Y4.4276 F120.00
G01 X34.1550 Y4.3740 F120.00
G01 X34.1768 Y4.3542 F120.00
G01 X34.2970 Y4.2556 F120.00
G01 X34.3207 Y4.2381 F120.00
G01 X34.4500 Y4.1517 F120.00
G01 X34.4752 Y4.1366 F120.00
G01 X34.6124 Y4.0633 F120.00
G01 X34.6390 Y4.0507 F120.00
G01 X34.7826 Y3.9913 F120.00
G01 X34.8104 Y3.9813 F120.00
G01 X34.9591 Y3.9362 F120.00
G01 X34.9877 Y3.9291 F120.00
G01 X35.1402 Y3.8988 F120.00
G01 X35.1693 Y3.8944 F120.00
G01 X35.3241 Y3.8792 F120.00
G01 X35.3535 Y3.8778 F120.00
G01 X35.4312 Y3.8758 F120.00
G01 X50.7882 Y3.8758 F120.00
G01 X50.8660 Y3.8778 F120.00
G01 X50.8954 Y3.8792 F120.00
G01 X51.0503 Y3.8945 F120.00
G01 X51.0794 Y3.8988 F120.00
G01 X51.2320 Y3.9292 F120.00
G01 X51.2606 Y3.9363 F120.00
G01 X51.4095 Y3.9815 F120.00
G01 X51.4373 Y3.9914 F120.00
G01 X51.5810 Y4.0510 F120.00
G01 X51.6077 Y4.0636 F120.00
G01 X51.7449 Y4.1370 F120.00
G01 X51.7701 Y4.1522 F120.00
G01 X51.8995 Y4.2386 F120.00
G01 X51.9232 Y4.2562 F120.00
G01 X52.0434 Y4.3549 F120.00
G01 X52.0653 Y4.3747 F120.00
G01 X52.1216 Y4.4284 F120.00
G01 X53.4449 Y5.7526 F120.00
G01 X53.4985 Y5.8089 F120.00
G01 X53.5183 Y5.8308 F120.00
G01 X53.6170 Y5.9511 F120.00
G01 X53.6345 Y5.9748 F120.00
G01 X53.7209 Y6.1042 F120.00
G01 X53.7361 Y6.1295 F120.00
G01 X53.8094 Y6.2667 F120.00
G01 X53.8219 Y6.2934 F120.00
G01 X53.8814 Y6.4372 F120.00
G01 X53.8913 Y6.4649 F120.00
G01 X53.9364 Y6.6139 F120.00
G01 X53.9436 Y6.6425 F120.00
G01 X53.9738 Y6.7951 F120.00
G01 X53.9782 Y6.8242 F120.00
G01 X53.9933 Y6.9791 F120.00
G01 X53.9947 Y7.0085 F120.00
G01 X53.9966 Y7.0863 F120.00
G01 X53.9673 Y52.4039 F120.00
G01 X53.9653 Y52.4840 F120.00
G01 X53.9637 Y52.5143 F120.00
G01 X53.9474 Y52.6736 F120.00
G01 X53.9428 Y52.7036 F120.00
G01 X53.9106 Y52.8604 F120.00
G01 X53.9030 Y52.8898 F120.00
G01 X53.8550 Y53.0426 F120.00
G01 X53.8445 Y53.0711 F120.00
G01 X53.7814 Y53.2183 F120.00
G01 X53.7681 Y53.2455 F120.00
G01 X53.6904 Y53.3856 F120.00
G01 X53.6744 Y53.4114 F120.00
G01 X53.5830 Y53.5429 F120.00
G01 X53.5645 Y53.5669 F120.00
G01 X53.4603 Y53.6885 F120.00
G01 X53.4394 Y53.7105 F120.00
G01 X53.3235 Y53.8210 F120.00
G01 X53.3005 Y53.8408 F120.00
G01 X53.1740 Y53.9391 F120.00
G01 X53.1491 Y53.9564 F120.00
G01 X53.0133 Y54.0414 F120.00
G01 X52.9869 Y54.0562 F120.00
G01 X52.8432 Y54.1270 F120.00
G01 X52.8154 Y54.1390 F120.00
G01 X52.6653 Y54.1950 F120.00
G01 X52.6364 Y54.2042 F120.00
G01 X52.4814 Y54.2447 F120.00
G01 X52.4518 Y54.2509 F120.00
G01 X52.3729 Y54.2653 F120.00
G01 X52.0984 Y54.3081 F120.00
G01 X51.0490 Y54.6184 F120.00
G01 X50.0500 Y55.0647 F120.00
G01 X49.1188 Y55.6392 F120.00
G01 X48.9596 Y55.7694 F120.00
G01 X48.8984 Y55.8170 F120.00
G01 X48.8748 Y55.8345 F120.00
G01 X48.7456 Y55.9205 F120.00
G01 X48.7204 Y55.9355 F120.00
G01 X48.5835 Y56.0085 F120.00
G01 X48.5569 Y56.0210 F120.00
G01 X48.4135 Y56.0802 F120.00
G01 X48.3859 Y56.0901 F120.00
G01 X48.2374 Y56.1350 F120.00
G01 X48.2089 Y56.1422 F120.00
G01 X48.0567 Y56.1723 F120.00
G01 X48.0276 Y56.1766 F120.00
G01 X47.8732 Y56.1918 F120.00
G01 X47.8439 Y56.1933 F120.00
G01 X47.7663 Y56.1952 F120.00
G01 X35.3996 Y56.1952 F120.00
G01 X35.3218 Y56.1932 F120.00
G01 X35.2923 Y56.1918 F120.00
G01 X35.1375 Y56.1765 F120.00
G01 X35.1083 Y56.1722 F120.00
G01 X34.9557 Y56.1418 F120.00
G01 X34.9271 Y56.1347 F120.00
G01 X34.7782 Y56.0895 F120.00
G01 X34.7505 Y56.0796 F120.00
G01 X34.6067 Y56.0200 F120.00
G01 X34.5801 Y56.0074 F120.00
G01 X34.4429 Y55.9340 F120.00
G01 X34.4176 Y55.9188 F120.00
G01 X34.2882 Y55.8324 F120.00
G01 X34.2646 Y55.8148 F120.00
G01 X34.1443 Y55.7161 F120.00
G01 X34.1225 Y55.6963 F120.00
G01 X34.0661 Y55.6426 F120.00
G01 X32.7426 Y54.3182 F120.00
G01 X32.6890 Y54.2618 F120.00
G01 X32.6693 Y54.2401 F120.00
G01 X32.6185 Y54.1811 F120.00
G01 X32.5706 Y54.1197 F120.00
G01 X32.5531 Y54.0961 F120.00
G01 X32.5084 Y54.0325 F120.00
G01 X32.4667 Y53.9667 F120.00
G01 X32.4516 Y53.9415 F120.00
G01 X32.4133 Y53.8737 F120.00
G01 X32.3783 Y53.8042 F120.00
G01 X32.3658 Y53.7776 F120.00
G01 X32.3343 Y53.7065 F120.00
G01 X32.3063 Y53.6338 F120.00
G01 X32.2964 Y53.6062 F120.00
G01 X32.2720 Y53.5322 F120.00
G01 X32.2513 Y53.4572 F120.00
G01 X32.2442 Y53.4287 F120.00
G01 X32.2272 Y53.3527 F120.00
G01 X32.2139 Y53.2760 F120.00
G01 X32.2096 Y53.2470 F120.00
G01 X32.2001 Y53.1698 F120.00
G01 X32.1944 Y53.0921 F120.00
G01 X32.1930 Y53.0625 F120.00
G00 Z2.0000
G00 X33.4317 Y60.5183
G01 F60.00
G01 Z-0.3000
G01 F120.00
G01 X42.1545 Y57.7802 F120.00
G01 X35.3996 Y57.7802 F120.00
G01 X35.3607 Y57.7797 F120.00
G01 X35.2829 Y57.7778 F120.00
G01 X35.2145 Y57.7749 F120.00
G01 X35.1369 Y57.7692 F120.00
G01 X34.9821 Y57.7539 F120.00
G01 X34.9048 Y57.7444 F120.00
G01 X34.8757 Y57.7400 F120.00
G01 X34.7990 Y57.7267 F120.00
G01 X34.6464 Y57.6964 F120.00
G01 X34.5704 Y57.6793 F120.00
G01 X34.5418 Y57.6721 F120.00
G01 X34.4668 Y57.6514 F120.00
G01 X34.3179 Y57.6062 F120.00
G01 X34.2440 Y57.5818 F120.00
G01 X34.2163 Y57.5718 F120.00
G01 X34.1437 Y57.5438 F120.00
G01 X33.9999 Y57.4842 F120.00
G01 X33.9288 Y57.4527 F120.00
G01 X33.9022 Y57.4401 F120.00
G01 X33.8326 Y57.4051 F120.00
G01 X33.6954 Y57.3317 F120.00
G01 X33.6277 Y57.2933 F120.00
G01 X33.6024 Y57.2782 F120.00
G01 X33.5367 Y57.2365 F120.00
G01 X33.5007 Y57.2124 F120.00
G01 X33.4925 Y59.8906 F120.00
G01 X33.4919 Y59.9293 F120.00
G01 X33.4898 Y60.0068 F120.00
G01 X33.4867 Y60.0748 F120.00
G01 X33.4808 Y60.1521 F120.00
G01 X33.4652 Y60.3063 F120.00
G01 X33.4555 Y60.3832 F120.00
G01 X33.4511 Y60.4122 F120.00
G01 X33.4377 Y60.4885 F120.00
G01 X33.4317 Y60.5183 F120.00
G00 Z2.0000
G00 X0.0273 Y59.4155
G01 F60.00
G01 Z-0.3000
G01 F120.00
G01 X0.0268 Y59.3919 F120.00
G01 X0.0269 Y57.3881 F120.00
G01 X0.4707 Y13.9493 F120.00
G01 X0.4733 Y13.8725 F120.00
G01 X0.4750 Y13.8435 F120.00
G01 X0.4914 Y13.6909 F120.00
G01 X0.4959 Y13.6621 F120.00
G01 X0.5270 Y13.5118 F120.00
G01 X0.5343 Y13.4837 F120.00
G01 X0.5798 Y13.3370 F120.00
G01 X0.5898 Y13.3097 F120.00
G01 X0.6492 Y13.1682 F120.00
G01 X0.6618 Y13.1420 F120.00
G01 X0.7347 Y13.0068 F120.00
G01 X0.7497 Y12.9820 F120.00
G01 X0.8353 Y12.8545 F120.00
G01 X0.8527 Y12.8312 F120.00
G01 X0.9502 Y12.7127 F120.00
G01 X0.9698 Y12.6911 F120.00
G01 X1.0227 Y12.6355 F120.00
G01 X7.4884 Y6.1699 F120.00
G01 X8.1544 Y3.6024 F120.00
G01 X8.1740 Y3.5332 F120.00
G01 X8.1821 Y3.5071 F120.00
G01 X8.2309 Y3.3713 F120.00
G01 X8.2413 Y3.3460 F120.00
G01 X8.3022 Y3.2152 F120.00
G01 X8.3148 Y3.1910 F120.00
G01 X8.3874 Y3.0663 F120.00
G01 X8.4022 Y3.0433 F120.00
G01 X8.4309 Y3.0008 F120.00
G01 X8.4335 Y2.9966 F120.00
G01 X8.9521 Y2.0132 F120.00
G01 X9.3359 Y0.9706 F120.00
G01 X9.3927 Y0.7165 F120.00
G01 X9.4112 Y0.6423 F120.00
G01 X9.4188 Y0.6144 F120.00
G01 X9.4664 Y0.4691 F120.00
G01 X9.4767 Y0.4421 F120.00
G01 X9.5381 Y0.3020 F120.00
G01 X9.5510 Y0.2761 F120.00
G01 X9.6255 Y0.1427 F120.00
G01 X9.6408 Y0.1181 F120.00
G01 X9.7279 Y-0.0075 F120.00
G01 X9.7455 Y-0.0305 F120.00
G01 X9.8443 Y-0.1472 F120.00
G01 X9.8640 Y-0.1683 F120.00
G01 X9.9736 Y-0.2750 F120.00
G01 X9.9953 Y-0.2941 F120.00
G01 X10.1146 Y-0.3897 F120.00
G01 X10.1380 Y-0.4067 F120.00
G01 X10.2659 Y-0.4903 F120.00
G01 X10.2909 Y-0.5050 F120.00
G01 X10.4263 Y-0.5759 F120.00
G01 X10.4526 Y-0.5881 F120.00
G01 X10.5942 Y-0.6456 F120.00
G01 X10.6215 Y-0.6552 F120.00
G01 X10.7680 Y-0.6988 F120.00
G01 X10.7961 Y-0.7058 F120.00
G01 X10.9461 Y-0.7351 F120.00
G01 X10.9748 Y-0.7393 F120.00
G01 X11.1269 Y-0.7540 F120.00
G01 X11.1558 Y-0.7554 F120.00
G01 X11.2323 Y-0.7572 F120.00
G01 X11.7662 Y-0.7573 F120.00
G01 X11.8205 Y-0.7709 F120.00
G01 X11.9730 Y-0.8012 F120.00
G01 X12.1429 Y-0.8264 F120.00
G01 X12.2977 Y-0.8417 F120.00
G01 X12.4692 Y-0.8501 F120.00
G01 X12.6248 Y-0.8501 F120.00
G01 X12.7963 Y-0.8417 F120.00
G01 X12.9511 Y-0.8264 F120.00
G01 X13.1210 Y-0.8012 F120.00
G01 X13.2735 Y-0.7709 F120.00
G01 X13.3274 Y-0.7574 F120.00
G01 X26.7204 Y-0.7583 F120.00
G01 X26.7705 Y-0.7709 F120.00
G01 X26.9230 Y-0.8012 F120.00
G01 X27.0929 Y-0.8264 F120.00
G01 X27.2477 Y-0.8417 F120.00
G01 X27.4192 Y-0.8501 F120.00
G01 X27.5748 Y-0.8501 F120.00
G01 X27.7463 Y-0.8417 F120.00
G01 X27.9011 Y-0.8264 F120.00
G01 X28.0710 Y-0.8012 F120.00
G01 X28.2235 Y-0.7709 F120.00
G01 X28.2731 Y-0.7584 F120.00
G01 X30.2018 Y-0.7586 F120.00
G01 X30.2797 Y-0.7567 F120.00
G01 X30.3092 Y-0.7552 F120.00
G01 X30.4643 Y-0.7399 F120.00
G01 X30.4935 Y-0.7356 F120.00
G01 X30.6464 Y-0.7051 F120.00
G01 X30.6750 Y-0.6980 F120.00
G01 X30.8241 Y-0.6526 F120.00
G01 X30.8519 Y-0.6427 F120.00
G01 X30.9958 Y-0.5829 F120.00
G01 X31.0225 Y-0.5703 F120.00
G01 X31.1599 Y-0.4967 F120.00
G01 X31.1852 Y-0.4815 F120.00
G01 X31.3147 Y-0.3948 F120.00
G01 X31.3384 Y-0.3772 F120.00
G01 X31.4587 Y-0.2781 F120.00
G01 X31.4806 Y-0.2583 F120.00
G01 X31.5906 Y-0.1479 F120.00
G01 X31.6104 Y-0.1260 F120.00
G01 X31.7091 Y-0.0054 F120.00
G01 X31.7266 Y0.0184 F120.00
G01 X31.8129 Y0.1481 F120.00
G01 X31.8281 Y0.1735 F120.00
G01 X31.9012 Y0.3111 F120.00
G01 X31.9138 Y0.3378 F120.00
G01 X31.9731 Y0.4819 F120.00
G01 X31.9830 Y0.5097 F120.00
G01 X32.0279 Y0.6590 F120.00
G01 X32.0350 Y0.6876 F120.00
G01 X32.0650 Y0.8406 F120.00
G01 X32.0692 Y0.8698 F120.00
G01 X32.0840 Y1.0249 F120.00
G01 X32.0854 Y1.0544 F120.00
G01 X32.0871 Y1.1323 F120.00
G01 X32.0194 Y23.2672 F120.00
G01 X32.0173 Y23.3442 F120.00
G01 X32.0158 Y23.3733 F120.00
G01 X32.0004 Y23.5265 F120.00
G01 X31.9961 Y23.5553 F120.00
G01 X31.9659 Y23.7062 F120.00
G01 X31.9588 Y23.7345 F120.00
G01 X31.9141 Y23.8818 F120.00
G01 X31.9122 Y23.8871 F120.00
G01 X31.9576 Y24.0391 F120.00
G01 X31.9646 Y24.0674 F120.00
G01 X31.9940 Y24.2189 F120.00
G01 X31.9981 Y24.2478 F120.00
G01 X32.0127 Y24.4014 F120.00
G01 X32.0140 Y24.4306 F120.00
G01 X32.0156 Y24.5078 F120.00
G01 X31.9075 Y59.8857 F120.00
G01 X31.9054 Y59.9632 F120.00
G01 X31.9039 Y59.9925 F120.00
G01 X31.8883 Y60.1467 F120.00
G01 X31.8839 Y60.1757 F120.00
G01 X31.8533 Y60.3276 F120.00
G01 X31.8461 Y60.3561 F120.00
G01 X31.8008 Y60.5043 F120.00
G01 X31.7909 Y60.5319 F120.00
G01 X31.7314 Y60.6749 F120.00
G01 X31.7188 Y60.7015 F120.00
G01 X31.6456 Y60.8380 F120.00
G01 X31.6305 Y60.8632 F120.00
G01 X31.5443 Y60.9920 F120.00
G01 X31.5268 Y61.0155 F120.00
G01 X31.4284 Y61.1353 F120.00
G01 X31.4087 Y61.1570 F120.00
G01 X31.2991 Y61.2666 F120.00
G01 X31.2773 Y61.2863 F120.00
G01 X31.1576 Y61.3846 F120.00
G01 X31.1340 Y61.4021 F120.00
G01 X31.0052 Y61.4883 F120.00
G01 X30.9801 Y61.5034 F120.00
G01 X30.8435 Y61.5766 F120.00
G01 X30.8170 Y61.5891 F120.00
G01 X30.6739 Y61.6486 F120.00
G01 X30.6462 Y61.6586 F120.00
G01 X30.4980 Y61.7038 F120.00
G01 X30.4696 Y61.7110 F120.00
G01 X30.3177 Y61.7415 F120.00
G01 X30.2886 Y61.7459 F120.00
G01 X30.1345 Y61.7615 F120.00
G01 X30.1052 Y61.7630 F120.00
G01 X30.0277 Y61.7651 F120.00
G01 X2.4395 Y61.8425 F120.00
G01 X2.3576 Y61.8406 F120.00
G01 X2.3265 Y61.8391 F120.00
G01 X2.1634 Y61.8226 F120.00
G01 X2.1327 Y61.8179 F120.00
G01 X1.9722 Y61.7847 F120.00
G01 X1.9421 Y61.7768 F120.00
G01 X1.7859 Y61.7272 F120.00
G01 X1.7568 Y61.7162 F120.00
G01 X1.6065 Y61.6507 F120.00
G01 X1.5787 Y61.6368 F120.00
G01 X1.4360 Y61.5561 F120.00
G01 X1.4098 Y61.5395 F120.00
G01 X1.2762 Y61.4445 F120.00
G01 X1.2519 Y61.4252 F120.00
G01 X1.1288 Y61.3169 F120.00
G01 X1.1066 Y61.2952 F120.00
G01 X1.0494 Y61.2364 F120.00
G01 X0.5271 Y60.6709 F120.00
G01 X0.4847 Y60.6232 F120.00
G01 X0.4350 Y60.5633 F120.00
G01 X0.4277 Y60.5539 F120.00
G01 X0.3810 Y60.4917 F120.00
G01 X0.3709 Y60.4774 F120.00
G01 X0.3273 Y60.4129 F120.00
G01 X0.3209 Y60.4029 F120.00
G01 X0.2806 Y60.3363 F120.00
G01 X0.2719 Y60.3211 F120.00
G01 X0.2349 Y60.2527 F120.00
G01 X0.2295 Y60.2420 F120.00
G01 X0.1959 Y60.1719 F120.00
G01 X0.1887 Y60.1559 F120.00
G01 X0.1586 Y60.0841 F120.00
G01 X0.1543 Y60.0730 F120.00
G01 X0.1277 Y59.9999 F120.00
G01 X0.1221 Y59.9833 F120.00
G01 X0.0992 Y59.9089 F120.00
G01 X0.0960 Y59.8975 F120.00
G01 X0.0767 Y59.8221 F120.00
G01 X0.0728 Y59.8050 F120.00
G01 X0.0572 Y59.7288 F120.00
G01 X0.0551 Y59.7170 F120.00
G01 X0.0434 Y59.6401 F120.00
G01 X0.0411 Y59.6227 F120.00
G01 X0.0332 Y59.5453 F120.00
G01 X0.0322 Y59.5335 F120.00
G01 X0.0298 Y59.4784 F120.00
G01 X0.0292 Y59.4784 F120.00
G01 X0.0288 Y59.4697 F120.00
G01 X0.0273 Y59.4155 F120.00
G01 X-1.1104 Y60.4909 F120.00
G01 X-1.0540 Y60.6352 F120.00
G01 X-0.9882 Y60.7818 F120.00
G01 X-0.9178 Y60.9200 F120.00
G01 X-0.8380 Y61.0594 F120.00
G01 X-0.7544 Y61.1900 F120.00
G01 X-0.6613 Y61.3209 F120.00
G01 X-0.5653 Y61.4427 F120.00
G01 X-0.4788 Y61.5420 F120.00
G01 X0.1235 Y62.1942 F120.00
G01 X0.3077 Y62.3740 F120.00
G01 X0.5688 Y62.5808 F120.00
G01 X0.8498 Y62.7595 F120.00
G01 X1.1477 Y62.9082 F120.00
G01 X1.4594 Y63.0253 F120.00
G01 X1.7816 Y63.1096 F120.00
G01 X2.1107 Y63.1601 F120.00
G01 X2.3678 Y63.1727 F120.00
G01 X30.1027 Y63.0949 F120.00
G01 X30.3457 Y63.0823 F120.00
G01 X30.6569 Y63.0354 F120.00
G01 X30.9040 Y62.9730 F120.00
G01 X48.7799 Y57.3617 F120.00
G01 X48.9613 Y57.2969 F120.00
G01 X53.5167 Y55.2835 F120.00
G01 X53.7899 Y55.1312 F120.00
G01 X54.0565 Y54.9449 F120.00
G01 X54.3030 Y54.7327 F120.00
G01 X54.5268 Y54.4967 F120.00
G01 X54.7257 Y54.2393 F120.00
G01 X54.8975 Y53.9631 F120.00
G01 X55.0406 Y53.6710 F120.00
G01 X55.1535 Y53.3660 F120.00
G01 X55.2351 Y53.0511 F120.00
G01 X55.2844 Y52.7296 F120.00
G01 X55.2973 Y52.4784 F120.00
G01 X55.3266 Y7.0156 F120.00
G01 X55.3148 Y6.7716 F120.00
G01 X55.2686 Y6.4590 F120.00
G01 X55.1920 Y6.1524 F120.00
G01 X55.0857 Y5.8548 F120.00
G01 X54.9507 Y5.5691 F120.00
G01 X54.7884 Y5.2980 F120.00
G01 X54.6003 Y5.0441 F120.00
G01 X54.4362 Y4.8630 F120.00
G01 X53.0118 Y3.4376 F120.00
G01 X52.8308 Y3.2735 F120.00
G01 X52.5770 Y3.0852 F120.00
G01 X52.3060 Y2.9227 F120.00
G01 X52.0204 Y2.7875 F120.00
G01 X51.7229 Y2.6810 F120.00
G01 X51.5212 Y2.6305 F120.00
G01 X30.7956 Y-2.0353 F120.00
G01 X30.5178 Y-2.0766 F120.00
G01 X30.3238 Y-2.0861 F120.00
G01 X27.5473 Y-2.1820 F120.00
G01 X12.4754 Y-2.1820 F120.00
G01 X12.1951 Y-2.1682 F120.00
G01 X10.8840 Y-2.0701 F120.00
G01 X10.6150 Y-2.0309 F120.00
G01 X10.3136 Y-1.9567 F120.00
G01 X10.0207 Y-1.8538 F120.00
G01 X9.7391 Y-1.7233 F120.00
G01 X9.4714 Y-1.5661 F120.00
G01 X9.2201 Y-1.3840 F120.00
G01 X8.9875 Y-1.1785 F120.00
G01 X8.7757 Y-0.9515 F120.00
G01 X8.6287 Y-0.7598 F120.00
G01 X-0.3424 Y12.2175 F120.00
G01 X-0.4770 Y12.4404 F120.00
G01 X-0.6115 Y12.7217 F120.00
G01 X-0.7182 Y13.0146 F120.00
G01 X-0.7961 Y13.3165 F120.00
G01 X-0.8444 Y13.6244 F120.00
G01 X-0.8585 Y13.8651 F120.00
G01 X-1.3031 Y57.3819 F120.00
G01 X-1.3032 Y59.4345 F120.00
G01 X-1.2993 Y59.5662 F120.00
G01 X-1.2872 Y59.7207 F120.00
G01 X-1.2668 Y59.8801 F120.00
G01 X-1.2395 Y60.0327 F120.00
G01 X-1.2036 Y60.1893 F120.00
G01 X-1.1615 Y60.3385 F120.00
G01 X-1.1104 Y60.4909 F120.00
G00 Z2.0000
M05
G00 Z2.0000
G00 Z15.00
G00 X0.0 Y0.0

