(G-CODE GENERATED BY FLATCAM v8.991 - www.flatcam.org - Version Date: 2019/12/27)

(Name: [9] DRV-Based Balun-cutout_2mm_ball)
(Type: G-code from Geometry)
(Units: MM)

(Created on Friday, 17 April 2020 at 11:30)

(TOOL DIAMETER: 2.0 mm)

(Feedrate: 120.0 mm/min)
(Feedrate_Z: 60.0 mm/min)
(Feedrate rapids 1500.0 mm/min)

(Z_Cut: -4.0 mm)
(DepthPerCut: 0.5 mm <=>8 passes)
(Z_Move: 2.0 mm)
(Z Toolchange: 15.0 mm)
(X,Y Toolchange: 0.0000, 0.0000 mm)
(Z Start: None mm)
(Z End: 15.0 mm)
(Steps per circle: 64)
(Preprocessor Geometry: grbl_11)

(X range:   -0.2380 ...   54.9344  mm)
(Y range:   -1.0250 ...   62.1120  mm)

(Spindle Speed: 20000 RPM)

G21
G90
G17
G94




G01 F120.00
G00 Z2.0000

M03 S20000
G4 P1.0
G00 X24.3482 Y-1.0230
G01 F60.00
G01 Z-0.5000
G01 F120.00
G01 X10.3311 Y-1.0220 F120.00
G01 X10.2796 Y-1.0207 F120.00
G01 X10.2307 Y-1.0171 F120.00
G01 X10.1795 Y-1.0107 F120.00
G01 X10.1312 Y-1.0023 F120.00
G01 X10.0833 Y-0.9916 F120.00
G01 X10.0336 Y-0.9779 F120.00
G01 X9.9870 Y-0.9625 F120.00
G01 X9.9389 Y-0.9440 F120.00
G01 X9.8940 Y-0.9241 F120.00
G01 X9.8480 Y-0.9010 F120.00
G01 X9.8053 Y-0.8768 F120.00
G01 X9.7617 Y-0.8493 F120.00
G01 X9.7216 Y-0.8210 F120.00
G01 X9.6809 Y-0.7893 F120.00
G01 X9.6419 Y-0.7556 F120.00
G01 X9.6064 Y-0.7218 F120.00
G01 X9.5709 Y-0.6844 F120.00
G01 X9.5388 Y-0.6473 F120.00
G01 X9.5072 Y-0.6066 F120.00
G01 X9.4789 Y-0.5665 F120.00
G01 X9.4514 Y-0.5229 F120.00
G01 X9.4272 Y-0.4802 F120.00
G01 X9.4041 Y-0.4341 F120.00
G01 X9.3842 Y-0.3892 F120.00
G01 X9.3657 Y-0.3411 F120.00
G01 X9.3503 Y-0.2945 F120.00
G01 X9.3372 Y-0.2472 F120.00
G01 X9.3268 Y-0.2016 F120.00
G01 X9.1641 Y0.5971 F120.00
G01 X8.9409 Y1.3305 F120.00
G01 X8.6495 Y2.0396 F120.00
G01 X8.2926 Y2.7180 F120.00
G01 X7.8732 Y3.3598 F120.00
G01 X7.3951 Y3.9591 F120.00
G01 X6.8627 Y4.5106 F120.00
G01 X6.2806 Y5.0095 F120.00
G01 X5.6540 Y5.4512 F120.00
G01 X4.9886 Y5.8319 F120.00
G01 X4.2902 Y6.1481 F120.00
G01 X3.5651 Y6.3970 F120.00
G01 X2.8197 Y6.5764 F120.00
G01 X2.0608 Y6.6846 F120.00
G01 X1.2708 Y6.7220 F120.00
G01 X0.7870 Y6.7220 F120.00
G01 X0.7355 Y6.7233 F120.00
G01 X0.6354 Y6.7333 F120.00
G01 X0.5368 Y6.7530 F120.00
G01 X0.4405 Y6.7823 F120.00
G01 X0.3477 Y6.8210 F120.00
G01 X0.2611 Y6.8672 F120.00
G01 X0.1774 Y6.9230 F120.00
G01 X0.0996 Y6.9867 F120.00
G01 X0.0267 Y7.0596 F120.00
G01 X-0.0370 Y7.1374 F120.00
G01 X-0.0928 Y7.2211 F120.00
G01 X-0.1390 Y7.3077 F120.00
G01 X-0.1777 Y7.4005 F120.00
G01 X-0.2070 Y7.4968 F120.00
G01 X-0.2267 Y7.5954 F120.00
G01 X-0.2367 Y7.6955 F120.00
G01 X-0.2380 Y7.7470 F120.00
G01 X-0.2380 Y27.5435 F120.00
G00 X-0.2380 Y27.5435
G01 F60.00
G01 Z-1.0000
G01 F120.00
G01 X-0.2380 Y7.7470 F120.00
G01 X-0.2367 Y7.6955 F120.00
G01 X-0.2267 Y7.5954 F120.00
G01 X-0.2070 Y7.4968 F120.00
G01 X-0.1777 Y7.4005 F120.00
G01 X-0.1390 Y7.3077 F120.00
G01 X-0.0928 Y7.2211 F120.00
G01 X-0.0370 Y7.1374 F120.00
G01 X0.0267 Y7.0596 F120.00
G01 X0.0996 Y6.9867 F120.00
G01 X0.1774 Y6.9230 F120.00
G01 X0.2611 Y6.8672 F120.00
G01 X0.3477 Y6.8210 F120.00
G01 X0.4405 Y6.7823 F120.00
G01 X0.5368 Y6.7530 F120.00
G01 X0.6354 Y6.7333 F120.00
G01 X0.7355 Y6.7233 F120.00
G01 X0.7870 Y6.7220 F120.00
G01 X1.2708 Y6.7220 F120.00
G01 X2.0608 Y6.6846 F120.00
G01 X2.8197 Y6.5764 F120.00
G01 X3.5651 Y6.3970 F120.00
G01 X4.2902 Y6.1481 F120.00
G01 X4.9886 Y5.8319 F120.00
G01 X5.6540 Y5.4512 F120.00
G01 X6.2806 Y5.0095 F120.00
G01 X6.8627 Y4.5106 F120.00
G01 X7.3951 Y3.9591 F120.00
G01 X7.8732 Y3.3598 F120.00
G01 X8.2926 Y2.7180 F120.00
G01 X8.6495 Y2.0396 F120.00
G01 X8.9409 Y1.3305 F120.00
G01 X9.1641 Y0.5971 F120.00
G01 X9.3268 Y-0.2016 F120.00
G01 X9.3372 Y-0.2472 F120.00
G01 X9.3503 Y-0.2945 F120.00
G01 X9.3657 Y-0.3411 F120.00
G01 X9.3842 Y-0.3892 F120.00
G01 X9.4041 Y-0.4341 F120.00
G01 X9.4272 Y-0.4802 F120.00
G01 X9.4514 Y-0.5229 F120.00
G01 X9.4789 Y-0.5665 F120.00
G01 X9.5072 Y-0.6066 F120.00
G01 X9.5388 Y-0.6473 F120.00
G01 X9.5709 Y-0.6844 F120.00
G01 X9.6064 Y-0.7218 F120.00
G01 X9.6419 Y-0.7556 F120.00
G01 X9.6809 Y-0.7893 F120.00
G01 X9.7216 Y-0.8210 F120.00
G01 X9.7617 Y-0.8493 F120.00
G01 X9.8053 Y-0.8768 F120.00
G01 X9.8480 Y-0.9010 F120.00
G01 X9.8940 Y-0.9241 F120.00
G01 X9.9389 Y-0.9440 F120.00
G01 X9.9870 Y-0.9625 F120.00
G01 X10.0336 Y-0.9779 F120.00
G01 X10.0833 Y-0.9916 F120.00
G01 X10.1312 Y-1.0023 F120.00
G01 X10.1795 Y-1.0107 F120.00
G01 X10.2307 Y-1.0171 F120.00
G01 X10.2796 Y-1.0207 F120.00
G01 X10.3311 Y-1.0220 F120.00
G01 X24.3482 Y-1.0230 F120.00
G00 X24.3482 Y-1.0230
G01 F60.00
G01 Z-1.5000
G01 F120.00
G01 X10.3311 Y-1.0220 F120.00
G01 X10.2796 Y-1.0207 F120.00
G01 X10.2307 Y-1.0171 F120.00
G01 X10.1795 Y-1.0107 F120.00
G01 X10.1312 Y-1.0023 F120.00
G01 X10.0833 Y-0.9916 F120.00
G01 X10.0336 Y-0.9779 F120.00
G01 X9.9870 Y-0.9625 F120.00
G01 X9.9389 Y-0.9440 F120.00
G01 X9.8940 Y-0.9241 F120.00
G01 X9.8480 Y-0.9010 F120.00
G01 X9.8053 Y-0.8768 F120.00
G01 X9.7617 Y-0.8493 F120.00
G01 X9.7216 Y-0.8210 F120.00
G01 X9.6809 Y-0.7893 F120.00
G01 X9.6419 Y-0.7556 F120.00
G01 X9.6064 Y-0.7218 F120.00
G01 X9.5709 Y-0.6844 F120.00
G01 X9.5388 Y-0.6473 F120.00
G01 X9.5072 Y-0.6066 F120.00
G01 X9.4789 Y-0.5665 F120.00
G01 X9.4514 Y-0.5229 F120.00
G01 X9.4272 Y-0.4802 F120.00
G01 X9.4041 Y-0.4341 F120.00
G01 X9.3842 Y-0.3892 F120.00
G01 X9.3657 Y-0.3411 F120.00
G01 X9.3503 Y-0.2945 F120.00
G01 X9.3372 Y-0.2472 F120.00
G01 X9.3268 Y-0.2016 F120.00
G01 X9.1641 Y0.5971 F120.00
G01 X8.9409 Y1.3305 F120.00
G01 X8.6495 Y2.0396 F120.00
G01 X8.2926 Y2.7180 F120.00
G01 X7.8732 Y3.3598 F120.00
G01 X7.3951 Y3.9591 F120.00
G01 X6.8627 Y4.5106 F120.00
G01 X6.2806 Y5.0095 F120.00
G01 X5.6540 Y5.4512 F120.00
G01 X4.9886 Y5.8319 F120.00
G01 X4.2902 Y6.1481 F120.00
G01 X3.5651 Y6.3970 F120.00
G01 X2.8197 Y6.5764 F120.00
G01 X2.0608 Y6.6846 F120.00
G01 X1.2708 Y6.7220 F120.00
G01 X0.7870 Y6.7220 F120.00
G01 X0.7355 Y6.7233 F120.00
G01 X0.6354 Y6.7333 F120.00
G01 X0.5368 Y6.7530 F120.00
G01 X0.4405 Y6.7823 F120.00
G01 X0.3477 Y6.8210 F120.00
G01 X0.2611 Y6.8672 F120.00
G01 X0.1774 Y6.9230 F120.00
G01 X0.0996 Y6.9867 F120.00
G01 X0.0267 Y7.0596 F120.00
G01 X-0.0370 Y7.1374 F120.00
G01 X-0.0928 Y7.2211 F120.00
G01 X-0.1390 Y7.3077 F120.00
G01 X-0.1777 Y7.4005 F120.00
G01 X-0.2070 Y7.4968 F120.00
G01 X-0.2267 Y7.5954 F120.00
G01 X-0.2367 Y7.6955 F120.00
G01 X-0.2380 Y7.7470 F120.00
G01 X-0.2380 Y27.5435 F120.00
G00 X-0.2380 Y27.5435
G01 F60.00
G01 Z-2.0000
G01 F120.00
G01 X-0.2380 Y7.7470 F120.00
G01 X-0.2367 Y7.6955 F120.00
G01 X-0.2267 Y7.5954 F120.00
G01 X-0.2070 Y7.4968 F120.00
G01 X-0.1777 Y7.4005 F120.00
G01 X-0.1390 Y7.3077 F120.00
G01 X-0.0928 Y7.2211 F120.00
G01 X-0.0370 Y7.1374 F120.00
G01 X0.0267 Y7.0596 F120.00
G01 X0.0996 Y6.9867 F120.00
G01 X0.1774 Y6.9230 F120.00
G01 X0.2611 Y6.8672 F120.00
G01 X0.3477 Y6.8210 F120.00
G01 X0.4405 Y6.7823 F120.00
G01 X0.5368 Y6.7530 F120.00
G01 X0.6354 Y6.7333 F120.00
G01 X0.7355 Y6.7233 F120.00
G01 X0.7870 Y6.7220 F120.00
G01 X1.2708 Y6.7220 F120.00
G01 X2.0608 Y6.6846 F120.00
G01 X2.8197 Y6.5764 F120.00
G01 X3.5651 Y6.3970 F120.00
G01 X4.2902 Y6.1481 F120.00
G01 X4.9886 Y5.8319 F120.00
G01 X5.6540 Y5.4512 F120.00
G01 X6.2806 Y5.0095 F120.00
G01 X6.8627 Y4.5106 F120.00
G01 X7.3951 Y3.9591 F120.00
G01 X7.8732 Y3.3598 F120.00
G01 X8.2926 Y2.7180 F120.00
G01 X8.6495 Y2.0396 F120.00
G01 X8.9409 Y1.3305 F120.00
G01 X9.1641 Y0.5971 F120.00
G01 X9.3268 Y-0.2016 F120.00
G01 X9.3372 Y-0.2472 F120.00
G01 X9.3503 Y-0.2945 F120.00
G01 X9.3657 Y-0.3411 F120.00
G01 X9.3842 Y-0.3892 F120.00
G01 X9.4041 Y-0.4341 F120.00
G01 X9.4272 Y-0.4802 F120.00
G01 X9.4514 Y-0.5229 F120.00
G01 X9.4789 Y-0.5665 F120.00
G01 X9.5072 Y-0.6066 F120.00
G01 X9.5388 Y-0.6473 F120.00
G01 X9.5709 Y-0.6844 F120.00
G01 X9.6064 Y-0.7218 F120.00
G01 X9.6419 Y-0.7556 F120.00
G01 X9.6809 Y-0.7893 F120.00
G01 X9.7216 Y-0.8210 F120.00
G01 X9.7617 Y-0.8493 F120.00
G01 X9.8053 Y-0.8768 F120.00
G01 X9.8480 Y-0.9010 F120.00
G01 X9.8940 Y-0.9241 F120.00
G01 X9.9389 Y-0.9440 F120.00
G01 X9.9870 Y-0.9625 F120.00
G01 X10.0336 Y-0.9779 F120.00
G01 X10.0833 Y-0.9916 F120.00
G01 X10.1312 Y-1.0023 F120.00
G01 X10.1795 Y-1.0107 F120.00
G01 X10.2307 Y-1.0171 F120.00
G01 X10.2796 Y-1.0207 F120.00
G01 X10.3311 Y-1.0220 F120.00
G01 X24.3482 Y-1.0230 F120.00
G00 X24.3482 Y-1.0230
G01 F60.00
G01 Z-2.5000
G01 F120.00
G01 X10.3311 Y-1.0220 F120.00
G01 X10.2796 Y-1.0207 F120.00
G01 X10.2307 Y-1.0171 F120.00
G01 X10.1795 Y-1.0107 F120.00
G01 X10.1312 Y-1.0023 F120.00
G01 X10.0833 Y-0.9916 F120.00
G01 X10.0336 Y-0.9779 F120.00
G01 X9.9870 Y-0.9625 F120.00
G01 X9.9389 Y-0.9440 F120.00
G01 X9.8940 Y-0.9241 F120.00
G01 X9.8480 Y-0.9010 F120.00
G01 X9.8053 Y-0.8768 F120.00
G01 X9.7617 Y-0.8493 F120.00
G01 X9.7216 Y-0.8210 F120.00
G01 X9.6809 Y-0.7893 F120.00
G01 X9.6419 Y-0.7556 F120.00
G01 X9.6064 Y-0.7218 F120.00
G01 X9.5709 Y-0.6844 F120.00
G01 X9.5388 Y-0.6473 F120.00
G01 X9.5072 Y-0.6066 F120.00
G01 X9.4789 Y-0.5665 F120.00
G01 X9.4514 Y-0.5229 F120.00
G01 X9.4272 Y-0.4802 F120.00
G01 X9.4041 Y-0.4341 F120.00
G01 X9.3842 Y-0.3892 F120.00
G01 X9.3657 Y-0.3411 F120.00
G01 X9.3503 Y-0.2945 F120.00
G01 X9.3372 Y-0.2472 F120.00
G01 X9.3268 Y-0.2016 F120.00
G01 X9.1641 Y0.5971 F120.00
G01 X8.9409 Y1.3305 F120.00
G01 X8.6495 Y2.0396 F120.00
G01 X8.2926 Y2.7180 F120.00
G01 X7.8732 Y3.3598 F120.00
G01 X7.3951 Y3.9591 F120.00
G01 X6.8627 Y4.5106 F120.00
G01 X6.2806 Y5.0095 F120.00
G01 X5.6540 Y5.4512 F120.00
G01 X4.9886 Y5.8319 F120.00
G01 X4.2902 Y6.1481 F120.00
G01 X3.5651 Y6.3970 F120.00
G01 X2.8197 Y6.5764 F120.00
G01 X2.0608 Y6.6846 F120.00
G01 X1.2708 Y6.7220 F120.00
G01 X0.7870 Y6.7220 F120.00
G01 X0.7355 Y6.7233 F120.00
G01 X0.6354 Y6.7333 F120.00
G01 X0.5368 Y6.7530 F120.00
G01 X0.4405 Y6.7823 F120.00
G01 X0.3477 Y6.8210 F120.00
G01 X0.2611 Y6.8672 F120.00
G01 X0.1774 Y6.9230 F120.00
G01 X0.0996 Y6.9867 F120.00
G01 X0.0267 Y7.0596 F120.00
G01 X-0.0370 Y7.1374 F120.00
G01 X-0.0928 Y7.2211 F120.00
G01 X-0.1390 Y7.3077 F120.00
G01 X-0.1777 Y7.4005 F120.00
G01 X-0.2070 Y7.4968 F120.00
G01 X-0.2267 Y7.5954 F120.00
G01 X-0.2367 Y7.6955 F120.00
G01 X-0.2380 Y7.7470 F120.00
G01 X-0.2380 Y27.5435 F120.00
G00 X-0.2380 Y27.5435
G01 F60.00
G01 Z-3.0000
G01 F120.00
G01 X-0.2380 Y7.7470 F120.00
G01 X-0.2367 Y7.6955 F120.00
G01 X-0.2267 Y7.5954 F120.00
G01 X-0.2070 Y7.4968 F120.00
G01 X-0.1777 Y7.4005 F120.00
G01 X-0.1390 Y7.3077 F120.00
G01 X-0.0928 Y7.2211 F120.00
G01 X-0.0370 Y7.1374 F120.00
G01 X0.0267 Y7.0596 F120.00
G01 X0.0996 Y6.9867 F120.00
G01 X0.1774 Y6.9230 F120.00
G01 X0.2611 Y6.8672 F120.00
G01 X0.3477 Y6.8210 F120.00
G01 X0.4405 Y6.7823 F120.00
G01 X0.5368 Y6.7530 F120.00
G01 X0.6354 Y6.7333 F120.00
G01 X0.7355 Y6.7233 F120.00
G01 X0.7870 Y6.7220 F120.00
G01 X1.2708 Y6.7220 F120.00
G01 X2.0608 Y6.6846 F120.00
G01 X2.8197 Y6.5764 F120.00
G01 X3.5651 Y6.3970 F120.00
G01 X4.2902 Y6.1481 F120.00
G01 X4.9886 Y5.8319 F120.00
G01 X5.6540 Y5.4512 F120.00
G01 X6.2806 Y5.0095 F120.00
G01 X6.8627 Y4.5106 F120.00
G01 X7.3951 Y3.9591 F120.00
G01 X7.8732 Y3.3598 F120.00
G01 X8.2926 Y2.7180 F120.00
G01 X8.6495 Y2.0396 F120.00
G01 X8.9409 Y1.3305 F120.00
G01 X9.1641 Y0.5971 F120.00
G01 X9.3268 Y-0.2016 F120.00
G01 X9.3372 Y-0.2472 F120.00
G01 X9.3503 Y-0.2945 F120.00
G01 X9.3657 Y-0.3411 F120.00
G01 X9.3842 Y-0.3892 F120.00
G01 X9.4041 Y-0.4341 F120.00
G01 X9.4272 Y-0.4802 F120.00
G01 X9.4514 Y-0.5229 F120.00
G01 X9.4789 Y-0.5665 F120.00
G01 X9.5072 Y-0.6066 F120.00
G01 X9.5388 Y-0.6473 F120.00
G01 X9.5709 Y-0.6844 F120.00
G01 X9.6064 Y-0.7218 F120.00
G01 X9.6419 Y-0.7556 F120.00
G01 X9.6809 Y-0.7893 F120.00
G01 X9.7216 Y-0.8210 F120.00
G01 X9.7617 Y-0.8493 F120.00
G01 X9.8053 Y-0.8768 F120.00
G01 X9.8480 Y-0.9010 F120.00
G01 X9.8940 Y-0.9241 F120.00
G01 X9.9389 Y-0.9440 F120.00
G01 X9.9870 Y-0.9625 F120.00
G01 X10.0336 Y-0.9779 F120.00
G01 X10.0833 Y-0.9916 F120.00
G01 X10.1312 Y-1.0023 F120.00
G01 X10.1795 Y-1.0107 F120.00
G01 X10.2307 Y-1.0171 F120.00
G01 X10.2796 Y-1.0207 F120.00
G01 X10.3311 Y-1.0220 F120.00
G01 X24.3482 Y-1.0230 F120.00
G00 X24.3482 Y-1.0230
G01 F60.00
G01 Z-3.5000
G01 F120.00
G01 X10.3311 Y-1.0220 F120.00
G01 X10.2796 Y-1.0207 F120.00
G01 X10.2307 Y-1.0171 F120.00
G01 X10.1795 Y-1.0107 F120.00
G01 X10.1312 Y-1.0023 F120.00
G01 X10.0833 Y-0.9916 F120.00
G01 X10.0336 Y-0.9779 F120.00
G01 X9.9870 Y-0.9625 F120.00
G01 X9.9389 Y-0.9440 F120.00
G01 X9.8940 Y-0.9241 F120.00
G01 X9.8480 Y-0.9010 F120.00
G01 X9.8053 Y-0.8768 F120.00
G01 X9.7617 Y-0.8493 F120.00
G01 X9.7216 Y-0.8210 F120.00
G01 X9.6809 Y-0.7893 F120.00
G01 X9.6419 Y-0.7556 F120.00
G01 X9.6064 Y-0.7218 F120.00
G01 X9.5709 Y-0.6844 F120.00
G01 X9.5388 Y-0.6473 F120.00
G01 X9.5072 Y-0.6066 F120.00
G01 X9.4789 Y-0.5665 F120.00
G01 X9.4514 Y-0.5229 F120.00
G01 X9.4272 Y-0.4802 F120.00
G01 X9.4041 Y-0.4341 F120.00
G01 X9.3842 Y-0.3892 F120.00
G01 X9.3657 Y-0.3411 F120.00
G01 X9.3503 Y-0.2945 F120.00
G01 X9.3372 Y-0.2472 F120.00
G01 X9.3268 Y-0.2016 F120.00
G01 X9.1641 Y0.5971 F120.00
G01 X8.9409 Y1.3305 F120.00
G01 X8.6495 Y2.0396 F120.00
G01 X8.2926 Y2.7180 F120.00
G01 X7.8732 Y3.3598 F120.00
G01 X7.3951 Y3.9591 F120.00
G01 X6.8627 Y4.5106 F120.00
G01 X6.2806 Y5.0095 F120.00
G01 X5.6540 Y5.4512 F120.00
G01 X4.9886 Y5.8319 F120.00
G01 X4.2902 Y6.1481 F120.00
G01 X3.5651 Y6.3970 F120.00
G01 X2.8197 Y6.5764 F120.00
G01 X2.0608 Y6.6846 F120.00
G01 X1.2708 Y6.7220 F120.00
G01 X0.7870 Y6.7220 F120.00
G01 X0.7355 Y6.7233 F120.00
G01 X0.6354 Y6.7333 F120.00
G01 X0.5368 Y6.7530 F120.00
G01 X0.4405 Y6.7823 F120.00
G01 X0.3477 Y6.8210 F120.00
G01 X0.2611 Y6.8672 F120.00
G01 X0.1774 Y6.9230 F120.00
G01 X0.0996 Y6.9867 F120.00
G01 X0.0267 Y7.0596 F120.00
G01 X-0.0370 Y7.1374 F120.00
G01 X-0.0928 Y7.2211 F120.00
G01 X-0.1390 Y7.3077 F120.00
G01 X-0.1777 Y7.4005 F120.00
G01 X-0.2070 Y7.4968 F120.00
G01 X-0.2267 Y7.5954 F120.00
G01 X-0.2367 Y7.6955 F120.00
G01 X-0.2380 Y7.7470 F120.00
G01 X-0.2380 Y27.5435 F120.00
G00 X-0.2380 Y27.5435
G01 F60.00
G01 Z-4.0000
G01 F120.00
G01 X-0.2380 Y7.7470 F120.00
G01 X-0.2367 Y7.6955 F120.00
G01 X-0.2267 Y7.5954 F120.00
G01 X-0.2070 Y7.4968 F120.00
G01 X-0.1777 Y7.4005 F120.00
G01 X-0.1390 Y7.3077 F120.00
G01 X-0.0928 Y7.2211 F120.00
G01 X-0.0370 Y7.1374 F120.00
G01 X0.0267 Y7.0596 F120.00
G01 X0.0996 Y6.9867 F120.00
G01 X0.1774 Y6.9230 F120.00
G01 X0.2611 Y6.8672 F120.00
G01 X0.3477 Y6.8210 F120.00
G01 X0.4405 Y6.7823 F120.00
G01 X0.5368 Y6.7530 F120.00
G01 X0.6354 Y6.7333 F120.00
G01 X0.7355 Y6.7233 F120.00
G01 X0.7870 Y6.7220 F120.00
G01 X1.2708 Y6.7220 F120.00
G01 X2.0608 Y6.6846 F120.00
G01 X2.8197 Y6.5764 F120.00
G01 X3.5651 Y6.3970 F120.00
G01 X4.2902 Y6.1481 F120.00
G01 X4.9886 Y5.8319 F120.00
G01 X5.6540 Y5.4512 F120.00
G01 X6.2806 Y5.0095 F120.00
G01 X6.8627 Y4.5106 F120.00
G01 X7.3951 Y3.9591 F120.00
G01 X7.8732 Y3.3598 F120.00
G01 X8.2926 Y2.7180 F120.00
G01 X8.6495 Y2.0396 F120.00
G01 X8.9409 Y1.3305 F120.00
G01 X9.1641 Y0.5971 F120.00
G01 X9.3268 Y-0.2016 F120.00
G01 X9.3372 Y-0.2472 F120.00
G01 X9.3503 Y-0.2945 F120.00
G01 X9.3657 Y-0.3411 F120.00
G01 X9.3842 Y-0.3892 F120.00
G01 X9.4041 Y-0.4341 F120.00
G01 X9.4272 Y-0.4802 F120.00
G01 X9.4514 Y-0.5229 F120.00
G01 X9.4789 Y-0.5665 F120.00
G01 X9.5072 Y-0.6066 F120.00
G01 X9.5388 Y-0.6473 F120.00
G01 X9.5709 Y-0.6844 F120.00
G01 X9.6064 Y-0.7218 F120.00
G01 X9.6419 Y-0.7556 F120.00
G01 X9.6809 Y-0.7893 F120.00
G01 X9.7216 Y-0.8210 F120.00
G01 X9.7617 Y-0.8493 F120.00
G01 X9.8053 Y-0.8768 F120.00
G01 X9.8480 Y-0.9010 F120.00
G01 X9.8940 Y-0.9241 F120.00
G01 X9.9389 Y-0.9440 F120.00
G01 X9.9870 Y-0.9625 F120.00
G01 X10.0336 Y-0.9779 F120.00
G01 X10.0833 Y-0.9916 F120.00
G01 X10.1312 Y-1.0023 F120.00
G01 X10.1795 Y-1.0107 F120.00
G01 X10.2307 Y-1.0171 F120.00
G01 X10.2796 Y-1.0207 F120.00
G01 X10.3311 Y-1.0220 F120.00
G01 X24.3482 Y-1.0230 F120.00
G00 Z2.0000
G00 X30.3482 Y-1.0235
G01 F60.00
G01 Z-0.5000
G01 F120.00
G01 X52.3489 Y-1.0250 F120.00
G01 X52.3997 Y-1.0237 F120.00
G01 X52.4487 Y-1.0202 F120.00
G01 X52.4998 Y-1.0138 F120.00
G01 X52.5482 Y-1.0055 F120.00
G01 X52.5961 Y-0.9947 F120.00
G01 X52.6458 Y-0.9811 F120.00
G01 X52.6924 Y-0.9657 F120.00
G01 X52.7405 Y-0.9473 F120.00
G01 X52.7876 Y-0.9264 F120.00
G01 X52.8315 Y-0.9044 F120.00
G01 X52.8742 Y-0.8802 F120.00
G01 X52.9178 Y-0.8527 F120.00
G01 X52.9580 Y-0.8245 F120.00
G01 X52.9986 Y-0.7928 F120.00
G01 X53.0359 Y-0.7608 F120.00
G01 X53.0732 Y-0.7254 F120.00
G01 X53.1071 Y-0.6898 F120.00
G01 X53.1408 Y-0.6509 F120.00
G01 X53.1711 Y-0.6122 F120.00
G01 X53.2008 Y-0.5701 F120.00
G01 X53.2271 Y-0.5286 F120.00
G01 X53.2526 Y-0.4839 F120.00
G01 X53.2747 Y-0.4400 F120.00
G01 X53.2957 Y-0.3930 F120.00
G01 X53.3134 Y-0.3472 F120.00
G01 X53.3296 Y-0.2983 F120.00
G01 X53.3428 Y-0.2510 F120.00
G01 X53.3540 Y-0.2014 F120.00
G01 X53.5133 Y0.5931 F120.00
G01 X53.7280 Y1.3284 F120.00
G01 X54.0054 Y2.0424 F120.00
G01 X54.3433 Y2.7298 F120.00
G01 X54.7622 Y3.4234 F120.00
G01 X54.7758 Y3.4466 F120.00
G01 X54.8002 Y3.4922 F120.00
G01 X54.8215 Y3.5370 F120.00
G01 X54.8408 Y3.5835 F120.00
G01 X54.8580 Y3.6315 F120.00
G01 X54.8726 Y3.6795 F120.00
G01 X54.8847 Y3.7280 F120.00
G01 X54.8946 Y3.7776 F120.00
G01 X54.9022 Y3.8283 F120.00
G01 X54.9071 Y3.8786 F120.00
G01 X54.9095 Y3.9275 F120.00
G01 X54.9098 Y3.9528 F120.00
G01 X54.9216 Y27.5435 F120.00
G00 X54.9216 Y27.5435
G01 F60.00
G01 Z-1.0000
G01 F120.00
G01 X54.9098 Y3.9528 F120.00
G01 X54.9095 Y3.9275 F120.00
G01 X54.9071 Y3.8786 F120.00
G01 X54.9022 Y3.8283 F120.00
G01 X54.8946 Y3.7776 F120.00
G01 X54.8847 Y3.7280 F120.00
G01 X54.8726 Y3.6795 F120.00
G01 X54.8580 Y3.6315 F120.00
G01 X54.8408 Y3.5835 F120.00
G01 X54.8215 Y3.5370 F120.00
G01 X54.8002 Y3.4922 F120.00
G01 X54.7758 Y3.4466 F120.00
G01 X54.7622 Y3.4234 F120.00
G01 X54.3433 Y2.7298 F120.00
G01 X54.0054 Y2.0424 F120.00
G01 X53.7280 Y1.3284 F120.00
G01 X53.5133 Y0.5931 F120.00
G01 X53.3540 Y-0.2014 F120.00
G01 X53.3428 Y-0.2510 F120.00
G01 X53.3296 Y-0.2983 F120.00
G01 X53.3134 Y-0.3472 F120.00
G01 X53.2957 Y-0.3930 F120.00
G01 X53.2747 Y-0.4400 F120.00
G01 X53.2526 Y-0.4839 F120.00
G01 X53.2271 Y-0.5286 F120.00
G01 X53.2008 Y-0.5701 F120.00
G01 X53.1711 Y-0.6122 F120.00
G01 X53.1408 Y-0.6509 F120.00
G01 X53.1071 Y-0.6898 F120.00
G01 X53.0732 Y-0.7254 F120.00
G01 X53.0359 Y-0.7608 F120.00
G01 X52.9986 Y-0.7928 F120.00
G01 X52.9580 Y-0.8245 F120.00
G01 X52.9178 Y-0.8527 F120.00
G01 X52.8742 Y-0.8802 F120.00
G01 X52.8315 Y-0.9044 F120.00
G01 X52.7876 Y-0.9264 F120.00
G01 X52.7405 Y-0.9473 F120.00
G01 X52.6924 Y-0.9657 F120.00
G01 X52.6458 Y-0.9811 F120.00
G01 X52.5961 Y-0.9947 F120.00
G01 X52.5482 Y-1.0055 F120.00
G01 X52.4998 Y-1.0138 F120.00
G01 X52.4487 Y-1.0202 F120.00
G01 X52.3997 Y-1.0237 F120.00
G01 X52.3489 Y-1.0250 F120.00
G01 X30.3482 Y-1.0235 F120.00
G00 X30.3482 Y-1.0235
G01 F60.00
G01 Z-1.5000
G01 F120.00
G01 X52.3489 Y-1.0250 F120.00
G01 X52.3997 Y-1.0237 F120.00
G01 X52.4487 Y-1.0202 F120.00
G01 X52.4998 Y-1.0138 F120.00
G01 X52.5482 Y-1.0055 F120.00
G01 X52.5961 Y-0.9947 F120.00
G01 X52.6458 Y-0.9811 F120.00
G01 X52.6924 Y-0.9657 F120.00
G01 X52.7405 Y-0.9473 F120.00
G01 X52.7876 Y-0.9264 F120.00
G01 X52.8315 Y-0.9044 F120.00
G01 X52.8742 Y-0.8802 F120.00
G01 X52.9178 Y-0.8527 F120.00
G01 X52.9580 Y-0.8245 F120.00
G01 X52.9986 Y-0.7928 F120.00
G01 X53.0359 Y-0.7608 F120.00
G01 X53.0732 Y-0.7254 F120.00
G01 X53.1071 Y-0.6898 F120.00
G01 X53.1408 Y-0.6509 F120.00
G01 X53.1711 Y-0.6122 F120.00
G01 X53.2008 Y-0.5701 F120.00
G01 X53.2271 Y-0.5286 F120.00
G01 X53.2526 Y-0.4839 F120.00
G01 X53.2747 Y-0.4400 F120.00
G01 X53.2957 Y-0.3930 F120.00
G01 X53.3134 Y-0.3472 F120.00
G01 X53.3296 Y-0.2983 F120.00
G01 X53.3428 Y-0.2510 F120.00
G01 X53.3540 Y-0.2014 F120.00
G01 X53.5133 Y0.5931 F120.00
G01 X53.7280 Y1.3284 F120.00
G01 X54.0054 Y2.0424 F120.00
G01 X54.3433 Y2.7298 F120.00
G01 X54.7622 Y3.4234 F120.00
G01 X54.7758 Y3.4466 F120.00
G01 X54.8002 Y3.4922 F120.00
G01 X54.8215 Y3.5370 F120.00
G01 X54.8408 Y3.5835 F120.00
G01 X54.8580 Y3.6315 F120.00
G01 X54.8726 Y3.6795 F120.00
G01 X54.8847 Y3.7280 F120.00
G01 X54.8946 Y3.7776 F120.00
G01 X54.9022 Y3.8283 F120.00
G01 X54.9071 Y3.8786 F120.00
G01 X54.9095 Y3.9275 F120.00
G01 X54.9098 Y3.9528 F120.00
G01 X54.9216 Y27.5435 F120.00
G00 X54.9216 Y27.5435
G01 F60.00
G01 Z-2.0000
G01 F120.00
G01 X54.9098 Y3.9528 F120.00
G01 X54.9095 Y3.9275 F120.00
G01 X54.9071 Y3.8786 F120.00
G01 X54.9022 Y3.8283 F120.00
G01 X54.8946 Y3.7776 F120.00
G01 X54.8847 Y3.7280 F120.00
G01 X54.8726 Y3.6795 F120.00
G01 X54.8580 Y3.6315 F120.00
G01 X54.8408 Y3.5835 F120.00
G01 X54.8215 Y3.5370 F120.00
G01 X54.8002 Y3.4922 F120.00
G01 X54.7758 Y3.4466 F120.00
G01 X54.7622 Y3.4234 F120.00
G01 X54.3433 Y2.7298 F120.00
G01 X54.0054 Y2.0424 F120.00
G01 X53.7280 Y1.3284 F120.00
G01 X53.5133 Y0.5931 F120.00
G01 X53.3540 Y-0.2014 F120.00
G01 X53.3428 Y-0.2510 F120.00
G01 X53.3296 Y-0.2983 F120.00
G01 X53.3134 Y-0.3472 F120.00
G01 X53.2957 Y-0.3930 F120.00
G01 X53.2747 Y-0.4400 F120.00
G01 X53.2526 Y-0.4839 F120.00
G01 X53.2271 Y-0.5286 F120.00
G01 X53.2008 Y-0.5701 F120.00
G01 X53.1711 Y-0.6122 F120.00
G01 X53.1408 Y-0.6509 F120.00
G01 X53.1071 Y-0.6898 F120.00
G01 X53.0732 Y-0.7254 F120.00
G01 X53.0359 Y-0.7608 F120.00
G01 X52.9986 Y-0.7928 F120.00
G01 X52.9580 Y-0.8245 F120.00
G01 X52.9178 Y-0.8527 F120.00
G01 X52.8742 Y-0.8802 F120.00
G01 X52.8315 Y-0.9044 F120.00
G01 X52.7876 Y-0.9264 F120.00
G01 X52.7405 Y-0.9473 F120.00
G01 X52.6924 Y-0.9657 F120.00
G01 X52.6458 Y-0.9811 F120.00
G01 X52.5961 Y-0.9947 F120.00
G01 X52.5482 Y-1.0055 F120.00
G01 X52.4998 Y-1.0138 F120.00
G01 X52.4487 Y-1.0202 F120.00
G01 X52.3997 Y-1.0237 F120.00
G01 X52.3489 Y-1.0250 F120.00
G01 X30.3482 Y-1.0235 F120.00
G00 X30.3482 Y-1.0235
G01 F60.00
G01 Z-2.5000
G01 F120.00
G01 X52.3489 Y-1.0250 F120.00
G01 X52.3997 Y-1.0237 F120.00
G01 X52.4487 Y-1.0202 F120.00
G01 X52.4998 Y-1.0138 F120.00
G01 X52.5482 Y-1.0055 F120.00
G01 X52.5961 Y-0.9947 F120.00
G01 X52.6458 Y-0.9811 F120.00
G01 X52.6924 Y-0.9657 F120.00
G01 X52.7405 Y-0.9473 F120.00
G01 X52.7876 Y-0.9264 F120.00
G01 X52.8315 Y-0.9044 F120.00
G01 X52.8742 Y-0.8802 F120.00
G01 X52.9178 Y-0.8527 F120.00
G01 X52.9580 Y-0.8245 F120.00
G01 X52.9986 Y-0.7928 F120.00
G01 X53.0359 Y-0.7608 F120.00
G01 X53.0732 Y-0.7254 F120.00
G01 X53.1071 Y-0.6898 F120.00
G01 X53.1408 Y-0.6509 F120.00
G01 X53.1711 Y-0.6122 F120.00
G01 X53.2008 Y-0.5701 F120.00
G01 X53.2271 Y-0.5286 F120.00
G01 X53.2526 Y-0.4839 F120.00
G01 X53.2747 Y-0.4400 F120.00
G01 X53.2957 Y-0.3930 F120.00
G01 X53.3134 Y-0.3472 F120.00
G01 X53.3296 Y-0.2983 F120.00
G01 X53.3428 Y-0.2510 F120.00
G01 X53.3540 Y-0.2014 F120.00
G01 X53.5133 Y0.5931 F120.00
G01 X53.7280 Y1.3284 F120.00
G01 X54.0054 Y2.0424 F120.00
G01 X54.3433 Y2.7298 F120.00
G01 X54.7622 Y3.4234 F120.00
G01 X54.7758 Y3.4466 F120.00
G01 X54.8002 Y3.4922 F120.00
G01 X54.8215 Y3.5370 F120.00
G01 X54.8408 Y3.5835 F120.00
G01 X54.8580 Y3.6315 F120.00
G01 X54.8726 Y3.6795 F120.00
G01 X54.8847 Y3.7280 F120.00
G01 X54.8946 Y3.7776 F120.00
G01 X54.9022 Y3.8283 F120.00
G01 X54.9071 Y3.8786 F120.00
G01 X54.9095 Y3.9275 F120.00
G01 X54.9098 Y3.9528 F120.00
G01 X54.9216 Y27.5435 F120.00
G00 X54.9216 Y27.5435
G01 F60.00
G01 Z-3.0000
G01 F120.00
G01 X54.9098 Y3.9528 F120.00
G01 X54.9095 Y3.9275 F120.00
G01 X54.9071 Y3.8786 F120.00
G01 X54.9022 Y3.8283 F120.00
G01 X54.8946 Y3.7776 F120.00
G01 X54.8847 Y3.7280 F120.00
G01 X54.8726 Y3.6795 F120.00
G01 X54.8580 Y3.6315 F120.00
G01 X54.8408 Y3.5835 F120.00
G01 X54.8215 Y3.5370 F120.00
G01 X54.8002 Y3.4922 F120.00
G01 X54.7758 Y3.4466 F120.00
G01 X54.7622 Y3.4234 F120.00
G01 X54.3433 Y2.7298 F120.00
G01 X54.0054 Y2.0424 F120.00
G01 X53.7280 Y1.3284 F120.00
G01 X53.5133 Y0.5931 F120.00
G01 X53.3540 Y-0.2014 F120.00
G01 X53.3428 Y-0.2510 F120.00
G01 X53.3296 Y-0.2983 F120.00
G01 X53.3134 Y-0.3472 F120.00
G01 X53.2957 Y-0.3930 F120.00
G01 X53.2747 Y-0.4400 F120.00
G01 X53.2526 Y-0.4839 F120.00
G01 X53.2271 Y-0.5286 F120.00
G01 X53.2008 Y-0.5701 F120.00
G01 X53.1711 Y-0.6122 F120.00
G01 X53.1408 Y-0.6509 F120.00
G01 X53.1071 Y-0.6898 F120.00
G01 X53.0732 Y-0.7254 F120.00
G01 X53.0359 Y-0.7608 F120.00
G01 X52.9986 Y-0.7928 F120.00
G01 X52.9580 Y-0.8245 F120.00
G01 X52.9178 Y-0.8527 F120.00
G01 X52.8742 Y-0.8802 F120.00
G01 X52.8315 Y-0.9044 F120.00
G01 X52.7876 Y-0.9264 F120.00
G01 X52.7405 Y-0.9473 F120.00
G01 X52.6924 Y-0.9657 F120.00
G01 X52.6458 Y-0.9811 F120.00
G01 X52.5961 Y-0.9947 F120.00
G01 X52.5482 Y-1.0055 F120.00
G01 X52.4998 Y-1.0138 F120.00
G01 X52.4487 Y-1.0202 F120.00
G01 X52.3997 Y-1.0237 F120.00
G01 X52.3489 Y-1.0250 F120.00
G01 X30.3482 Y-1.0235 F120.00
G00 X30.3482 Y-1.0235
G01 F60.00
G01 Z-3.5000
G01 F120.00
G01 X52.3489 Y-1.0250 F120.00
G01 X52.3997 Y-1.0237 F120.00
G01 X52.4487 Y-1.0202 F120.00
G01 X52.4998 Y-1.0138 F120.00
G01 X52.5482 Y-1.0055 F120.00
G01 X52.5961 Y-0.9947 F120.00
G01 X52.6458 Y-0.9811 F120.00
G01 X52.6924 Y-0.9657 F120.00
G01 X52.7405 Y-0.9473 F120.00
G01 X52.7876 Y-0.9264 F120.00
G01 X52.8315 Y-0.9044 F120.00
G01 X52.8742 Y-0.8802 F120.00
G01 X52.9178 Y-0.8527 F120.00
G01 X52.9580 Y-0.8245 F120.00
G01 X52.9986 Y-0.7928 F120.00
G01 X53.0359 Y-0.7608 F120.00
G01 X53.0732 Y-0.7254 F120.00
G01 X53.1071 Y-0.6898 F120.00
G01 X53.1408 Y-0.6509 F120.00
G01 X53.1711 Y-0.6122 F120.00
G01 X53.2008 Y-0.5701 F120.00
G01 X53.2271 Y-0.5286 F120.00
G01 X53.2526 Y-0.4839 F120.00
G01 X53.2747 Y-0.4400 F120.00
G01 X53.2957 Y-0.3930 F120.00
G01 X53.3134 Y-0.3472 F120.00
G01 X53.3296 Y-0.2983 F120.00
G01 X53.3428 Y-0.2510 F120.00
G01 X53.3540 Y-0.2014 F120.00
G01 X53.5133 Y0.5931 F120.00
G01 X53.7280 Y1.3284 F120.00
G01 X54.0054 Y2.0424 F120.00
G01 X54.3433 Y2.7298 F120.00
G01 X54.7622 Y3.4234 F120.00
G01 X54.7758 Y3.4466 F120.00
G01 X54.8002 Y3.4922 F120.00
G01 X54.8215 Y3.5370 F120.00
G01 X54.8408 Y3.5835 F120.00
G01 X54.8580 Y3.6315 F120.00
G01 X54.8726 Y3.6795 F120.00
G01 X54.8847 Y3.7280 F120.00
G01 X54.8946 Y3.7776 F120.00
G01 X54.9022 Y3.8283 F120.00
G01 X54.9071 Y3.8786 F120.00
G01 X54.9095 Y3.9275 F120.00
G01 X54.9098 Y3.9528 F120.00
G01 X54.9216 Y27.5435 F120.00
G00 X54.9216 Y27.5435
G01 F60.00
G01 Z-4.0000
G01 F120.00
G01 X54.9098 Y3.9528 F120.00
G01 X54.9095 Y3.9275 F120.00
G01 X54.9071 Y3.8786 F120.00
G01 X54.9022 Y3.8283 F120.00
G01 X54.8946 Y3.7776 F120.00
G01 X54.8847 Y3.7280 F120.00
G01 X54.8726 Y3.6795 F120.00
G01 X54.8580 Y3.6315 F120.00
G01 X54.8408 Y3.5835 F120.00
G01 X54.8215 Y3.5370 F120.00
G01 X54.8002 Y3.4922 F120.00
G01 X54.7758 Y3.4466 F120.00
G01 X54.7622 Y3.4234 F120.00
G01 X54.3433 Y2.7298 F120.00
G01 X54.0054 Y2.0424 F120.00
G01 X53.7280 Y1.3284 F120.00
G01 X53.5133 Y0.5931 F120.00
G01 X53.3540 Y-0.2014 F120.00
G01 X53.3428 Y-0.2510 F120.00
G01 X53.3296 Y-0.2983 F120.00
G01 X53.3134 Y-0.3472 F120.00
G01 X53.2957 Y-0.3930 F120.00
G01 X53.2747 Y-0.4400 F120.00
G01 X53.2526 Y-0.4839 F120.00
G01 X53.2271 Y-0.5286 F120.00
G01 X53.2008 Y-0.5701 F120.00
G01 X53.1711 Y-0.6122 F120.00
G01 X53.1408 Y-0.6509 F120.00
G01 X53.1071 Y-0.6898 F120.00
G01 X53.0732 Y-0.7254 F120.00
G01 X53.0359 Y-0.7608 F120.00
G01 X52.9986 Y-0.7928 F120.00
G01 X52.9580 Y-0.8245 F120.00
G01 X52.9178 Y-0.8527 F120.00
G01 X52.8742 Y-0.8802 F120.00
G01 X52.8315 Y-0.9044 F120.00
G01 X52.7876 Y-0.9264 F120.00
G01 X52.7405 Y-0.9473 F120.00
G01 X52.6924 Y-0.9657 F120.00
G01 X52.6458 Y-0.9811 F120.00
G01 X52.5961 Y-0.9947 F120.00
G01 X52.5482 Y-1.0055 F120.00
G01 X52.4998 Y-1.0138 F120.00
G01 X52.4487 Y-1.0202 F120.00
G01 X52.3997 Y-1.0237 F120.00
G01 X52.3489 Y-1.0250 F120.00
G01 X30.3482 Y-1.0235 F120.00
G00 Z2.0000
G00 X54.9245 Y33.5435
G01 F60.00
G01 Z-0.5000
G01 F120.00
G01 X54.9342 Y53.3523 F120.00
G00 X54.9342 Y53.3523
G01 F60.00
G01 Z-1.0000
G01 F120.00
G01 X54.9245 Y33.5435 F120.00
G00 X54.9245 Y33.5435
G01 F60.00
G01 Z-1.5000
G01 F120.00
G01 X54.9342 Y53.3523 F120.00
G00 X54.9342 Y53.3523
G01 F60.00
G01 Z-2.0000
G01 F120.00
G01 X54.9245 Y33.5435 F120.00
G00 X54.9245 Y33.5435
G01 F60.00
G01 Z-2.5000
G01 F120.00
G01 X54.9342 Y53.3523 F120.00
G00 X54.9342 Y53.3523
G01 F60.00
G01 Z-3.0000
G01 F120.00
G01 X54.9245 Y33.5435 F120.00
G00 X54.9245 Y33.5435
G01 F60.00
G01 Z-3.5000
G01 F120.00
G01 X54.9342 Y53.3523 F120.00
G00 X54.9342 Y53.3523
G01 F60.00
G01 Z-4.0000
G01 F120.00
G01 X54.9245 Y33.5435 F120.00
G00 Z2.0000
G00 X54.9342 Y53.3523
G01 F60.00
G01 Z-0.5000
G01 F120.00
G01 X54.9337 Y53.3827 F120.00
G01 X54.9332 Y53.3944 F120.00
G01 X54.9326 Y53.3944 F120.00
G01 X54.9316 Y53.4207 F120.00
G01 X54.9265 Y53.4720 F120.00
G01 X54.9193 Y53.5206 F120.00
G01 X54.9095 Y53.5699 F120.00
G01 X54.8969 Y53.6198 F120.00
G01 X54.8822 Y53.6680 F120.00
G01 X54.8656 Y53.7142 F120.00
G01 X54.8464 Y53.7606 F120.00
G01 X54.8243 Y53.8072 F120.00
G01 X54.8012 Y53.8505 F120.00
G01 X54.7753 Y53.8937 F120.00
G01 X54.7466 Y53.9365 F120.00
G01 X54.7173 Y53.9759 F120.00
G01 X54.6855 Y54.0148 F120.00
G01 X54.6508 Y54.0529 F120.00
G01 X54.6161 Y54.0876 F120.00
G01 X54.5788 Y54.1214 F120.00
G01 X54.5389 Y54.1541 F120.00
G01 X54.4985 Y54.1840 F120.00
G01 X54.4577 Y54.2112 F120.00
G01 X54.4135 Y54.2377 F120.00
G01 X54.3690 Y54.2614 F120.00
G01 X54.3235 Y54.2828 F120.00
G01 X54.2770 Y54.3020 F120.00
G01 X54.2297 Y54.3189 F120.00
G01 X54.1827 Y54.3331 F120.00
G01 X54.1327 Y54.3456 F120.00
G01 X54.0845 Y54.3551 F120.00
G01 X54.0347 Y54.3625 F120.00
G01 X53.9847 Y54.3674 F120.00
G01 X53.9577 Y54.3691 F120.00
G01 X53.1567 Y54.4069 F120.00
G01 X52.4107 Y54.5131 F120.00
G01 X51.6781 Y54.6892 F120.00
G01 X50.9652 Y54.9335 F120.00
G01 X50.2786 Y55.2438 F120.00
G01 X49.6242 Y55.6175 F120.00
G01 X49.0080 Y56.0511 F120.00
G01 X48.4353 Y56.5408 F120.00
G01 X47.9113 Y57.0823 F120.00
G01 X47.4407 Y57.6708 F120.00
G01 X47.0275 Y58.3009 F120.00
G01 X46.6756 Y58.9672 F120.00
G01 X46.3880 Y59.6637 F120.00
G01 X46.1672 Y60.3841 F120.00
G01 X46.0056 Y61.1696 F120.00
G01 X45.9957 Y61.2128 F120.00
G01 X45.9819 Y61.2622 F120.00
G01 X45.9664 Y61.3090 F120.00
G01 X45.9479 Y61.3569 F120.00
G01 X45.9278 Y61.4019 F120.00
G01 X45.9047 Y61.4477 F120.00
G01 X45.8803 Y61.4906 F120.00
G01 X45.8528 Y61.5339 F120.00
G01 X45.8244 Y61.5742 F120.00
G01 X45.7928 Y61.6146 F120.00
G01 X45.7605 Y61.6519 F120.00
G01 X45.7251 Y61.6890 F120.00
G01 X45.6893 Y61.7230 F120.00
G01 X45.6504 Y61.7564 F120.00
G01 X45.6097 Y61.7880 F120.00
G01 X45.5693 Y61.8163 F120.00
G01 X45.5259 Y61.8437 F120.00
G01 X45.4830 Y61.8679 F120.00
G01 X45.4371 Y61.8908 F120.00
G01 X45.3919 Y61.9107 F120.00
G01 X45.3440 Y61.9290 F120.00
G01 X45.2974 Y61.9443 F120.00
G01 X45.2498 Y61.9574 F120.00
G01 X45.1995 Y61.9686 F120.00
G01 X45.1490 Y61.9773 F120.00
G01 X45.1002 Y61.9832 F120.00
G01 X45.0511 Y61.9867 F120.00
G01 X45.0045 Y61.9879 F120.00
G01 X30.3482 Y62.0291 F120.00
G00 X30.3482 Y62.0291
G01 F60.00
G01 Z-1.0000
G01 F120.00
G01 X45.0045 Y61.9879 F120.00
G01 X45.0511 Y61.9867 F120.00
G01 X45.1002 Y61.9832 F120.00
G01 X45.1490 Y61.9773 F120.00
G01 X45.1995 Y61.9686 F120.00
G01 X45.2498 Y61.9574 F120.00
G01 X45.2974 Y61.9443 F120.00
G01 X45.3440 Y61.9290 F120.00
G01 X45.3919 Y61.9107 F120.00
G01 X45.4371 Y61.8908 F120.00
G01 X45.4830 Y61.8679 F120.00
G01 X45.5259 Y61.8437 F120.00
G01 X45.5693 Y61.8163 F120.00
G01 X45.6097 Y61.7880 F120.00
G01 X45.6504 Y61.7564 F120.00
G01 X45.6893 Y61.7230 F120.00
G01 X45.7251 Y61.6890 F120.00
G01 X45.7605 Y61.6519 F120.00
G01 X45.7928 Y61.6146 F120.00
G01 X45.8244 Y61.5742 F120.00
G01 X45.8528 Y61.5339 F120.00
G01 X45.8803 Y61.4906 F120.00
G01 X45.9047 Y61.4477 F120.00
G01 X45.9278 Y61.4019 F120.00
G01 X45.9479 Y61.3569 F120.00
G01 X45.9664 Y61.3090 F120.00
G01 X45.9819 Y61.2622 F120.00
G01 X45.9957 Y61.2128 F120.00
G01 X46.0056 Y61.1696 F120.00
G01 X46.1672 Y60.3841 F120.00
G01 X46.3880 Y59.6637 F120.00
G01 X46.6756 Y58.9672 F120.00
G01 X47.0275 Y58.3009 F120.00
G01 X47.4407 Y57.6708 F120.00
G01 X47.9113 Y57.0823 F120.00
G01 X48.4353 Y56.5408 F120.00
G01 X49.0080 Y56.0511 F120.00
G01 X49.6242 Y55.6175 F120.00
G01 X50.2786 Y55.2438 F120.00
G01 X50.9652 Y54.9335 F120.00
G01 X51.6781 Y54.6892 F120.00
G01 X52.4107 Y54.5131 F120.00
G01 X53.1567 Y54.4069 F120.00
G01 X53.9577 Y54.3691 F120.00
G01 X53.9847 Y54.3674 F120.00
G01 X54.0347 Y54.3625 F120.00
G01 X54.0845 Y54.3551 F120.00
G01 X54.1327 Y54.3456 F120.00
G01 X54.1827 Y54.3331 F120.00
G01 X54.2297 Y54.3189 F120.00
G01 X54.2770 Y54.3020 F120.00
G01 X54.3235 Y54.2828 F120.00
G01 X54.3690 Y54.2614 F120.00
G01 X54.4135 Y54.2377 F120.00
G01 X54.4577 Y54.2112 F120.00
G01 X54.4985 Y54.1840 F120.00
G01 X54.5389 Y54.1541 F120.00
G01 X54.5788 Y54.1214 F120.00
G01 X54.6161 Y54.0876 F120.00
G01 X54.6508 Y54.0529 F120.00
G01 X54.6855 Y54.0148 F120.00
G01 X54.7173 Y53.9759 F120.00
G01 X54.7466 Y53.9365 F120.00
G01 X54.7753 Y53.8937 F120.00
G01 X54.8012 Y53.8505 F120.00
G01 X54.8243 Y53.8072 F120.00
G01 X54.8464 Y53.7606 F120.00
G01 X54.8656 Y53.7142 F120.00
G01 X54.8822 Y53.6680 F120.00
G01 X54.8969 Y53.6198 F120.00
G01 X54.9095 Y53.5699 F120.00
G01 X54.9193 Y53.5206 F120.00
G01 X54.9265 Y53.4720 F120.00
G01 X54.9316 Y53.4207 F120.00
G01 X54.9326 Y53.3944 F120.00
G01 X54.9332 Y53.3944 F120.00
G01 X54.9337 Y53.3827 F120.00
G01 X54.9342 Y53.3523 F120.00
G00 X54.9342 Y53.3523
G01 F60.00
G01 Z-1.5000
G01 F120.00
G01 X54.9337 Y53.3827 F120.00
G01 X54.9332 Y53.3944 F120.00
G01 X54.9326 Y53.3944 F120.00
G01 X54.9316 Y53.4207 F120.00
G01 X54.9265 Y53.4720 F120.00
G01 X54.9193 Y53.5206 F120.00
G01 X54.9095 Y53.5699 F120.00
G01 X54.8969 Y53.6198 F120.00
G01 X54.8822 Y53.6680 F120.00
G01 X54.8656 Y53.7142 F120.00
G01 X54.8464 Y53.7606 F120.00
G01 X54.8243 Y53.8072 F120.00
G01 X54.8012 Y53.8505 F120.00
G01 X54.7753 Y53.8937 F120.00
G01 X54.7466 Y53.9365 F120.00
G01 X54.7173 Y53.9759 F120.00
G01 X54.6855 Y54.0148 F120.00
G01 X54.6508 Y54.0529 F120.00
G01 X54.6161 Y54.0876 F120.00
G01 X54.5788 Y54.1214 F120.00
G01 X54.5389 Y54.1541 F120.00
G01 X54.4985 Y54.1840 F120.00
G01 X54.4577 Y54.2112 F120.00
G01 X54.4135 Y54.2377 F120.00
G01 X54.3690 Y54.2614 F120.00
G01 X54.3235 Y54.2828 F120.00
G01 X54.2770 Y54.3020 F120.00
G01 X54.2297 Y54.3189 F120.00
G01 X54.1827 Y54.3331 F120.00
G01 X54.1327 Y54.3456 F120.00
G01 X54.0845 Y54.3551 F120.00
G01 X54.0347 Y54.3625 F120.00
G01 X53.9847 Y54.3674 F120.00
G01 X53.9577 Y54.3691 F120.00
G01 X53.1567 Y54.4069 F120.00
G01 X52.4107 Y54.5131 F120.00
G01 X51.6781 Y54.6892 F120.00
G01 X50.9652 Y54.9335 F120.00
G01 X50.2786 Y55.2438 F120.00
G01 X49.6242 Y55.6175 F120.00
G01 X49.0080 Y56.0511 F120.00
G01 X48.4353 Y56.5408 F120.00
G01 X47.9113 Y57.0823 F120.00
G01 X47.4407 Y57.6708 F120.00
G01 X47.0275 Y58.3009 F120.00
G01 X46.6756 Y58.9672 F120.00
G01 X46.3880 Y59.6637 F120.00
G01 X46.1672 Y60.3841 F120.00
G01 X46.0056 Y61.1696 F120.00
G01 X45.9957 Y61.2128 F120.00
G01 X45.9819 Y61.2622 F120.00
G01 X45.9664 Y61.3090 F120.00
G01 X45.9479 Y61.3569 F120.00
G01 X45.9278 Y61.4019 F120.00
G01 X45.9047 Y61.4477 F120.00
G01 X45.8803 Y61.4906 F120.00
G01 X45.8528 Y61.5339 F120.00
G01 X45.8244 Y61.5742 F120.00
G01 X45.7928 Y61.6146 F120.00
G01 X45.7605 Y61.6519 F120.00
G01 X45.7251 Y61.6890 F120.00
G01 X45.6893 Y61.7230 F120.00
G01 X45.6504 Y61.7564 F120.00
G01 X45.6097 Y61.7880 F120.00
G01 X45.5693 Y61.8163 F120.00
G01 X45.5259 Y61.8437 F120.00
G01 X45.4830 Y61.8679 F120.00
G01 X45.4371 Y61.8908 F120.00
G01 X45.3919 Y61.9107 F120.00
G01 X45.3440 Y61.9290 F120.00
G01 X45.2974 Y61.9443 F120.00
G01 X45.2498 Y61.9574 F120.00
G01 X45.1995 Y61.9686 F120.00
G01 X45.1490 Y61.9773 F120.00
G01 X45.1002 Y61.9832 F120.00
G01 X45.0511 Y61.9867 F120.00
G01 X45.0045 Y61.9879 F120.00
G01 X30.3482 Y62.0291 F120.00
G00 X30.3482 Y62.0291
G01 F60.00
G01 Z-2.0000
G01 F120.00
G01 X45.0045 Y61.9879 F120.00
G01 X45.0511 Y61.9867 F120.00
G01 X45.1002 Y61.9832 F120.00
G01 X45.1490 Y61.9773 F120.00
G01 X45.1995 Y61.9686 F120.00
G01 X45.2498 Y61.9574 F120.00
G01 X45.2974 Y61.9443 F120.00
G01 X45.3440 Y61.9290 F120.00
G01 X45.3919 Y61.9107 F120.00
G01 X45.4371 Y61.8908 F120.00
G01 X45.4830 Y61.8679 F120.00
G01 X45.5259 Y61.8437 F120.00
G01 X45.5693 Y61.8163 F120.00
G01 X45.6097 Y61.7880 F120.00
G01 X45.6504 Y61.7564 F120.00
G01 X45.6893 Y61.7230 F120.00
G01 X45.7251 Y61.6890 F120.00
G01 X45.7605 Y61.6519 F120.00
G01 X45.7928 Y61.6146 F120.00
G01 X45.8244 Y61.5742 F120.00
G01 X45.8528 Y61.5339 F120.00
G01 X45.8803 Y61.4906 F120.00
G01 X45.9047 Y61.4477 F120.00
G01 X45.9278 Y61.4019 F120.00
G01 X45.9479 Y61.3569 F120.00
G01 X45.9664 Y61.3090 F120.00
G01 X45.9819 Y61.2622 F120.00
G01 X45.9957 Y61.2128 F120.00
G01 X46.0056 Y61.1696 F120.00
G01 X46.1672 Y60.3841 F120.00
G01 X46.3880 Y59.6637 F120.00
G01 X46.6756 Y58.9672 F120.00
G01 X47.0275 Y58.3009 F120.00
G01 X47.4407 Y57.6708 F120.00
G01 X47.9113 Y57.0823 F120.00
G01 X48.4353 Y56.5408 F120.00
G01 X49.0080 Y56.0511 F120.00
G01 X49.6242 Y55.6175 F120.00
G01 X50.2786 Y55.2438 F120.00
G01 X50.9652 Y54.9335 F120.00
G01 X51.6781 Y54.6892 F120.00
G01 X52.4107 Y54.5131 F120.00
G01 X53.1567 Y54.4069 F120.00
G01 X53.9577 Y54.3691 F120.00
G01 X53.9847 Y54.3674 F120.00
G01 X54.0347 Y54.3625 F120.00
G01 X54.0845 Y54.3551 F120.00
G01 X54.1327 Y54.3456 F120.00
G01 X54.1827 Y54.3331 F120.00
G01 X54.2297 Y54.3189 F120.00
G01 X54.2770 Y54.3020 F120.00
G01 X54.3235 Y54.2828 F120.00
G01 X54.3690 Y54.2614 F120.00
G01 X54.4135 Y54.2377 F120.00
G01 X54.4577 Y54.2112 F120.00
G01 X54.4985 Y54.1840 F120.00
G01 X54.5389 Y54.1541 F120.00
G01 X54.5788 Y54.1214 F120.00
G01 X54.6161 Y54.0876 F120.00
G01 X54.6508 Y54.0529 F120.00
G01 X54.6855 Y54.0148 F120.00
G01 X54.7173 Y53.9759 F120.00
G01 X54.7466 Y53.9365 F120.00
G01 X54.7753 Y53.8937 F120.00
G01 X54.8012 Y53.8505 F120.00
G01 X54.8243 Y53.8072 F120.00
G01 X54.8464 Y53.7606 F120.00
G01 X54.8656 Y53.7142 F120.00
G01 X54.8822 Y53.6680 F120.00
G01 X54.8969 Y53.6198 F120.00
G01 X54.9095 Y53.5699 F120.00
G01 X54.9193 Y53.5206 F120.00
G01 X54.9265 Y53.4720 F120.00
G01 X54.9316 Y53.4207 F120.00
G01 X54.9326 Y53.3944 F120.00
G01 X54.9332 Y53.3944 F120.00
G01 X54.9337 Y53.3827 F120.00
G01 X54.9342 Y53.3523 F120.00
G00 X54.9342 Y53.3523
G01 F60.00
G01 Z-2.5000
G01 F120.00
G01 X54.9337 Y53.3827 F120.00
G01 X54.9332 Y53.3944 F120.00
G01 X54.9326 Y53.3944 F120.00
G01 X54.9316 Y53.4207 F120.00
G01 X54.9265 Y53.4720 F120.00
G01 X54.9193 Y53.5206 F120.00
G01 X54.9095 Y53.5699 F120.00
G01 X54.8969 Y53.6198 F120.00
G01 X54.8822 Y53.6680 F120.00
G01 X54.8656 Y53.7142 F120.00
G01 X54.8464 Y53.7606 F120.00
G01 X54.8243 Y53.8072 F120.00
G01 X54.8012 Y53.8505 F120.00
G01 X54.7753 Y53.8937 F120.00
G01 X54.7466 Y53.9365 F120.00
G01 X54.7173 Y53.9759 F120.00
G01 X54.6855 Y54.0148 F120.00
G01 X54.6508 Y54.0529 F120.00
G01 X54.6161 Y54.0876 F120.00
G01 X54.5788 Y54.1214 F120.00
G01 X54.5389 Y54.1541 F120.00
G01 X54.4985 Y54.1840 F120.00
G01 X54.4577 Y54.2112 F120.00
G01 X54.4135 Y54.2377 F120.00
G01 X54.3690 Y54.2614 F120.00
G01 X54.3235 Y54.2828 F120.00
G01 X54.2770 Y54.3020 F120.00
G01 X54.2297 Y54.3189 F120.00
G01 X54.1827 Y54.3331 F120.00
G01 X54.1327 Y54.3456 F120.00
G01 X54.0845 Y54.3551 F120.00
G01 X54.0347 Y54.3625 F120.00
G01 X53.9847 Y54.3674 F120.00
G01 X53.9577 Y54.3691 F120.00
G01 X53.1567 Y54.4069 F120.00
G01 X52.4107 Y54.5131 F120.00
G01 X51.6781 Y54.6892 F120.00
G01 X50.9652 Y54.9335 F120.00
G01 X50.2786 Y55.2438 F120.00
G01 X49.6242 Y55.6175 F120.00
G01 X49.0080 Y56.0511 F120.00
G01 X48.4353 Y56.5408 F120.00
G01 X47.9113 Y57.0823 F120.00
G01 X47.4407 Y57.6708 F120.00
G01 X47.0275 Y58.3009 F120.00
G01 X46.6756 Y58.9672 F120.00
G01 X46.3880 Y59.6637 F120.00
G01 X46.1672 Y60.3841 F120.00
G01 X46.0056 Y61.1696 F120.00
G01 X45.9957 Y61.2128 F120.00
G01 X45.9819 Y61.2622 F120.00
G01 X45.9664 Y61.3090 F120.00
G01 X45.9479 Y61.3569 F120.00
G01 X45.9278 Y61.4019 F120.00
G01 X45.9047 Y61.4477 F120.00
G01 X45.8803 Y61.4906 F120.00
G01 X45.8528 Y61.5339 F120.00
G01 X45.8244 Y61.5742 F120.00
G01 X45.7928 Y61.6146 F120.00
G01 X45.7605 Y61.6519 F120.00
G01 X45.7251 Y61.6890 F120.00
G01 X45.6893 Y61.7230 F120.00
G01 X45.6504 Y61.7564 F120.00
G01 X45.6097 Y61.7880 F120.00
G01 X45.5693 Y61.8163 F120.00
G01 X45.5259 Y61.8437 F120.00
G01 X45.4830 Y61.8679 F120.00
G01 X45.4371 Y61.8908 F120.00
G01 X45.3919 Y61.9107 F120.00
G01 X45.3440 Y61.9290 F120.00
G01 X45.2974 Y61.9443 F120.00
G01 X45.2498 Y61.9574 F120.00
G01 X45.1995 Y61.9686 F120.00
G01 X45.1490 Y61.9773 F120.00
G01 X45.1002 Y61.9832 F120.00
G01 X45.0511 Y61.9867 F120.00
G01 X45.0045 Y61.9879 F120.00
G01 X30.3482 Y62.0291 F120.00
G00 X30.3482 Y62.0291
G01 F60.00
G01 Z-3.0000
G01 F120.00
G01 X45.0045 Y61.9879 F120.00
G01 X45.0511 Y61.9867 F120.00
G01 X45.1002 Y61.9832 F120.00
G01 X45.1490 Y61.9773 F120.00
G01 X45.1995 Y61.9686 F120.00
G01 X45.2498 Y61.9574 F120.00
G01 X45.2974 Y61.9443 F120.00
G01 X45.3440 Y61.9290 F120.00
G01 X45.3919 Y61.9107 F120.00
G01 X45.4371 Y61.8908 F120.00
G01 X45.4830 Y61.8679 F120.00
G01 X45.5259 Y61.8437 F120.00
G01 X45.5693 Y61.8163 F120.00
G01 X45.6097 Y61.7880 F120.00
G01 X45.6504 Y61.7564 F120.00
G01 X45.6893 Y61.7230 F120.00
G01 X45.7251 Y61.6890 F120.00
G01 X45.7605 Y61.6519 F120.00
G01 X45.7928 Y61.6146 F120.00
G01 X45.8244 Y61.5742 F120.00
G01 X45.8528 Y61.5339 F120.00
G01 X45.8803 Y61.4906 F120.00
G01 X45.9047 Y61.4477 F120.00
G01 X45.9278 Y61.4019 F120.00
G01 X45.9479 Y61.3569 F120.00
G01 X45.9664 Y61.3090 F120.00
G01 X45.9819 Y61.2622 F120.00
G01 X45.9957 Y61.2128 F120.00
G01 X46.0056 Y61.1696 F120.00
G01 X46.1672 Y60.3841 F120.00
G01 X46.3880 Y59.6637 F120.00
G01 X46.6756 Y58.9672 F120.00
G01 X47.0275 Y58.3009 F120.00
G01 X47.4407 Y57.6708 F120.00
G01 X47.9113 Y57.0823 F120.00
G01 X48.4353 Y56.5408 F120.00
G01 X49.0080 Y56.0511 F120.00
G01 X49.6242 Y55.6175 F120.00
G01 X50.2786 Y55.2438 F120.00
G01 X50.9652 Y54.9335 F120.00
G01 X51.6781 Y54.6892 F120.00
G01 X52.4107 Y54.5131 F120.00
G01 X53.1567 Y54.4069 F120.00
G01 X53.9577 Y54.3691 F120.00
G01 X53.9847 Y54.3674 F120.00
G01 X54.0347 Y54.3625 F120.00
G01 X54.0845 Y54.3551 F120.00
G01 X54.1327 Y54.3456 F120.00
G01 X54.1827 Y54.3331 F120.00
G01 X54.2297 Y54.3189 F120.00
G01 X54.2770 Y54.3020 F120.00
G01 X54.3235 Y54.2828 F120.00
G01 X54.3690 Y54.2614 F120.00
G01 X54.4135 Y54.2377 F120.00
G01 X54.4577 Y54.2112 F120.00
G01 X54.4985 Y54.1840 F120.00
G01 X54.5389 Y54.1541 F120.00
G01 X54.5788 Y54.1214 F120.00
G01 X54.6161 Y54.0876 F120.00
G01 X54.6508 Y54.0529 F120.00
G01 X54.6855 Y54.0148 F120.00
G01 X54.7173 Y53.9759 F120.00
G01 X54.7466 Y53.9365 F120.00
G01 X54.7753 Y53.8937 F120.00
G01 X54.8012 Y53.8505 F120.00
G01 X54.8243 Y53.8072 F120.00
G01 X54.8464 Y53.7606 F120.00
G01 X54.8656 Y53.7142 F120.00
G01 X54.8822 Y53.6680 F120.00
G01 X54.8969 Y53.6198 F120.00
G01 X54.9095 Y53.5699 F120.00
G01 X54.9193 Y53.5206 F120.00
G01 X54.9265 Y53.4720 F120.00
G01 X54.9316 Y53.4207 F120.00
G01 X54.9326 Y53.3944 F120.00
G01 X54.9332 Y53.3944 F120.00
G01 X54.9337 Y53.3827 F120.00
G01 X54.9342 Y53.3523 F120.00
G00 X54.9342 Y53.3523
G01 F60.00
G01 Z-3.5000
G01 F120.00
G01 X54.9337 Y53.3827 F120.00
G01 X54.9332 Y53.3944 F120.00
G01 X54.9326 Y53.3944 F120.00
G01 X54.9316 Y53.4207 F120.00
G01 X54.9265 Y53.4720 F120.00
G01 X54.9193 Y53.5206 F120.00
G01 X54.9095 Y53.5699 F120.00
G01 X54.8969 Y53.6198 F120.00
G01 X54.8822 Y53.6680 F120.00
G01 X54.8656 Y53.7142 F120.00
G01 X54.8464 Y53.7606 F120.00
G01 X54.8243 Y53.8072 F120.00
G01 X54.8012 Y53.8505 F120.00
G01 X54.7753 Y53.8937 F120.00
G01 X54.7466 Y53.9365 F120.00
G01 X54.7173 Y53.9759 F120.00
G01 X54.6855 Y54.0148 F120.00
G01 X54.6508 Y54.0529 F120.00
G01 X54.6161 Y54.0876 F120.00
G01 X54.5788 Y54.1214 F120.00
G01 X54.5389 Y54.1541 F120.00
G01 X54.4985 Y54.1840 F120.00
G01 X54.4577 Y54.2112 F120.00
G01 X54.4135 Y54.2377 F120.00
G01 X54.3690 Y54.2614 F120.00
G01 X54.3235 Y54.2828 F120.00
G01 X54.2770 Y54.3020 F120.00
G01 X54.2297 Y54.3189 F120.00
G01 X54.1827 Y54.3331 F120.00
G01 X54.1327 Y54.3456 F120.00
G01 X54.0845 Y54.3551 F120.00
G01 X54.0347 Y54.3625 F120.00
G01 X53.9847 Y54.3674 F120.00
G01 X53.9577 Y54.3691 F120.00
G01 X53.1567 Y54.4069 F120.00
G01 X52.4107 Y54.5131 F120.00
G01 X51.6781 Y54.6892 F120.00
G01 X50.9652 Y54.9335 F120.00
G01 X50.2786 Y55.2438 F120.00
G01 X49.6242 Y55.6175 F120.00
G01 X49.0080 Y56.0511 F120.00
G01 X48.4353 Y56.5408 F120.00
G01 X47.9113 Y57.0823 F120.00
G01 X47.4407 Y57.6708 F120.00
G01 X47.0275 Y58.3009 F120.00
G01 X46.6756 Y58.9672 F120.00
G01 X46.3880 Y59.6637 F120.00
G01 X46.1672 Y60.3841 F120.00
G01 X46.0056 Y61.1696 F120.00
G01 X45.9957 Y61.2128 F120.00
G01 X45.9819 Y61.2622 F120.00
G01 X45.9664 Y61.3090 F120.00
G01 X45.9479 Y61.3569 F120.00
G01 X45.9278 Y61.4019 F120.00
G01 X45.9047 Y61.4477 F120.00
G01 X45.8803 Y61.4906 F120.00
G01 X45.8528 Y61.5339 F120.00
G01 X45.8244 Y61.5742 F120.00
G01 X45.7928 Y61.6146 F120.00
G01 X45.7605 Y61.6519 F120.00
G01 X45.7251 Y61.6890 F120.00
G01 X45.6893 Y61.7230 F120.00
G01 X45.6504 Y61.7564 F120.00
G01 X45.6097 Y61.7880 F120.00
G01 X45.5693 Y61.8163 F120.00
G01 X45.5259 Y61.8437 F120.00
G01 X45.4830 Y61.8679 F120.00
G01 X45.4371 Y61.8908 F120.00
G01 X45.3919 Y61.9107 F120.00
G01 X45.3440 Y61.9290 F120.00
G01 X45.2974 Y61.9443 F120.00
G01 X45.2498 Y61.9574 F120.00
G01 X45.1995 Y61.9686 F120.00
G01 X45.1490 Y61.9773 F120.00
G01 X45.1002 Y61.9832 F120.00
G01 X45.0511 Y61.9867 F120.00
G01 X45.0045 Y61.9879 F120.00
G01 X30.3482 Y62.0291 F120.00
G00 X30.3482 Y62.0291
G01 F60.00
G01 Z-4.0000
G01 F120.00
G01 X45.0045 Y61.9879 F120.00
G01 X45.0511 Y61.9867 F120.00
G01 X45.1002 Y61.9832 F120.00
G01 X45.1490 Y61.9773 F120.00
G01 X45.1995 Y61.9686 F120.00
G01 X45.2498 Y61.9574 F120.00
G01 X45.2974 Y61.9443 F120.00
G01 X45.3440 Y61.9290 F120.00
G01 X45.3919 Y61.9107 F120.00
G01 X45.4371 Y61.8908 F120.00
G01 X45.4830 Y61.8679 F120.00
G01 X45.5259 Y61.8437 F120.00
G01 X45.5693 Y61.8163 F120.00
G01 X45.6097 Y61.7880 F120.00
G01 X45.6504 Y61.7564 F120.00
G01 X45.6893 Y61.7230 F120.00
G01 X45.7251 Y61.6890 F120.00
G01 X45.7605 Y61.6519 F120.00
G01 X45.7928 Y61.6146 F120.00
G01 X45.8244 Y61.5742 F120.00
G01 X45.8528 Y61.5339 F120.00
G01 X45.8803 Y61.4906 F120.00
G01 X45.9047 Y61.4477 F120.00
G01 X45.9278 Y61.4019 F120.00
G01 X45.9479 Y61.3569 F120.00
G01 X45.9664 Y61.3090 F120.00
G01 X45.9819 Y61.2622 F120.00
G01 X45.9957 Y61.2128 F120.00
G01 X46.0056 Y61.1696 F120.00
G01 X46.1672 Y60.3841 F120.00
G01 X46.3880 Y59.6637 F120.00
G01 X46.6756 Y58.9672 F120.00
G01 X47.0275 Y58.3009 F120.00
G01 X47.4407 Y57.6708 F120.00
G01 X47.9113 Y57.0823 F120.00
G01 X48.4353 Y56.5408 F120.00
G01 X49.0080 Y56.0511 F120.00
G01 X49.6242 Y55.6175 F120.00
G01 X50.2786 Y55.2438 F120.00
G01 X50.9652 Y54.9335 F120.00
G01 X51.6781 Y54.6892 F120.00
G01 X52.4107 Y54.5131 F120.00
G01 X53.1567 Y54.4069 F120.00
G01 X53.9577 Y54.3691 F120.00
G01 X53.9847 Y54.3674 F120.00
G01 X54.0347 Y54.3625 F120.00
G01 X54.0845 Y54.3551 F120.00
G01 X54.1327 Y54.3456 F120.00
G01 X54.1827 Y54.3331 F120.00
G01 X54.2297 Y54.3189 F120.00
G01 X54.2770 Y54.3020 F120.00
G01 X54.3235 Y54.2828 F120.00
G01 X54.3690 Y54.2614 F120.00
G01 X54.4135 Y54.2377 F120.00
G01 X54.4577 Y54.2112 F120.00
G01 X54.4985 Y54.1840 F120.00
G01 X54.5389 Y54.1541 F120.00
G01 X54.5788 Y54.1214 F120.00
G01 X54.6161 Y54.0876 F120.00
G01 X54.6508 Y54.0529 F120.00
G01 X54.6855 Y54.0148 F120.00
G01 X54.7173 Y53.9759 F120.00
G01 X54.7466 Y53.9365 F120.00
G01 X54.7753 Y53.8937 F120.00
G01 X54.8012 Y53.8505 F120.00
G01 X54.8243 Y53.8072 F120.00
G01 X54.8464 Y53.7606 F120.00
G01 X54.8656 Y53.7142 F120.00
G01 X54.8822 Y53.6680 F120.00
G01 X54.8969 Y53.6198 F120.00
G01 X54.9095 Y53.5699 F120.00
G01 X54.9193 Y53.5206 F120.00
G01 X54.9265 Y53.4720 F120.00
G01 X54.9316 Y53.4207 F120.00
G01 X54.9326 Y53.3944 F120.00
G01 X54.9332 Y53.3944 F120.00
G01 X54.9337 Y53.3827 F120.00
G01 X54.9342 Y53.3523 F120.00
G00 Z2.0000
G00 X24.3482 Y62.0459
G01 F60.00
G01 Z-0.5000
G01 F120.00
G01 X0.7884 Y62.1120 F120.00
G01 X0.7370 Y62.1108 F120.00
G01 X0.6879 Y62.1072 F120.00
G01 X0.6368 Y62.1009 F120.00
G01 X0.5884 Y62.0926 F120.00
G01 X0.5405 Y62.0819 F120.00
G01 X0.4909 Y62.0683 F120.00
G01 X0.4419 Y62.0522 F120.00
G01 X0.3960 Y62.0345 F120.00
G01 X0.3490 Y62.0137 F120.00
G01 X0.3051 Y61.9916 F120.00
G01 X0.2623 Y61.9675 F120.00
G01 X0.2188 Y61.9401 F120.00
G01 X0.1785 Y61.9118 F120.00
G01 X0.1379 Y61.8803 F120.00
G01 X0.1006 Y61.8482 F120.00
G01 X0.0632 Y61.8128 F120.00
G01 X0.0293 Y61.7773 F120.00
G01 X-0.0044 Y61.7384 F120.00
G01 X-0.0347 Y61.6997 F120.00
G01 X-0.0644 Y61.6577 F120.00
G01 X-0.0920 Y61.6142 F120.00
G01 X-0.1163 Y61.5714 F120.00
G01 X-0.1395 Y61.5255 F120.00
G01 X-0.1594 Y61.4806 F120.00
G01 X-0.1772 Y61.4348 F120.00
G01 X-0.1935 Y61.3859 F120.00
G01 X-0.2072 Y61.3363 F120.00
G01 X-0.2180 Y61.2883 F120.00
G01 X-0.2265 Y61.2400 F120.00
G01 X-0.2329 Y61.1889 F120.00
G01 X-0.2366 Y61.1399 F120.00
G01 X-0.2380 Y61.0885 F120.00
G01 X-0.2380 Y33.5435 F120.00
G00 X-0.2380 Y33.5435
G01 F60.00
G01 Z-1.0000
G01 F120.00
G01 X-0.2380 Y61.0885 F120.00
G01 X-0.2366 Y61.1399 F120.00
G01 X-0.2329 Y61.1889 F120.00
G01 X-0.2265 Y61.2400 F120.00
G01 X-0.2180 Y61.2883 F120.00
G01 X-0.2072 Y61.3363 F120.00
G01 X-0.1935 Y61.3859 F120.00
G01 X-0.1772 Y61.4348 F120.00
G01 X-0.1594 Y61.4806 F120.00
G01 X-0.1395 Y61.5255 F120.00
G01 X-0.1163 Y61.5714 F120.00
G01 X-0.0920 Y61.6142 F120.00
G01 X-0.0644 Y61.6577 F120.00
G01 X-0.0347 Y61.6997 F120.00
G01 X-0.0044 Y61.7384 F120.00
G01 X0.0293 Y61.7773 F120.00
G01 X0.0632 Y61.8128 F120.00
G01 X0.1006 Y61.8482 F120.00
G01 X0.1379 Y61.8803 F120.00
G01 X0.1785 Y61.9118 F120.00
G01 X0.2188 Y61.9401 F120.00
G01 X0.2623 Y61.9675 F120.00
G01 X0.3051 Y61.9916 F120.00
G01 X0.3490 Y62.0137 F120.00
G01 X0.3960 Y62.0345 F120.00
G01 X0.4419 Y62.0522 F120.00
G01 X0.4909 Y62.0683 F120.00
G01 X0.5405 Y62.0819 F120.00
G01 X0.5884 Y62.0926 F120.00
G01 X0.6368 Y62.1009 F120.00
G01 X0.6879 Y62.1072 F120.00
G01 X0.7370 Y62.1108 F120.00
G01 X0.7884 Y62.1120 F120.00
G01 X24.3482 Y62.0459 F120.00
G00 X24.3482 Y62.0459
G01 F60.00
G01 Z-1.5000
G01 F120.00
G01 X0.7884 Y62.1120 F120.00
G01 X0.7370 Y62.1108 F120.00
G01 X0.6879 Y62.1072 F120.00
G01 X0.6368 Y62.1009 F120.00
G01 X0.5884 Y62.0926 F120.00
G01 X0.5405 Y62.0819 F120.00
G01 X0.4909 Y62.0683 F120.00
G01 X0.4419 Y62.0522 F120.00
G01 X0.3960 Y62.0345 F120.00
G01 X0.3490 Y62.0137 F120.00
G01 X0.3051 Y61.9916 F120.00
G01 X0.2623 Y61.9675 F120.00
G01 X0.2188 Y61.9401 F120.00
G01 X0.1785 Y61.9118 F120.00
G01 X0.1379 Y61.8803 F120.00
G01 X0.1006 Y61.8482 F120.00
G01 X0.0632 Y61.8128 F120.00
G01 X0.0293 Y61.7773 F120.00
G01 X-0.0044 Y61.7384 F120.00
G01 X-0.0347 Y61.6997 F120.00
G01 X-0.0644 Y61.6577 F120.00
G01 X-0.0920 Y61.6142 F120.00
G01 X-0.1163 Y61.5714 F120.00
G01 X-0.1395 Y61.5255 F120.00
G01 X-0.1594 Y61.4806 F120.00
G01 X-0.1772 Y61.4348 F120.00
G01 X-0.1935 Y61.3859 F120.00
G01 X-0.2072 Y61.3363 F120.00
G01 X-0.2180 Y61.2883 F120.00
G01 X-0.2265 Y61.2400 F120.00
G01 X-0.2329 Y61.1889 F120.00
G01 X-0.2366 Y61.1399 F120.00
G01 X-0.2380 Y61.0885 F120.00
G01 X-0.2380 Y33.5435 F120.00
G00 X-0.2380 Y33.5435
G01 F60.00
G01 Z-2.0000
G01 F120.00
G01 X-0.2380 Y61.0885 F120.00
G01 X-0.2366 Y61.1399 F120.00
G01 X-0.2329 Y61.1889 F120.00
G01 X-0.2265 Y61.2400 F120.00
G01 X-0.2180 Y61.2883 F120.00
G01 X-0.2072 Y61.3363 F120.00
G01 X-0.1935 Y61.3859 F120.00
G01 X-0.1772 Y61.4348 F120.00
G01 X-0.1594 Y61.4806 F120.00
G01 X-0.1395 Y61.5255 F120.00
G01 X-0.1163 Y61.5714 F120.00
G01 X-0.0920 Y61.6142 F120.00
G01 X-0.0644 Y61.6577 F120.00
G01 X-0.0347 Y61.6997 F120.00
G01 X-0.0044 Y61.7384 F120.00
G01 X0.0293 Y61.7773 F120.00
G01 X0.0632 Y61.8128 F120.00
G01 X0.1006 Y61.8482 F120.00
G01 X0.1379 Y61.8803 F120.00
G01 X0.1785 Y61.9118 F120.00
G01 X0.2188 Y61.9401 F120.00
G01 X0.2623 Y61.9675 F120.00
G01 X0.3051 Y61.9916 F120.00
G01 X0.3490 Y62.0137 F120.00
G01 X0.3960 Y62.0345 F120.00
G01 X0.4419 Y62.0522 F120.00
G01 X0.4909 Y62.0683 F120.00
G01 X0.5405 Y62.0819 F120.00
G01 X0.5884 Y62.0926 F120.00
G01 X0.6368 Y62.1009 F120.00
G01 X0.6879 Y62.1072 F120.00
G01 X0.7370 Y62.1108 F120.00
G01 X0.7884 Y62.1120 F120.00
G01 X24.3482 Y62.0459 F120.00
G00 X24.3482 Y62.0459
G01 F60.00
G01 Z-2.5000
G01 F120.00
G01 X0.7884 Y62.1120 F120.00
G01 X0.7370 Y62.1108 F120.00
G01 X0.6879 Y62.1072 F120.00
G01 X0.6368 Y62.1009 F120.00
G01 X0.5884 Y62.0926 F120.00
G01 X0.5405 Y62.0819 F120.00
G01 X0.4909 Y62.0683 F120.00
G01 X0.4419 Y62.0522 F120.00
G01 X0.3960 Y62.0345 F120.00
G01 X0.3490 Y62.0137 F120.00
G01 X0.3051 Y61.9916 F120.00
G01 X0.2623 Y61.9675 F120.00
G01 X0.2188 Y61.9401 F120.00
G01 X0.1785 Y61.9118 F120.00
G01 X0.1379 Y61.8803 F120.00
G01 X0.1006 Y61.8482 F120.00
G01 X0.0632 Y61.8128 F120.00
G01 X0.0293 Y61.7773 F120.00
G01 X-0.0044 Y61.7384 F120.00
G01 X-0.0347 Y61.6997 F120.00
G01 X-0.0644 Y61.6577 F120.00
G01 X-0.0920 Y61.6142 F120.00
G01 X-0.1163 Y61.5714 F120.00
G01 X-0.1395 Y61.5255 F120.00
G01 X-0.1594 Y61.4806 F120.00
G01 X-0.1772 Y61.4348 F120.00
G01 X-0.1935 Y61.3859 F120.00
G01 X-0.2072 Y61.3363 F120.00
G01 X-0.2180 Y61.2883 F120.00
G01 X-0.2265 Y61.2400 F120.00
G01 X-0.2329 Y61.1889 F120.00
G01 X-0.2366 Y61.1399 F120.00
G01 X-0.2380 Y61.0885 F120.00
G01 X-0.2380 Y33.5435 F120.00
G00 X-0.2380 Y33.5435
G01 F60.00
G01 Z-3.0000
G01 F120.00
G01 X-0.2380 Y61.0885 F120.00
G01 X-0.2366 Y61.1399 F120.00
G01 X-0.2329 Y61.1889 F120.00
G01 X-0.2265 Y61.2400 F120.00
G01 X-0.2180 Y61.2883 F120.00
G01 X-0.2072 Y61.3363 F120.00
G01 X-0.1935 Y61.3859 F120.00
G01 X-0.1772 Y61.4348 F120.00
G01 X-0.1594 Y61.4806 F120.00
G01 X-0.1395 Y61.5255 F120.00
G01 X-0.1163 Y61.5714 F120.00
G01 X-0.0920 Y61.6142 F120.00
G01 X-0.0644 Y61.6577 F120.00
G01 X-0.0347 Y61.6997 F120.00
G01 X-0.0044 Y61.7384 F120.00
G01 X0.0293 Y61.7773 F120.00
G01 X0.0632 Y61.8128 F120.00
G01 X0.1006 Y61.8482 F120.00
G01 X0.1379 Y61.8803 F120.00
G01 X0.1785 Y61.9118 F120.00
G01 X0.2188 Y61.9401 F120.00
G01 X0.2623 Y61.9675 F120.00
G01 X0.3051 Y61.9916 F120.00
G01 X0.3490 Y62.0137 F120.00
G01 X0.3960 Y62.0345 F120.00
G01 X0.4419 Y62.0522 F120.00
G01 X0.4909 Y62.0683 F120.00
G01 X0.5405 Y62.0819 F120.00
G01 X0.5884 Y62.0926 F120.00
G01 X0.6368 Y62.1009 F120.00
G01 X0.6879 Y62.1072 F120.00
G01 X0.7370 Y62.1108 F120.00
G01 X0.7884 Y62.1120 F120.00
G01 X24.3482 Y62.0459 F120.00
G00 X24.3482 Y62.0459
G01 F60.00
G01 Z-3.5000
G01 F120.00
G01 X0.7884 Y62.1120 F120.00
G01 X0.7370 Y62.1108 F120.00
G01 X0.6879 Y62.1072 F120.00
G01 X0.6368 Y62.1009 F120.00
G01 X0.5884 Y62.0926 F120.00
G01 X0.5405 Y62.0819 F120.00
G01 X0.4909 Y62.0683 F120.00
G01 X0.4419 Y62.0522 F120.00
G01 X0.3960 Y62.0345 F120.00
G01 X0.3490 Y62.0137 F120.00
G01 X0.3051 Y61.9916 F120.00
G01 X0.2623 Y61.9675 F120.00
G01 X0.2188 Y61.9401 F120.00
G01 X0.1785 Y61.9118 F120.00
G01 X0.1379 Y61.8803 F120.00
G01 X0.1006 Y61.8482 F120.00
G01 X0.0632 Y61.8128 F120.00
G01 X0.0293 Y61.7773 F120.00
G01 X-0.0044 Y61.7384 F120.00
G01 X-0.0347 Y61.6997 F120.00
G01 X-0.0644 Y61.6577 F120.00
G01 X-0.0920 Y61.6142 F120.00
G01 X-0.1163 Y61.5714 F120.00
G01 X-0.1395 Y61.5255 F120.00
G01 X-0.1594 Y61.4806 F120.00
G01 X-0.1772 Y61.4348 F120.00
G01 X-0.1935 Y61.3859 F120.00
G01 X-0.2072 Y61.3363 F120.00
G01 X-0.2180 Y61.2883 F120.00
G01 X-0.2265 Y61.2400 F120.00
G01 X-0.2329 Y61.1889 F120.00
G01 X-0.2366 Y61.1399 F120.00
G01 X-0.2380 Y61.0885 F120.00
G01 X-0.2380 Y33.5435 F120.00
G00 X-0.2380 Y33.5435
G01 F60.00
G01 Z-4.0000
G01 F120.00
G01 X-0.2380 Y61.0885 F120.00
G01 X-0.2366 Y61.1399 F120.00
G01 X-0.2329 Y61.1889 F120.00
G01 X-0.2265 Y61.2400 F120.00
G01 X-0.2180 Y61.2883 F120.00
G01 X-0.2072 Y61.3363 F120.00
G01 X-0.1935 Y61.3859 F120.00
G01 X-0.1772 Y61.4348 F120.00
G01 X-0.1594 Y61.4806 F120.00
G01 X-0.1395 Y61.5255 F120.00
G01 X-0.1163 Y61.5714 F120.00
G01 X-0.0920 Y61.6142 F120.00
G01 X-0.0644 Y61.6577 F120.00
G01 X-0.0347 Y61.6997 F120.00
G01 X-0.0044 Y61.7384 F120.00
G01 X0.0293 Y61.7773 F120.00
G01 X0.0632 Y61.8128 F120.00
G01 X0.1006 Y61.8482 F120.00
G01 X0.1379 Y61.8803 F120.00
G01 X0.1785 Y61.9118 F120.00
G01 X0.2188 Y61.9401 F120.00
G01 X0.2623 Y61.9675 F120.00
G01 X0.3051 Y61.9916 F120.00
G01 X0.3490 Y62.0137 F120.00
G01 X0.3960 Y62.0345 F120.00
G01 X0.4419 Y62.0522 F120.00
G01 X0.4909 Y62.0683 F120.00
G01 X0.5405 Y62.0819 F120.00
G01 X0.5884 Y62.0926 F120.00
G01 X0.6368 Y62.1009 F120.00
G01 X0.6879 Y62.1072 F120.00
G01 X0.7370 Y62.1108 F120.00
G01 X0.7884 Y62.1120 F120.00
G01 X24.3482 Y62.0459 F120.00
G00 Z2.0000
M05
G00 Z2.0000
G00 Z15.00
G00 X0.0 Y0.0

